;FLAVOR:RepRap
;TIME:1758
;Generated with Cura_SteamEngine 2.3.0
M104 S200
M109 S200
G21 ;metric values
G90 ;absolute positioning
M82 ;set extruder to absolute mode
M107 ;start with the fan off
G28 ;Home all axes (max endstops)
G1 Z15.0 F9000 ;move the platform down 15mm
G92 E0 ;zero the extruded length
G1 F200 E3 ;extrude 3mm of feed stock
G92 E0 ;zero the extruded length again
G1 F9000
;Put printing message on LCD screen
M117 Printing...
;LAYER_COUNT:17
;LAYER:0
M107
G1 F1500 E-6.5
G0 F7800 X24.036 Y-9.182 Z.3
;TYPE:SKIRT
G1 F1500 E0
G1 F1800 X24.562 Y-8.832 E0.03152
G1 X25.013 Y-8.444 E0.0612
G1 X25.703 Y-7.775 E0.10915
G1 X26.129 Y-7.307 E0.14072
G1 X26.429 Y-6.889 E0.16639
G1 X26.985 Y-6.024 E0.21769
G1 X27.293 Y-5.471 E0.24927
G1 X27.426 Y-5.165 E0.26592
G1 X27.838 Y-4.127 E0.32164
G1 X28.077 Y-3.346 E0.36238
G1 X28.338 Y-2.147 E0.4236
G1 X28.436 Y-1.479 E0.45729
G1 X28.542 Y-.145 E0.52405
G1 X28.555 Y.421 E0.55229
G1 X28.505 Y1.89 E0.62563
G1 X28.465 Y2.377 E0.65
G1 X28.259 Y3.93 E0.72816
G1 X28.185 Y4.348 E0.74934
G1 X27.828 Y5.97 E0.8322
G1 X27.733 Y6.335 E0.85102
G1 X27.225 Y8.024 E0.93901
G1 X27.113 Y8.355 E0.95644
G1 X26.474 Y10.042 E1.04644
G1 X26.345 Y10.35 E1.0631
G1 X25.567 Y12.052 E1.15647
G1 X25.427 Y12.336 E1.17226
G1 X24.545 Y13.981 E1.26539
G1 X24.389 Y14.25 E1.2809
G1 X23.399 Y15.849 E1.37473
G1 X23.218 Y16.121 E1.39103
G1 X22.132 Y17.643 E1.48431
G1 X21.938 Y17.897 E1.50025
G1 X20.799 Y19.295 E1.59022
G1 X20.563 Y19.564 E1.60807
G1 X19.357 Y20.845 E1.69585
G1 X19.091 Y21.108 E1.71451
G1 X17.862 Y22.232 E1.7976
G1 X17.533 Y22.508 E1.81902
G1 X16.284 Y23.467 E1.89759
G1 X15.889 Y23.741 E1.92157
G1 X14.652 Y24.514 E1.99434
G1 X14.148 Y24.79 E2.02301
G1 X12.932 Y25.368 E2.09018
G1 X12.307 Y25.615 E2.12371
G1 X11.139 Y25.988 E2.18488
G1 X10.348 Y26.171 E2.22539
G1 X9.244 Y26.334 E2.28106
G1 X8.614 Y26.387 E2.3126
G1 X8.267 Y26.382 E2.32992
G1 X7.236 Y26.331 E2.38142
G1 X6.608 Y26.26 E2.41295
G1 X6.122 Y26.148 E2.43783
G1 X5.203 Y25.888 E2.48548
G1 X4.607 Y25.678 E2.51701
G1 X4.067 Y25.409 E2.5471
G1 X-30.132 Y5.697 E4.51643
G1 X-30.659 Y5.347 E4.54799
G1 X-31.137 Y4.934 E4.57951
G1 X-31.559 Y4.464 E4.61102
G1 X-31.919 Y3.944 E4.64258
G1 X-32.21 Y3.383 E4.67411
G1 X-32.428 Y2.789 E4.70567
G1 X-32.569 Y2.173 E4.7372
G1 X-32.632 Y1.544 E4.76874
G1 X-32.614 Y.912 E4.80028
G1 X-32.518 Y.287 E4.83183
G1 X-32.343 Y-.32 E4.86335
G1 X-31.965 Y-1.135 E4.90817
G1 X-16.965 Y-27.115 E6.40484
G1 X-16.615 Y-27.641 E6.43636
G1 X-16.201 Y-28.119 E6.46791
G1 X-15.731 Y-28.541 E6.49942
G1 X-15.211 Y-28.901 E6.53098
G1 X-14.649 Y-29.191 E6.56253
G1 X-14.056 Y-29.409 E6.59405
G1 X-13.439 Y-29.55 E6.62562
G1 X-12.81 Y-29.612 E6.65716
G1 X-12.179 Y-29.594 E6.68865
G1 X-11.554 Y-29.497 E6.7202
G1 X-10.947 Y-29.321 E6.75173
G1 X-10.132 Y-28.943 E6.79656
G1 X24.036 Y-9.182 E8.76577
G0 F7800 X23.836 Y-8.836
G1 F1800 X24.34 Y-8.499 E8.79601
G1 X24.735 Y-8.157 E8.82208
G1 X25.425 Y-7.488 E8.87003
G1 X25.832 Y-7.038 E8.9003
G1 X26.093 Y-6.672 E8.92273
G1 X26.649 Y-5.807 E8.97403
G1 X27.055 Y-5.017 E9.01834
G1 X27.467 Y-3.979 E9.07406
G1 X27.686 Y-3.26 E9.11156
G1 X27.947 Y-2.061 E9.17277
G1 X28.038 Y-1.447 E9.20374
G1 X28.144 Y-.113 E9.2705
G1 X28.155 Y.407 E9.29645
G1 X28.105 Y1.876 E9.36978
G1 X28.068 Y2.325 E9.39226
G1 X27.862 Y3.878 E9.47042
G1 X27.794 Y4.262 E9.48988
G1 X27.437 Y5.884 E9.57273
G1 X27.35 Y6.22 E9.59005
G1 X26.842 Y7.909 E9.67804
G1 X26.739 Y8.213 E9.69406
G1 X26.1 Y9.9 E9.78406
G1 X25.982 Y10.183 E9.79935
G1 X25.204 Y11.885 E9.89272
G1 X25.074 Y12.147 E9.90731
G1 X24.192 Y13.792 E10.00043
G1 X24.049 Y14.039 E10.01467
G1 X23.059 Y15.638 E10.1085
G1 X22.893 Y15.889 E10.12351
G1 X21.807 Y17.411 E10.21679
G1 X21.628 Y17.645 E10.23149
G1 X20.489 Y19.043 E10.32145
G1 X20.272 Y19.29 E10.33786
G1 X19.066 Y20.571 E10.42563
G1 X18.821 Y20.812 E10.44278
G1 X17.592 Y21.936 E10.52587
G1 X17.289 Y22.191 E10.54563
G1 X16.04 Y23.15 E10.62419
G1 X15.677 Y23.402 E10.64624
G1 X14.44 Y24.175 E10.71901
G1 X13.977 Y24.429 E10.74536
G1 X12.761 Y25.007 E10.81253
G1 X12.185 Y25.234 E10.84342
G1 X11.017 Y25.607 E10.90459
G1 X10.29 Y25.776 E10.94182
G1 X9.186 Y25.939 E10.9975
G1 X8.287 Y25.982 E11.0424
G1 X7.256 Y25.931 E11.0939
G1 X6.653 Y25.862 E11.12418
G1 X6.231 Y25.763 E11.14581
G1 X5.312 Y25.503 E11.19346
G1 X4.74 Y25.3 E11.22374
G1 X4.267 Y25.062 E11.25015
G1 X-29.932 Y5.35 E13.21948
G1 X-30.436 Y5.014 E13.2497
G1 X-30.892 Y4.614 E13.27996
G1 X-31.291 Y4.157 E13.31023
G1 X-31.626 Y3.652 E13.34046
G1 X-31.892 Y3.107 E13.37072
G1 X-32.084 Y2.532 E13.40096
G1 X-32.199 Y1.937 E13.4312
G1 X-32.235 Y1.331 E13.46148
G1 X-32.191 Y.727 E13.4917
G1 X-32.067 Y.133 E13.52197
G1 X-31.867 Y-.439 E13.5522
G1 X-31.619 Y-.935 E13.57987
G1 X-16.619 Y-26.915 E15.07654
G1 X-16.282 Y-27.419 E15.10679
G1 X-15.881 Y-27.874 E15.13705
G1 X-15.424 Y-28.273 E15.16731
G1 X-14.919 Y-28.608 E15.19755
G1 X-14.374 Y-28.874 E15.2278
G1 X-13.799 Y-29.065 E15.25803
G1 X-13.203 Y-29.18 E15.28832
G1 X-12.598 Y-29.215 E15.31855
G1 X-11.993 Y-29.17 E15.34882
G1 X-11.4 Y-29.046 E15.37904
G1 X-10.828 Y-28.845 E15.40929
G1 X-10.332 Y-28.597 E15.43696
G1 X23.836 Y-8.836 E17.40617
G0 F7800 X23.636 Y-8.49
G1 F1800 X24.116 Y-8.166 E17.43506
G1 X24.457 Y-7.869 E17.45762
G1 X25.147 Y-7.2 E17.50557
G1 X25.534 Y-6.769 E17.53447
G1 X25.756 Y-6.456 E17.55361
G1 X26.312 Y-5.591 E17.60491
G1 X26.683 Y-4.869 E17.64541
G1 X27.095 Y-3.831 E17.70112
G1 X27.295 Y-3.175 E17.73534
G1 X27.556 Y-1.976 E17.79656
G1 X27.639 Y-1.416 E17.8248
G1 X27.745 Y-.082 E17.89157
G1 X27.756 Y.394 E17.91532
G1 X27.706 Y1.863 E17.98865
G1 X27.672 Y2.272 E18.00913
G1 X27.466 Y3.825 E18.08729
G1 X27.404 Y4.176 E18.10507
G1 X27.047 Y5.798 E18.18793
G1 X26.967 Y6.105 E18.20375
G1 X26.459 Y7.794 E18.29175
G1 X26.365 Y8.072 E18.30639
G1 X25.726 Y9.759 E18.39639
G1 X25.618 Y10.017 E18.41034
G1 X24.84 Y11.719 E18.50371
G1 X24.722 Y11.958 E18.517
G1 X23.84 Y13.603 E18.61013
G1 X23.709 Y13.829 E18.62316
G1 X22.719 Y15.428 E18.71699
G1 X22.567 Y15.657 E18.7307
G1 X21.481 Y17.179 E18.82398
G1 X21.318 Y17.392 E18.83736
G1 X20.179 Y18.79 E18.92732
G1 X19.981 Y19.016 E18.94232
G1 X18.775 Y20.297 E19.03009
G1 X18.552 Y20.517 E19.04572
G1 X17.323 Y21.641 E19.12881
G1 X17.046 Y21.873 E19.14684
G1 X15.797 Y22.832 E19.2254
G1 X15.465 Y23.063 E19.24558
G1 X14.228 Y23.836 E19.31835
G1 X13.805 Y24.067 E19.3424
G1 X12.589 Y24.645 E19.40957
G1 X12.064 Y24.853 E19.43774
G1 X10.896 Y25.226 E19.49891
G1 X10.231 Y25.38 E19.53297
G1 X9.127 Y25.543 E19.58864
G1 X8.306 Y25.583 E19.62965
G1 X7.275 Y25.532 E19.68115
G1 X6.7 Y25.463 E19.71004
G1 X6.34 Y25.378 E19.7285
G1 X5.421 Y25.118 E19.77615
G1 X4.875 Y24.923 E19.80507
G1 X4.467 Y24.716 E19.8279
G1 X-29.732 Y5.004 E21.79722
G1 X-30.213 Y4.681 E21.82613
G1 X-30.645 Y4.294 E21.85506
G1 X-31.019 Y3.852 E21.88395
G1 X-31.329 Y3.363 E21.91284
G1 X-31.569 Y2.836 E21.94173
G1 X-31.734 Y2.28 E21.97066
G1 X-31.821 Y1.707 E21.99958
G1 X-31.828 Y1.128 E22.02846
G1 X-31.756 Y.553 E22.05738
G1 X-31.605 Y-.006 E22.08626
G1 X-31.272 Y-.735 E22.12625
G1 X-16.272 Y-26.715 E23.62292
G1 X-15.949 Y-27.196 E23.65183
G1 X-15.562 Y-27.627 E23.68073
G1 X-15.12 Y-28.001 E23.70961
G1 X-14.63 Y-28.311 E23.73854
G1 X-14.103 Y-28.55 E23.76741
G1 X-13.547 Y-28.715 E23.79634
G1 X-12.974 Y-28.801 E23.82525
G1 X-12.395 Y-28.808 E23.85414
G1 X-11.82 Y-28.735 E23.88306
G1 X-11.261 Y-28.584 E23.91195
G1 X-10.532 Y-28.251 E23.95193
G1 X23.636 Y-8.49 E25.92114
G0 F7800 X23.435 Y-8.143
G1 F1800 X23.891 Y-7.834 E25.94862
G1 X24.178 Y-7.582 E25.96768
G1 X24.868 Y-6.913 E26.01562
G1 X25.235 Y-6.502 E26.04311
G1 X25.42 Y-6.24 E26.05911
G1 X25.976 Y-5.375 E26.11042
G1 X26.311 Y-4.722 E26.14703
G1 X26.723 Y-3.684 E26.20275
G1 X26.904 Y-3.09 E26.23373
G1 X27.165 Y-1.891 E26.29495
G1 X27.24 Y-1.384 E26.32052
G1 X27.346 Y-.05 E26.38728
G1 X27.356 Y.38 E26.40874
G1 X27.306 Y1.849 E26.48207
G1 X27.275 Y2.22 E26.50064
G1 X27.069 Y3.773 E26.5788
G1 X27.013 Y4.09 E26.59486
G1 X26.656 Y5.712 E26.67772
G1 X26.584 Y5.989 E26.692
G1 X26.076 Y7.678 E26.77999
G1 X25.991 Y7.93 E26.79326
G1 X25.352 Y9.617 E26.88326
G1 X25.254 Y9.851 E26.89592
G1 X24.476 Y11.553 E26.98928
G1 X24.369 Y11.769 E27.00131
G1 X23.487 Y13.414 E27.09443
G1 X23.369 Y13.618 E27.10619
G1 X22.379 Y15.217 E27.20001
G1 X22.241 Y15.424 E27.21243
G1 X21.155 Y16.946 E27.30571
G1 X21.008 Y17.139 E27.31781
G1 X19.869 Y18.537 E27.40777
G1 X19.69 Y18.742 E27.42135
G1 X18.484 Y20.023 E27.50913
G1 X18.282 Y20.222 E27.52327
G1 X17.053 Y21.346 E27.60637
G1 X16.802 Y21.556 E27.62269
G1 X15.553 Y22.515 E27.70126
G1 X15.253 Y22.724 E27.7195
G1 X14.016 Y23.497 E27.79227
G1 X13.633 Y23.706 E27.81404
G1 X12.417 Y24.284 E27.88121
G1 X11.942 Y24.472 E27.90669
G1 X10.774 Y24.845 E27.96787
G1 X10.173 Y24.984 E27.99864
G1 X9.069 Y25.147 E28.05432
G1 X8.326 Y25.183 E28.09143
G1 X7.295 Y25.132 E28.14293
G1 X6.748 Y25.065 E28.17042
G1 X6.449 Y24.993 E28.18577
G1 X5.53 Y24.733 E28.23341
G1 X5.012 Y24.545 E28.26091
G1 X4.666 Y24.369 E28.28027
G1 X-29.533 Y4.657 E30.2496
G1 X-29.989 Y4.348 E30.27708
G1 X-30.395 Y3.976 E30.30455
G1 X-30.744 Y3.55 E30.33203
G1 X-31.027 Y3.077 E30.35953
G1 X-31.239 Y2.569 E30.38699
G1 X-31.376 Y2.035 E30.4145
G1 X-31.433 Y1.487 E30.44198
G1 X-31.411 Y.936 E30.46949
G1 X-31.309 Y.395 E30.49696
G1 X-31.13 Y-.127 E30.52449
G1 X-30.926 Y-.535 E30.54725
G1 X-15.926 Y-26.515 E32.04392
G1 X-15.616 Y-26.971 E32.07143
G1 X-15.244 Y-27.377 E32.0989
G1 X-14.818 Y-27.726 E32.12638
G1 X-14.345 Y-28.009 E32.15388
G1 X-13.836 Y-28.22 E32.18137
G1 X-13.302 Y-28.356 E32.20886
G1 X-12.754 Y-28.413 E32.23635
G1 X-12.203 Y-28.39 E32.26386
G1 X-11.662 Y-28.288 E32.29133
G1 X-11.141 Y-28.109 E32.31881
G1 X-10.733 Y-27.904 E32.34159
G1 X23.435 Y-8.143 E34.3108
G0 F7800 X23.235 Y-7.797
G1 F1800 X23.665 Y-7.502 E34.33682
G1 X23.9 Y-7.295 E34.35244
G1 X24.59 Y-6.626 E34.40039
G1 X25.083 Y-6.023 E34.43925
G1 X25.639 Y-5.158 E34.49055
G1 X25.939 Y-4.574 E34.5233
G1 X26.351 Y-3.536 E34.57902
G1 X26.513 Y-3.005 E34.60672
G1 X26.774 Y-1.806 E34.66794
G1 X26.841 Y-1.352 E34.69083
G1 X26.947 Y-.018 E34.75759
G1 X26.956 Y.367 E34.77681
G1 X26.906 Y1.836 E34.85014
G1 X26.878 Y2.167 E34.86671
G1 X26.672 Y3.72 E34.94487
G1 X26.623 Y4.004 E34.95925
G1 X26.266 Y5.626 E35.04211
G1 X26.201 Y5.874 E35.0549
G1 X25.693 Y7.563 E35.14289
G1 X25.617 Y7.788 E35.15474
G1 X24.978 Y9.475 E35.24474
G1 X24.89 Y9.684 E35.25605
G1 X24.112 Y11.386 E35.34942
G1 X24.016 Y11.58 E35.36022
G1 X23.134 Y13.225 E35.45334
G1 X23.029 Y13.408 E35.46386
G1 X22.039 Y15.007 E35.55769
G1 X21.916 Y15.192 E35.56877
G1 X20.83 Y16.714 E35.66205
G1 X20.698 Y16.887 E35.67291
G1 X19.559 Y18.285 E35.76288
G1 X19.399 Y18.468 E35.775
G1 X18.193 Y19.749 E35.86278
G1 X18.012 Y19.927 E35.87544
G1 X16.783 Y21.051 E35.95853
G1 X16.559 Y21.239 E35.97312
G1 X15.31 Y22.198 E36.05169
G1 X15.041 Y22.384 E36.068
G1 X13.804 Y23.157 E36.14078
G1 X13.462 Y23.345 E36.16025
G1 X12.246 Y23.923 E36.22742
G1 X11.82 Y24.091 E36.25026
G1 X10.652 Y24.464 E36.31143
G1 X10.115 Y24.589 E36.33894
G1 X9.011 Y24.752 E36.39462
G1 X8.346 Y24.784 E36.42783
G1 X7.315 Y24.733 E36.47933
G1 X6.557 Y24.609 E36.51765
G1 X5.638 Y24.349 E36.5653
G1 X5.149 Y24.169 E36.5913
G1 X4.866 Y24.023 E36.60719
G1 X-29.333 Y4.311 E38.57651
G1 X-29.763 Y4.017 E38.6025
G1 X-30.143 Y3.66 E38.62851
G1 X-30.465 Y3.25 E38.65452
G1 X-30.72 Y2.795 E38.68054
G1 X-30.902 Y2.307 E38.70653
G1 X-31.007 Y1.797 E38.73251
G1 X-31.034 Y1.276 E38.75853
G1 X-30.98 Y.758 E38.78452
G1 X-30.848 Y.254 E38.81051
G1 X-30.579 Y-.335 E38.84281
G1 X-15.579 Y-26.315 E40.33949
G1 X-15.285 Y-26.745 E40.36547
G1 X-14.928 Y-27.125 E40.39149
G1 X-14.518 Y-27.446 E40.41747
G1 X-14.063 Y-27.701 E40.44349
G1 X-13.575 Y-27.883 E40.46947
G1 X-13.064 Y-27.988 E40.4955
G1 X-12.544 Y-28.014 E40.52147
G1 X-12.025 Y-27.96 E40.54751
G1 X-11.521 Y-27.827 E40.57351
G1 X-10.933 Y-27.558 E40.60577
G1 X23.235 Y-7.797 E42.57498
G0 F7800 X23.035 Y-7.451
G1 F1800 X23.437 Y-7.172 E42.59939
G1 X23.621 Y-7.008 E42.61169
G1 X24.311 Y-6.339 E42.65964
G1 X24.747 Y-5.807 E42.69396
G1 X25.303 Y-4.942 E42.74526
G1 X25.567 Y-4.427 E42.77413
G1 X25.979 Y-3.389 E42.82984
G1 X26.122 Y-2.92 E42.85431
G1 X26.383 Y-1.721 E42.91553
G1 X26.443 Y-1.321 E42.93571
G1 X26.549 Y.013 E43.00247
G1 X26.556 Y.353 E43.01944
G1 X26.506 Y1.822 E43.09277
G1 X26.482 Y2.114 E43.10738
G1 X26.276 Y3.667 E43.18554
G1 X26.232 Y3.918 E43.19825
G1 X25.875 Y5.54 E43.28111
G1 X25.818 Y5.759 E43.2924
G1 X25.31 Y7.448 E43.3804
G1 X25.242 Y7.647 E43.39089
G1 X24.603 Y9.334 E43.48089
G1 X24.526 Y9.518 E43.49084
G1 X23.748 Y11.22 E43.5842
G1 X23.664 Y11.391 E43.59371
G1 X22.782 Y13.036 E43.68683
G1 X22.689 Y13.197 E43.69611
G1 X21.699 Y14.796 E43.78993
G1 X21.59 Y14.96 E43.79976
G1 X20.504 Y16.482 E43.89304
G1 X20.388 Y16.634 E43.90258
G1 X19.249 Y18.032 E43.99254
G1 X19.107 Y18.193 E44.00325
G1 X17.901 Y19.474 E44.09103
G1 X17.742 Y19.632 E44.10221
G1 X16.513 Y20.756 E44.1853
G1 X16.315 Y20.921 E44.19816
G1 X15.066 Y21.88 E44.27672
G1 X14.829 Y22.045 E44.29113
G1 X13.592 Y22.818 E44.3639
G1 X13.29 Y22.983 E44.38107
G1 X12.074 Y23.561 E44.44824
G1 X11.699 Y23.71 E44.46838
G1 X10.531 Y24.083 E44.52955
G1 X10.056 Y24.193 E44.55387
G1 X8.952 Y24.356 E44.60955
G1 X8.366 Y24.384 E44.63882
G1 X7.335 Y24.333 E44.69032
G1 X6.666 Y24.224 E44.72413
G1 X5.747 Y23.964 E44.77178
G1 X5.289 Y23.792 E44.79619
G1 X5.066 Y23.676 E44.80873
G1 X-29.133 Y3.964 E46.77806
G1 X-29.536 Y3.686 E46.80248
G1 X-29.888 Y3.346 E46.8269
G1 X-30.18 Y2.953 E46.85132
G1 X-30.405 Y2.518 E46.87576
G1 X-30.555 Y2.052 E46.90018
G1 X-30.628 Y1.568 E46.9246
G1 X-30.621 Y1.079 E46.949
G1 X-30.535 Y.597 E46.97343
G1 X-30.372 Y.136 E46.99782
G1 X-30.233 Y-.135 E47.01302
G1 X-15.233 Y-26.115 E48.50969
G1 X-14.955 Y-26.518 E48.53412
G1 X-14.614 Y-26.869 E48.55853
G1 X-14.221 Y-27.161 E48.58296
G1 X-13.786 Y-27.385 E48.60737
G1 X-13.32 Y-27.536 E48.63181
G1 X-12.836 Y-27.608 E48.65622
G1 X-12.347 Y-27.601 E48.68062
G1 X-11.865 Y-27.514 E48.70505
G1 X-11.404 Y-27.351 E48.72945
G1 X-11.133 Y-27.212 E48.74464
G1 X23.035 Y-7.451 E50.71385
G0 F7800 X22.835 Y-7.105
G1 F1800 X23.343 Y-6.721 E50.74562
G1 X24.033 Y-6.052 E50.79357
G1 X24.41 Y-5.591 E50.82328
G1 X24.966 Y-4.726 E50.87458
G1 X25.196 Y-4.279 E50.89966
G1 X25.608 Y-3.241 E50.95538
G1 X25.732 Y-2.835 E50.97656
G1 X25.993 Y-1.636 E51.03778
G1 X26.044 Y-1.289 E51.05528
G1 X26.15 Y.045 E51.12204
G1 X26.156 Y.339 E51.13671
G1 X26.106 Y1.808 E51.21004
G1 X26.085 Y2.062 E51.22276
G1 X25.879 Y3.615 E51.30091
G1 X25.841 Y3.832 E51.3119
G1 X25.484 Y5.454 E51.39476
G1 X25.435 Y5.644 E51.40455
G1 X24.927 Y7.333 E51.49255
G1 X24.868 Y7.505 E51.50162
G1 X24.229 Y9.192 E51.59162
G1 X24.163 Y9.352 E51.60025
G1 X23.385 Y11.054 E51.69362
G1 X23.311 Y11.202 E51.70187
G1 X22.429 Y12.847 E51.79499
G1 X22.349 Y12.987 E51.80304
G1 X21.359 Y14.586 E51.89687
G1 X21.264 Y14.727 E51.90535
G1 X20.178 Y16.249 E51.99863
G1 X20.078 Y16.381 E52.00689
G1 X18.939 Y17.779 E52.09686
G1 X18.816 Y17.919 E52.10615
G1 X17.61 Y19.2 E52.19393
G1 X17.472 Y19.337 E52.20363
G1 X16.243 Y20.461 E52.28672
G1 X16.071 Y20.604 E52.29788
G1 X14.822 Y21.563 E52.37644
G1 X14.617 Y21.706 E52.38891
G1 X13.38 Y22.479 E52.46169
G1 X13.118 Y22.622 E52.47658
G1 X11.902 Y23.2 E52.54375
G1 X11.577 Y23.329 E52.56119
G1 X10.409 Y23.702 E52.62236
G1 X9.998 Y23.797 E52.64341
G1 X8.894 Y23.96 E52.69909
G1 X8.386 Y23.985 E52.72446
G1 X7.355 Y23.934 E52.77596
G1 X6.775 Y23.839 E52.80528
G1 X5.856 Y23.579 E52.85293
G1 X5.266 Y23.33 E52.88488
G1 X-28.933 Y3.618 E54.85421
G1 X-29.307 Y3.356 E54.87699
G1 X-29.629 Y3.034 E54.89971
G1 X-29.889 Y2.66 E54.92243
G1 X-30.081 Y2.247 E54.94515
G1 X-30.197 Y1.806 E54.9679
G1 X-30.235 Y1.352 E54.99063
G1 X-30.193 Y.899 E55.01333
G1 X-30.072 Y.459 E55.0361
G1 X-29.887 Y.065 E55.05781
G1 X-14.887 Y-25.915 E56.55449
G1 X-14.625 Y-26.288 E56.57723
G1 X-14.302 Y-26.61 E56.59998
G1 X-13.929 Y-26.87 E56.62267
G1 X-13.515 Y-27.062 E56.64543
G1 X-13.074 Y-27.178 E56.66818
G1 X-12.62 Y-27.215 E56.69091
G1 X-12.167 Y-27.172 E56.71361
G1 X-11.727 Y-27.051 E56.73638
G1 X-11.333 Y-26.866 E56.75809
