;FLAVOR:RepRap
;TIME:19752
;Generated with Cura_SteamEngine 2.3.0
M104 S200
M109 S200
G21 ;metric values
G90 ;absolute positioning
M82 ;set extruder to absolute mode
M107 ;start with the fan off
G28 ;Home all axes (max endstops)
G1 Z15.0 F9000 ;move the platform down 15mm
G92 E0 ;zero the extruded length
G1 F200 E3 ;extrude 3mm of feed stock
G92 E0 ;zero the extruded length again
G1 F9000
;Put printing message on LCD screen
M117 Printing...
;LAYER_COUNT:175
;LAYER:0
M107
G1 F1500 E-6.5
G0 F7800 X13.619 Y61.41 Z.3
;TYPE:SKIRT
G1 F1500 E0
G1 F1800 X-59.993 Y18.911 E4.24064
G1 X-60.519 Y18.561 E4.27216
G1 X-60.997 Y18.147 E4.3037
G1 X-61.419 Y17.677 E4.33522
G1 X-61.779 Y17.157 E4.36677
G1 X-62.069 Y16.595 E4.39832
G1 X-62.287 Y16.002 E4.42984
G1 X-62.428 Y15.386 E4.46137
G1 X-62.49 Y14.757 E4.4929
G1 X-62.472 Y14.125 E4.52445
G1 X-62.375 Y13.5 E4.556
G1 X-62.199 Y12.893 E4.58753
G1 X-61.823 Y12.081 E4.63218
G1 X-20.448 Y-59.581 E8.76052
G1 X-20.098 Y-60.107 E8.79204
G1 X-19.684 Y-60.585 E8.82359
G1 X-19.214 Y-61.007 E8.8551
G1 X-18.694 Y-61.367 E8.88666
G1 X-18.132 Y-61.657 E8.91821
G1 X-17.539 Y-61.875 E8.94973
G1 X-16.923 Y-62.016 E8.98126
G1 X-16.293 Y-62.078 E9.01284
G1 X-15.662 Y-62.06 E9.04433
G1 X-15.037 Y-61.963 E9.07589
G1 X-14.43 Y-61.787 E9.10742
G1 X-13.618 Y-61.411 E9.15206
G1 X59.993 Y-18.911 E13.39268
G1 X60.519 Y-18.561 E13.4242
G1 X60.997 Y-18.147 E13.45575
G1 X61.419 Y-17.677 E13.48726
G1 X61.779 Y-17.157 E13.51881
G1 X62.069 Y-16.595 E13.55036
G1 X62.287 Y-16.002 E13.58189
G1 X62.428 Y-15.386 E13.61341
G1 X62.49 Y-14.756 E13.64499
G1 X62.472 Y-14.125 E13.67649
G1 X62.375 Y-13.5 E13.70804
G1 X62.199 Y-12.893 E13.73957
G1 X61.823 Y-12.081 E13.78422
G1 X20.449 Y59.58 E17.91249
G1 X20.099 Y60.106 E17.94401
G1 X19.685 Y60.584 E17.97556
G1 X19.215 Y61.006 E18.00708
G1 X18.695 Y61.366 E18.03863
G1 X18.133 Y61.656 E18.07018
G1 X17.54 Y61.874 E18.1017
G1 X16.924 Y62.015 E18.13323
G1 X16.294 Y62.077 E18.16481
G1 X15.663 Y62.059 E18.19631
G1 X15.038 Y61.962 E18.22786
G1 X14.431 Y61.786 E18.25939
G1 X13.619 Y61.41 E18.30403
G0 F7800 X13.819 Y61.064
G1 F1800 X-59.793 Y18.565 E22.54467
G1 X-60.297 Y18.228 E22.57492
G1 X-60.752 Y17.827 E22.60517
G1 X-61.151 Y17.37 E22.63544
G1 X-61.486 Y16.865 E22.66568
G1 X-61.752 Y16.32 E22.69593
G1 X-61.943 Y15.745 E22.72616
G1 X-62.058 Y15.15 E22.75639
G1 X-62.093 Y14.544 E22.78668
G1 X-62.048 Y13.94 E22.81689
G1 X-61.924 Y13.346 E22.84717
G1 X-61.723 Y12.774 E22.87742
G1 X-61.477 Y12.281 E22.9049
G1 X-20.102 Y-59.381 E27.03325
G1 X-19.765 Y-59.885 E27.0635
G1 X-19.364 Y-60.34 E27.09375
G1 X-18.907 Y-60.739 E27.12402
G1 X-18.402 Y-61.074 E27.15426
G1 X-17.857 Y-61.34 E27.18451
G1 X-17.282 Y-61.531 E27.21474
G1 X-16.686 Y-61.646 E27.24502
G1 X-16.081 Y-61.681 E27.27526
G1 X-15.477 Y-61.636 E27.30547
G1 X-14.883 Y-61.512 E27.33575
G1 X-14.311 Y-61.311 E27.366
G1 X-13.818 Y-61.065 E27.39348
G1 X59.793 Y-18.565 E31.6341
G1 X60.297 Y-18.228 E31.66435
G1 X60.752 Y-17.827 E31.69461
G1 X61.151 Y-17.37 E31.72487
G1 X61.486 Y-16.865 E31.75511
G1 X61.752 Y-16.32 E31.78536
G1 X61.943 Y-15.745 E31.81559
G1 X62.058 Y-15.149 E31.84587
G1 X62.093 Y-14.544 E31.87611
G1 X62.048 Y-13.94 E31.90633
G1 X61.924 Y-13.346 E31.9366
G1 X61.723 Y-12.774 E31.96685
G1 X61.477 Y-12.281 E31.99433
G1 X20.103 Y59.38 E36.12261
G1 X19.766 Y59.884 E36.15286
G1 X19.365 Y60.339 E36.18312
G1 X18.908 Y60.738 E36.21338
G1 X18.403 Y61.073 E36.24362
G1 X17.858 Y61.339 E36.27387
G1 X17.283 Y61.53 E36.3041
G1 X16.687 Y61.645 E36.33438
G1 X16.082 Y61.68 E36.36462
G1 X15.478 Y61.635 E36.39484
G1 X14.884 Y61.511 E36.42511
G1 X14.312 Y61.31 E36.45536
G1 X13.819 Y61.064 E36.48285
G0 F7800 X14.019 Y60.717
G1 F1800 X-59.593 Y18.218 E40.72348
G1 X-60.073 Y17.895 E40.75235
G1 X-60.505 Y17.508 E40.78128
G1 X-60.879 Y17.066 E40.81017
G1 X-61.189 Y16.576 E40.8391
G1 X-61.428 Y16.049 E40.86796
G1 X-61.593 Y15.493 E40.8969
G1 X-61.679 Y14.921 E40.92576
G1 X-61.686 Y14.341 E40.9547
G1 X-61.613 Y13.767 E40.98356
G1 X-61.462 Y13.207 E41.0125
G1 X-61.13 Y12.481 E41.05233
G1 X-19.755 Y-59.181 E45.18067
G1 X-19.432 Y-59.662 E45.20958
G1 X-19.045 Y-60.093 E45.23848
G1 X-18.603 Y-60.467 E45.26736
G1 X-18.113 Y-60.777 E45.29629
G1 X-17.586 Y-61.016 E45.32516
G1 X-17.03 Y-61.181 E45.3541
G1 X-16.457 Y-61.267 E45.383
G1 X-15.878 Y-61.274 E45.41189
G1 X-15.303 Y-61.201 E45.44081
G1 X-14.744 Y-61.05 E45.4697
G1 X-14.018 Y-60.718 E45.50952
G1 X59.593 Y-18.218 E49.75014
G1 X60.074 Y-17.895 E49.77905
G1 X60.505 Y-17.508 E49.80795
G1 X60.879 Y-17.066 E49.83683
G1 X61.189 Y-16.576 E49.86576
G1 X61.428 Y-16.049 E49.89463
G1 X61.593 Y-15.493 E49.92356
G1 X61.679 Y-14.92 E49.95247
G1 X61.686 Y-14.341 E49.98136
G1 X61.613 Y-13.766 E50.01028
G1 X61.462 Y-13.207 E50.03917
G1 X61.13 Y-12.481 E50.07899
G1 X19.756 Y59.18 E54.20727
G1 X19.433 Y59.661 E54.23618
G1 X19.046 Y60.092 E54.26508
G1 X18.604 Y60.466 E54.29396
G1 X18.114 Y60.776 E54.32289
G1 X17.587 Y61.015 E54.35176
G1 X17.031 Y61.18 E54.38069
G1 X16.458 Y61.266 E54.4096
G1 X15.879 Y61.273 E54.43849
G1 X15.304 Y61.2 E54.46741
G1 X14.745 Y61.049 E54.49629
G1 X14.019 Y60.717 E54.53612
G0 F7800 X14.219 Y60.371
G1 F1800 X-59.393 Y17.872 E58.77676
G1 X-59.849 Y17.563 E58.80424
G1 X-60.255 Y17.19 E58.83175
G1 X-60.604 Y16.764 E58.85922
G1 X-60.887 Y16.291 E58.88672
G1 X-61.098 Y15.782 E58.91421
G1 X-61.234 Y15.248 E58.9417
G1 X-61.291 Y14.7 E58.96919
G1 X-61.268 Y14.149 E58.9967
G1 X-61.166 Y13.608 E59.02417
G1 X-60.987 Y13.087 E59.05165
G1 X-60.784 Y12.681 E59.0743
G1 X-19.409 Y-58.981 E63.20264
G1 X-19.1 Y-59.437 E63.23012
G1 X-18.727 Y-59.843 E63.25763
G1 X-18.301 Y-60.192 E63.2851
G1 X-17.828 Y-60.475 E63.3126
G1 X-17.319 Y-60.686 E63.34009
G1 X-16.785 Y-60.822 E63.36759
G1 X-16.237 Y-60.879 E63.39507
G1 X-15.686 Y-60.856 E63.42259
G1 X-15.145 Y-60.754 E63.45005
G1 X-14.624 Y-60.575 E63.47754
G1 X-14.218 Y-60.372 E63.50018
G1 X59.393 Y-17.872 E67.7408
G1 X59.849 Y-17.563 E67.76828
G1 X60.255 Y-17.19 E67.79579
G1 X60.604 Y-16.764 E67.82326
G1 X60.887 Y-16.291 E67.85076
G1 X61.098 Y-15.782 E67.87825
G1 X61.234 Y-15.248 E67.90574
G1 X61.291 Y-14.7 E67.93323
G1 X61.268 Y-14.149 E67.96074
G1 X61.166 Y-13.608 E67.98821
G1 X60.987 Y-13.087 E68.01569
G1 X60.784 Y-12.681 E68.03834
G1 X19.41 Y58.98 E72.16662
G1 X19.101 Y59.436 E72.1941
G1 X18.728 Y59.842 E72.2216
G1 X18.302 Y60.191 E72.24908
G1 X17.829 Y60.474 E72.27658
G1 X17.32 Y60.685 E72.30407
G1 X16.786 Y60.821 E72.33156
G1 X16.238 Y60.878 E72.35905
G1 X15.687 Y60.855 E72.38656
G1 X15.146 Y60.753 E72.41403
G1 X14.625 Y60.574 E72.44151
G1 X14.219 Y60.371 E72.46416
G0 F7800 X14.419 Y60.025
G1 F1800 X-59.193 Y17.526 E76.70479
G1 X-59.623 Y17.231 E76.73081
G1 X-60.003 Y16.874 E76.75682
G1 X-60.324 Y16.464 E76.7828
G1 X-60.579 Y16.009 E76.80882
G1 X-60.761 Y15.521 E76.83481
G1 X-60.866 Y15.01 E76.86083
G1 X-60.892 Y14.49 E76.88681
G1 X-60.838 Y13.972 E76.91279
G1 X-60.705 Y13.467 E76.93884
G1 X-60.437 Y12.881 E76.97099
G1 X-19.062 Y-58.781 E81.09934
G1 X-18.768 Y-59.211 E81.12532
G1 X-18.411 Y-59.591 E81.15134
G1 X-18.001 Y-59.912 E81.17732
G1 X-17.546 Y-60.167 E81.20334
G1 X-17.058 Y-60.349 E81.22932
G1 X-16.547 Y-60.454 E81.25535
G1 X-16.027 Y-60.48 E81.28132
G1 X-15.508 Y-60.426 E81.30736
G1 X-15.004 Y-60.293 E81.33336
G1 X-14.418 Y-60.025 E81.36551
G1 X59.193 Y-17.525 E85.60613
G1 X59.623 Y-17.231 E85.63212
G1 X60.003 Y-16.874 E85.65813
G1 X60.324 Y-16.464 E85.68411
G1 X60.579 Y-16.009 E85.71013
G1 X60.761 Y-15.521 E85.73611
G1 X60.866 Y-15.01 E85.76214
G1 X60.892 Y-14.49 E85.78811
G1 X60.838 Y-13.971 E85.81415
G1 X60.705 Y-13.467 E85.84015
G1 X60.437 Y-12.881 E85.8723
G1 X19.063 Y58.78 E90.00058
G1 X18.769 Y59.21 E90.02657
G1 X18.412 Y59.59 E90.05258
G1 X18.002 Y59.911 E90.07856
G1 X17.547 Y60.166 E90.10458
G1 X17.059 Y60.348 E90.13056
G1 X16.548 Y60.453 E90.15659
G1 X16.028 Y60.479 E90.18256
G1 X15.509 Y60.425 E90.2086
G1 X15.005 Y60.292 E90.2346
G1 X14.419 Y60.025 E90.26673
G0 F7800 X14.619 Y59.678
G1 F1800 X-58.993 Y17.179 E94.50736
G1 X-59.396 Y16.901 E94.53179
G1 X-59.747 Y16.56 E94.55621
G1 X-60.039 Y16.167 E94.58063
G1 X-60.263 Y15.732 E94.60504
G1 X-60.414 Y15.266 E94.62948
G1 X-60.486 Y14.782 E94.65389
G1 X-60.479 Y14.293 E94.67829
G1 X-60.393 Y13.811 E94.70272
G1 X-60.229 Y13.35 E94.72713
G1 X-60.091 Y13.081 E94.74221
G1 X-18.716 Y-58.581 E98.87056
G1 X-18.438 Y-58.984 E98.89498
G1 X-18.097 Y-59.335 E98.9194
G1 X-17.704 Y-59.627 E98.94383
G1 X-17.269 Y-59.851 E98.96824
G1 X-16.803 Y-60.002 E98.99268
G1 X-16.319 Y-60.074 E99.01709
G1 X-15.83 Y-60.067 E99.04149
G1 X-15.348 Y-59.981 E99.06591
G1 X-14.887 Y-59.817 E99.09033
G1 X-14.618 Y-59.679 E99.10541
G1 X58.993 Y-17.179 E103.34603
G1 X59.396 Y-16.901 E103.37045
G1 X59.747 Y-16.56 E103.39487
G1 X60.039 Y-16.167 E103.41929
G1 X60.263 Y-15.732 E103.4437
G1 X60.414 Y-15.266 E103.46814
G1 X60.486 Y-14.782 E103.49255
G1 X60.479 Y-14.293 E103.51695
G1 X60.393 Y-13.811 E103.54138
G1 X60.229 Y-13.35 E103.56579
G1 X60.091 Y-13.081 E103.58087
G1 X18.717 Y58.58 E107.70915
G1 X18.439 Y58.983 E107.73358
G1 X18.098 Y59.334 E107.75799
G1 X17.705 Y59.626 E107.78242
G1 X17.27 Y59.85 E107.80683
G1 X16.804 Y60.001 E107.83127
G1 X16.32 Y60.073 E107.85568
G1 X15.831 Y60.066 E107.88008
G1 X15.349 Y59.98 E107.90451
G1 X14.888 Y59.816 E107.92892
G1 X14.619 Y59.678 E107.944
G0 F7800 X14.819 Y59.332
G1 F1800 X-58.793 Y16.833 E112.18464
G1 X-59.166 Y16.571 E112.20738
G1 X-59.488 Y16.249 E112.2301
G1 X-59.748 Y15.875 E112.25282
G1 X-59.94 Y15.461 E112.27559
G1 X-60.056 Y15.021 E112.29829
G1 X-60.093 Y14.566 E112.32107
G1 X-60.05 Y14.113 E112.34377
G1 X-59.929 Y13.674 E112.36649
G1 X-59.745 Y13.281 E112.38814
G1 X-18.37 Y-58.381 E116.51648
G1 X-18.108 Y-58.754 E116.53922
G1 X-17.786 Y-59.076 E116.56194
G1 X-17.412 Y-59.336 E116.58466
G1 X-16.998 Y-59.528 E116.60743
G1 X-16.557 Y-59.644 E116.63018
G1 X-16.103 Y-59.681 E116.65291
G1 X-15.65 Y-59.638 E116.67561
G1 X-15.21 Y-59.517 E116.69838
G1 X-14.818 Y-59.333 E116.71998
G1 X58.793 Y-16.833 E120.9606
G1 X59.166 Y-16.571 E120.98334
G1 X59.488 Y-16.249 E121.00606
G1 X59.748 Y-15.875 E121.02878
G1 X59.94 Y-15.461 E121.05155
G1 X60.056 Y-15.02 E121.0743
G1 X60.093 Y-14.566 E121.09703
G1 X60.05 Y-14.113 E121.11973
G1 X59.929 Y-13.673 E121.14249
G1 X59.745 Y-13.281 E121.1641
G1 X18.371 Y58.38 E125.29237
G1 X18.109 Y58.753 E125.31512
G1 X17.787 Y59.075 E125.33783
G1 X17.413 Y59.335 E125.36056
G1 X16.999 Y59.527 E125.38333
G1 X16.558 Y59.643 E125.40608
G1 X16.104 Y59.68 E125.4288
G1 X15.651 Y59.637 E125.4515
G1 X15.211 Y59.516 E125.47427
G1 X14.819 Y59.332 E125.49587
G0 F7800 X15.019 Y58.985
G1 F1800 X-58.593 Y16.486 E129.73651
G1 X-58.934 Y16.243 E129.7574
G1 X-59.223 Y15.94 E129.77829
G1 X-59.45 Y15.587 E129.79923
G1 X-59.605 Y15.198 E129.82012
G1 X-59.683 Y14.786 E129.84104
G1 X-59.683 Y14.367 E129.86194
G1 X-59.602 Y13.956 E129.88284
G1 X-59.398 Y13.481 E129.90863
G1 X-18.023 Y-58.181 E134.03698
G1 X-17.78 Y-58.522 E134.05787
G1 X-17.477 Y-58.811 E134.07876
G1 X-17.124 Y-59.038 E134.0997
G1 X-16.735 Y-59.193 E134.12059
G1 X-16.323 Y-59.271 E134.14151
G1 X-15.904 Y-59.271 E134.16241
G1 X-15.493 Y-59.19 E134.18331
G1 X-15.018 Y-58.986 E134.2091
G1 X58.593 Y-16.486 E138.44972
G1 X58.934 Y-16.243 E138.47061
G1 X59.223 Y-15.94 E138.4915
G1 X59.45 Y-15.587 E138.51244
G1 X59.605 Y-15.198 E138.53333
G1 X59.683 Y-14.786 E138.55425
G1 X59.683 Y-14.367 E138.57515
G1 X59.602 Y-13.956 E138.59605
G1 X59.398 Y-13.481 E138.62184
G1 X18.024 Y58.18 E142.75012
G1 X17.781 Y58.521 E142.77101
G1 X17.478 Y58.81 E142.7919
G1 X17.125 Y59.037 E142.81284
G1 X16.736 Y59.192 E142.83373
G1 X16.324 Y59.27 E142.85465
G1 X15.905 Y59.27 E142.87556
G1 X15.494 Y59.189 E142.89645
G1 X15.019 Y58.985 E142.92225
G0 F7800 X15.219 Y58.639
G1 F1800 X-58.393 Y16.14 E147.16288
G1 X-58.699 Y15.917 E147.18177
G1 X-58.952 Y15.635 E147.20067
G1 X-59.141 Y15.306 E147.2196
G1 X-59.256 Y14.945 E147.2385
G1 X-59.293 Y14.568 E147.2574
G1 X-59.25 Y14.191 E147.27633
G1 X-59.052 Y13.681 E147.30363
G1 X-17.677 Y-57.981 E151.43197
G1 X-17.454 Y-58.287 E151.45086
G1 X-17.172 Y-58.54 E151.46976
G1 X-16.843 Y-58.729 E151.48869
G1 X-16.482 Y-58.844 E151.5076
G1 X-16.105 Y-58.881 E151.5265
G1 X-15.728 Y-58.838 E151.54543
G1 X-15.218 Y-58.64 E151.57272
G1 X58.393 Y-16.14 E155.81334
G1 X58.699 Y-15.917 E155.83223
G1 X58.952 Y-15.635 E155.85113
G1 X59.141 Y-15.306 E155.87006
G1 X59.256 Y-14.945 E155.88896
G1 X59.293 Y-14.568 E155.90786
G1 X59.25 Y-14.191 E155.92679
G1 X59.052 Y-13.681 E155.95408
G1 X17.678 Y57.98 E160.08236
G1 X17.455 Y58.286 E160.10125
G1 X17.173 Y58.539 E160.12015
G1 X16.844 Y58.728 E160.13908
G1 X16.483 Y58.843 E160.15798
G1 X16.106 Y58.88 E160.17688
G1 X15.729 Y58.837 E160.19581
G1 X15.219 Y58.639 E160.22311
G0 F7800 X15.419 Y58.292
G1 F1800 X-58.193 Y15.793 E164.46374
G1 X-58.46 Y15.593 E164.48039
G1 X-58.673 Y15.335 E164.49708
G1 X-58.818 Y15.034 E164.51375
G1 X-58.887 Y14.707 E164.53042
G1 X-58.878 Y14.374 E164.54704
G1 X-58.789 Y14.051 E164.56375
G1 X-58.705 Y13.881 E164.57321
G1 X-17.33 Y-57.781 E168.70156
G1 X-17.13 Y-58.048 E168.7182
G1 X-16.872 Y-58.261 E168.73489
G1 X-16.571 Y-58.406 E168.75156
G1 X-16.244 Y-58.475 E168.76824
G1 X-15.911 Y-58.466 E168.78486
G1 X-15.588 Y-58.377 E168.80157
G1 X-15.418 Y-58.293 E168.81103
G1 X58.193 Y-15.793 E173.05165
G1 X58.46 Y-15.593 E173.06829
G1 X58.673 Y-15.335 E173.08498
G1 X58.818 Y-15.034 E173.10165
G1 X58.887 Y-14.707 E173.11833
G1 X58.878 Y-14.374 E173.13494
G1 X58.789 Y-14.051 E173.15166
G1 X58.705 Y-13.881 E173.16112
G1 X17.331 Y57.78 E177.2894
G1 X17.131 Y58.047 E177.30604
G1 X16.873 Y58.26 E177.32273
G1 X16.572 Y58.405 E177.3394
G1 X16.245 Y58.474 E177.35607
G1 X15.912 Y58.465 E177.37269
G1 X15.589 Y58.376 E177.38941
G1 X15.419 Y58.292 E177.39887
G0 F7800 X15.619 Y57.946
G1 F1800 X-57.993 Y15.447 E181.6395
G1 X-58.215 Y15.273 E181.65358
G1 X-58.38 Y15.044 E181.66766
G1 X-58.473 Y14.778 E181.68172
G1 X-58.489 Y14.496 E181.69581
G1 X-58.426 Y14.221 E181.70988
G1 X-58.359 Y14.081 E181.71763
G1 X-16.984 Y-57.581 E185.84597
G1 X-16.81 Y-57.803 E185.86004
G1 X-16.581 Y-57.968 E185.87412
G1 X-16.315 Y-58.061 E185.88818
G1 X-16.033 Y-58.077 E185.90228
G1 X-15.758 Y-58.014 E185.91635
G1 X-15.618 Y-57.947 E185.92409
G1 X57.993 Y-15.447 E190.16471
G1 X58.215 Y-15.273 E190.17878
G1 X58.38 Y-15.044 E190.19286
G1 X58.473 Y-14.778 E190.20692
G1 X58.489 Y-14.496 E190.22101
G1 X58.426 Y-14.221 E190.23509
G1 X58.359 Y-14.081 E190.24283
G1 X16.985 Y57.58 E194.37111
G1 X16.811 Y57.802 E194.38518
G1 X16.582 Y57.967 E194.39926
G1 X16.316 Y58.06 E194.41332
G1 X16.034 Y58.076 E194.42741
G1 X15.759 Y58.013 E194.44149
G1 X15.619 Y57.946 E194.44923
G0 F7800 X15.819 Y57.6
G1 F1800 X-57.793 Y15.101 E198.68987
G1 X-57.959 Y14.959 E198.70077
G1 X-58.063 Y14.767 E198.71166
G1 X-58.092 Y14.551 E198.72253
G1 X-58.013 Y14.281 E198.73657
G1 X-16.638 Y-57.381 E202.86491
G1 X-16.496 Y-57.547 E202.87581
G1 X-16.304 Y-57.651 E202.88671
G1 X-16.088 Y-57.68 E202.89758
G1 X-15.818 Y-57.601 E202.91161
G1 X57.793 Y-15.101 E207.15223
G1 X57.959 Y-14.959 E207.16313
G1 X58.063 Y-14.767 E207.17402
G1 X58.092 Y-14.551 E207.1849
G1 X58.013 Y-14.281 E207.19893
G1 X16.639 Y57.38 E211.32721
G1 X16.497 Y57.546 E211.33811
G1 X16.305 Y57.65 E211.349
G1 X16.089 Y57.679 E211.35987
G1 X15.819 Y57.6 E211.37391
G0 F7800 X16.292 Y57.18
G1 F1800 X16.199 Y57.263 E211.38013
G1 X16.019 Y57.253 E211.38912
G1 X-57.593 Y14.754 E215.62976
G1 X-57.676 Y14.661 E215.63598
G1 X-57.666 Y14.481 E215.64497
G1 X-16.291 Y-57.181 E219.77332
G1 X-16.198 Y-57.264 E219.77953
G1 X-16.018 Y-57.254 E219.78853
G1 X57.593 Y-14.754 E224.02915
G1 X57.676 Y-14.661 E224.03536
G1 X57.666 Y-14.481 E224.04436
G1 X16.292 Y57.18 E228.17264
G1 F1500 E221.67264
G0 F7800 X15.89 Y56.223
G0 X15.875 Y56.165
G0 X15.9 Y56.261
;TYPE:WALL-INNER
G1 F1500 E228.17264
G1 F1800 X-56.501 Y14.461 E232.34351
G1 X-56.674 Y14.362 E232.35346
G1 X-56.574 Y14.189 E232.35989
G1 X-15.899 Y-56.262 E236.41845
G1 X56.674 Y-14.362 E240.59926
G1 X15.9 Y56.261 E244.66772
G0 F7800 X16.046 Y56.807
;TYPE:WALL-OUTER
G1 F1800 X-57.047 Y14.607 E248.87847
