;FLAVOR:RepRap
;TIME:5848
;Generated with Cura_SteamEngine 2.3.0
M104 S200
M109 S200
G21 ;metric values
G90 ;absolute positioning
M82 ;set extruder to absolute mode
M107 ;start with the fan off
G28 ;Home all axes (max endstops)
G1 Z15.0 F9000 ;move the platform down 15mm
G92 E0 ;zero the extruded length
G1 F200 E3 ;extrude 3mm of feed stock
G92 E0 ;zero the extruded length again
G1 F9000
;Put printing message on LCD screen
M117 Printing...
;LAYER_COUNT:192
;LAYER:0
M107
G1 F1500 E-6.5
G0 F7800 X-7.253 Y44.063 Z.3
;TYPE:SKIRT
G1 F1500 E0
G1 F1800 X-7.603 Y44.589 E0.03152
G1 X-8.017 Y45.067 E0.06307
G1 X-8.487 Y45.489 E0.09458
G1 X-9.007 Y45.849 E0.12614
G1 X-9.569 Y46.139 E0.15769
G1 X-10.162 Y46.357 E0.18921
G1 X-10.778 Y46.498 E0.22073
G1 X-11.408 Y46.56 E0.25232
G1 X-12.039 Y46.542 E0.28381
G1 X-12.664 Y46.445 E0.31537
G1 X-13.035 Y46.337 E0.33464
G1 X-13.145 Y46.796 E0.35819
G1 X-13.33 Y47.4 E0.38971
G1 X-13.718 Y48.203 E0.4342
G1 X-13.93 Y48.557 E0.45479
G1 X-14.289 Y49.078 E0.48635
G1 X-14.71 Y49.549 E0.51787
G1 X-15.187 Y49.963 E0.54938
G1 X-15.713 Y50.314 E0.58093
G1 X-16.279 Y50.596 E0.61248
G1 X-16.876 Y50.804 E0.64402
G1 X-17.494 Y50.935 E0.67554
G1 X-18.124 Y50.987 E0.70707
G1 X-18.756 Y50.959 E0.73863
G1 X-19.379 Y50.852 E0.77017
G1 X-19.983 Y50.667 E0.80169
G1 X-20.718 Y50.319 E0.84226
G1 X-23.25 Y48.859 E0.98808
G1 X-23.776 Y48.51 E1.01957
G1 X-24.254 Y48.096 E1.05112
G1 X-24.677 Y47.626 E1.08266
G1 X-25.036 Y47.106 E1.11419
G1 X-25.327 Y46.545 E1.14572
G1 X-25.545 Y45.951 E1.17729
G1 X-25.686 Y45.335 E1.20881
G1 X-25.749 Y44.706 E1.24035
G1 X-25.746 Y44.607 E1.24529
G1 X-25.871 Y44.682 E1.25257
G1 X-26.449 Y44.937 E1.28408
G1 X-27.055 Y45.118 E1.31564
G1 X-27.679 Y45.22 E1.34718
G1 X-28.31 Y45.243 E1.37868
G1 X-28.94 Y45.186 E1.41024
G1 X-29.557 Y45.05 E1.44176
G1 X-30.153 Y44.838 E1.47332
G1 X-30.678 Y44.574 E1.50264
G1 X-33.226 Y43.101 E1.64947
G1 X-33.753 Y42.75 E1.68106
G1 X-34.23 Y42.336 E1.71258
G1 X-34.652 Y41.866 E1.74409
G1 X-35.011 Y41.345 E1.77565
G1 X-35.301 Y40.784 E1.80716
G1 X-35.519 Y40.19 E1.83873
G1 X-35.659 Y39.574 E1.87025
G1 X-35.721 Y38.945 E1.90178
G1 X-35.703 Y38.313 E1.93332
G1 X-35.605 Y37.688 E1.96488
G1 X-35.429 Y37.081 E1.99641
G1 X-35.178 Y36.501 E2.02794
G1 X-35.008 Y36.194 E2.04545
G1 X-34.786 Y35.825 E2.06694
G1 X-34.427 Y35.305 E2.09846
G1 X-34.005 Y34.835 E2.12997
G1 X-33.612 Y34.488 E2.15613
G1 X-33.597 Y34.476 E2.15709
G1 X-33.708 Y34.381 E2.16438
G1 X-34.13 Y33.91 E2.19593
G1 X-34.489 Y33.39 E2.22745
G1 X-34.78 Y32.829 E2.25898
G1 X-34.998 Y32.235 E2.29055
G1 X-35.139 Y31.619 E2.32208
G1 X-35.201 Y30.99 E2.35361
G1 X-35.183 Y30.358 E2.38515
G1 X-35.086 Y29.733 E2.41671
G1 X-34.91 Y29.126 E2.44824
G1 X-34.534 Y28.314 E2.49288
G1 X7.253 Y-44.063 E6.6624
G1 X7.603 Y-44.589 E6.69392
G1 X8.017 Y-45.067 E6.72547
G1 X8.487 Y-45.489 E6.75698
G1 X9.007 Y-45.849 E6.78853
G1 X9.569 Y-46.139 E6.82008
G1 X10.162 Y-46.357 E6.85161
G1 X10.778 Y-46.498 E6.88313
G1 X11.408 Y-46.56 E6.91472
G1 X12.039 Y-46.542 E6.94621
G1 X12.664 Y-46.445 E6.97776
G1 X12.77 Y-46.414 E6.98327
G1 X13.12 Y-47.166 E7.02466
G1 X13.9 Y-48.504 E7.10192
G1 X14.253 Y-49.029 E7.13349
G1 X14.668 Y-49.505 E7.16499
G1 X15.141 Y-49.925 E7.19655
G1 X15.662 Y-50.282 E7.22806
G1 X16.225 Y-50.571 E7.25963
G1 X16.819 Y-50.786 E7.29115
G1 X17.436 Y-50.924 E7.32269
G1 X18.066 Y-50.984 E7.35426
G1 X18.697 Y-50.963 E7.38576
G1 X19.321 Y-50.863 E7.41729
G1 X19.928 Y-50.685 E7.44885
G1 X20.725 Y-50.313 E7.49273
G1 X23.261 Y-48.845 E7.63892
G1 X23.787 Y-48.495 E7.67044
G1 X24.264 Y-48.08 E7.70199
G1 X24.686 Y-47.609 E7.73354
G1 X25.045 Y-47.089 E7.76506
G1 X25.335 Y-46.527 E7.79661
G1 X25.552 Y-45.933 E7.82816
G1 X25.692 Y-45.317 E7.85968
G1 X25.753 Y-44.688 E7.89121
G1 X25.75 Y-44.596 E7.8958
G1 X26.147 Y-44.803 E7.91814
G1 X26.74 Y-45.023 E7.94969
G1 X27.356 Y-45.165 E7.98123
G1 X27.985 Y-45.229 E8.01277
G1 X28.617 Y-45.213 E8.04431
G1 X29.241 Y-45.118 E8.0758
G1 X29.849 Y-44.944 E8.10735
G1 X30.674 Y-44.564 E8.15267
G1 X33.209 Y-43.101 E8.29869
G1 X33.736 Y-42.751 E8.33025
G1 X34.214 Y-42.337 E8.3618
G1 X34.636 Y-41.866 E8.39335
G1 X34.995 Y-41.346 E8.42488
G1 X35.286 Y-40.785 E8.45641
G1 X35.504 Y-40.192 E8.48793
G1 X35.645 Y-39.575 E8.5195
G1 X35.707 Y-38.946 E8.55104
G1 X35.689 Y-38.314 E8.58258
G1 X35.592 Y-37.69 E8.61409
G1 X35.417 Y-37.082 E8.64565
G1 X35.057 Y-36.3 E8.6886
G1 X34.849 Y-35.934 E8.7096
G1 X34.503 Y-35.405 E8.74114
G1 X34.092 Y-34.924 E8.7727
G1 X33.624 Y-34.499 E8.80424
G1 X33.595 Y-34.479 E8.806
G1 X33.708 Y-34.381 E8.81346
G1 X34.13 Y-33.91 E8.84501
G1 X34.489 Y-33.39 E8.87654
G1 X34.78 Y-32.829 E8.90807
G1 X34.998 Y-32.235 E8.93964
G1 X35.139 Y-31.619 E8.97116
G1 X35.201 Y-30.99 E9.0027
G1 X35.183 Y-30.358 E9.03424
G1 X35.086 Y-29.733 E9.06579
G1 X34.91 Y-29.126 E9.09732
G1 X34.534 Y-28.314 E9.14197
G1 X-7.253 Y44.063 E13.31148
G0 F7800 X-7.599 Y43.863
G1 F1800 X-7.936 Y44.367 E13.34173
G1 X-8.337 Y44.822 E13.37199
G1 X-8.794 Y45.221 E13.40226
G1 X-9.299 Y45.556 E13.43249
G1 X-9.844 Y45.822 E13.46275
G1 X-10.419 Y46.013 E13.49297
G1 X-11.015 Y46.128 E13.52326
G1 X-11.62 Y46.163 E13.55349
G1 X-12.224 Y46.118 E13.58371
G1 X-12.818 Y45.994 E13.61398
G1 X-13.322 Y45.817 E13.64063
G1 X-13.534 Y46.703 E13.68608
G1 X-13.713 Y47.282 E13.71632
G1 X-14.062 Y47.997 E13.75601
G1 X-14.274 Y48.351 E13.7766
G1 X-14.619 Y48.85 E13.80686
G1 X-15.026 Y49.299 E13.8371
G1 X-15.49 Y49.69 E13.86737
G1 X-16 Y50.017 E13.89759
G1 X-16.549 Y50.274 E13.92784
G1 X-17.127 Y50.456 E13.95807
G1 X-17.725 Y50.561 E13.98836
G1 X-18.33 Y50.587 E14.01857
G1 X-18.934 Y50.532 E14.04883
G1 X-19.526 Y50.399 E14.0791
G1 X-20.094 Y50.189 E14.10931
G1 X-20.518 Y49.973 E14.13305
G1 X-23.05 Y48.513 E14.27887
G1 X-23.554 Y48.176 E14.30912
G1 X-24.009 Y47.776 E14.33934
G1 X-24.408 Y47.319 E14.36961
G1 X-24.744 Y46.814 E14.39987
G1 X-25.01 Y46.269 E14.43013
G1 X-25.202 Y45.694 E14.46037
G1 X-25.316 Y45.099 E14.4906
G1 X-25.352 Y44.494 E14.52083
G1 X-25.307 Y43.889 E14.5511
G1 X-25.292 Y43.818 E14.55472
G1 X-25.639 Y44.082 E14.57647
G1 X-26.166 Y44.383 E14.60675
G1 X-26.727 Y44.611 E14.63696
G1 X-27.314 Y44.764 E14.66723
G1 X-27.916 Y44.838 E14.69749
G1 X-28.522 Y44.832 E14.72772
G1 X-29.123 Y44.747 E14.75801
G1 X-29.706 Y44.583 E14.78822
G1 X-30.478 Y44.227 E14.83063
G1 X-33.026 Y42.754 E14.97747
G1 X-33.53 Y42.417 E15.00771
G1 X-33.985 Y42.016 E15.03797
G1 X-34.383 Y41.559 E15.06821
G1 X-34.718 Y41.054 E15.09844
G1 X-34.984 Y40.509 E15.1287
G1 X-35.175 Y39.933 E15.15897
G1 X-35.289 Y39.338 E15.1892
G1 X-35.324 Y38.733 E15.21943
G1 X-35.279 Y38.128 E15.2497
G1 X-35.154 Y37.535 E15.27993
G1 X-34.953 Y36.963 E15.31018
G1 X-34.666 Y36.401 E15.34166
G1 X-34.444 Y36.032 E15.36315
G1 X-34.098 Y35.534 E15.3934
G1 X-33.689 Y35.086 E15.42367
G1 X-33.363 Y34.801 E15.44527
G1 X-32.968 Y34.487 E15.47044
G1 X-33.008 Y34.461 E15.47282
G1 X-33.463 Y34.06 E15.50308
G1 X-33.862 Y33.604 E15.53331
G1 X-34.197 Y33.098 E15.56359
G1 X-34.462 Y32.553 E15.59382
G1 X-34.654 Y31.978 E15.62406
G1 X-34.769 Y31.383 E15.6543
G1 X-34.804 Y30.778 E15.68453
G1 X-34.759 Y30.173 E15.7148
G1 X-34.635 Y29.579 E15.74507
G1 X-34.434 Y29.007 E15.77532
G1 X-34.188 Y28.514 E15.80281
G1 X7.599 Y-43.863 E19.97232
G1 X7.936 Y-44.367 E20.00257
G1 X8.337 Y-44.822 E20.03283
G1 X8.794 Y-45.221 E20.0631
G1 X9.299 Y-45.556 E20.09333
G1 X9.844 Y-45.822 E20.12359
G1 X10.419 Y-46.013 E20.15381
G1 X11.015 Y-46.128 E20.1841
G1 X11.62 Y-46.163 E20.21433
G1 X12.224 Y-46.118 E20.24455
G1 X12.818 Y-45.994 E20.27482
G1 X13.023 Y-45.922 E20.28566
G1 X13.21 Y-46.455 E20.31384
G1 X13.466 Y-46.965 E20.34231
G1 X14.246 Y-48.303 E20.41958
G1 X14.585 Y-48.805 E20.4498
G1 X14.988 Y-49.259 E20.48009
G1 X15.446 Y-49.655 E20.51029
G1 X15.953 Y-49.988 E20.54056
G1 X16.499 Y-50.252 E20.57081
G1 X17.075 Y-50.441 E20.60106
G1 X17.671 Y-50.553 E20.63131
G1 X18.276 Y-50.586 E20.66154
G1 X18.881 Y-50.538 E20.69182
G1 X19.474 Y-50.412 E20.72206
G1 X20.045 Y-50.209 E20.7523
G1 X20.525 Y-49.967 E20.77912
G1 X23.061 Y-48.499 E20.92531
G1 X23.564 Y-48.161 E20.95554
G1 X24.019 Y-47.76 E20.9858
G1 X24.417 Y-47.303 E21.01603
G1 X24.751 Y-46.798 E21.04624
G1 X25.017 Y-46.252 E21.07654
G1 X25.208 Y-45.677 E21.10677
G1 X25.321 Y-45.081 E21.13703
G1 X25.356 Y-44.476 E21.16727
G1 X25.31 Y-43.871 E21.19754
G1 X25.298 Y-43.815 E21.20039
G1 X25.375 Y-43.882 E21.20549
G1 X25.879 Y-44.219 E21.23573
G1 X26.423 Y-44.486 E21.26597
G1 X26.998 Y-44.68 E21.29624
G1 X27.593 Y-44.796 E21.32649
G1 X28.198 Y-44.833 E21.35673
G1 X28.803 Y-44.79 E21.38699
G1 X29.397 Y-44.668 E21.41724
G1 X29.969 Y-44.469 E21.44745
G1 X30.474 Y-44.217 E21.47561
G1 X33.009 Y-42.754 E21.62163
G1 X33.513 Y-42.417 E21.65188
G1 X33.969 Y-42.017 E21.68214
G1 X34.367 Y-41.56 E21.71238
G1 X34.702 Y-41.055 E21.74261
G1 X34.968 Y-40.51 E21.77287
G1 X35.16 Y-39.935 E21.80311
G1 X35.275 Y-39.339 E21.8334
G1 X35.31 Y-38.734 E21.86363
G1 X35.265 Y-38.129 E21.8939
G1 X35.141 Y-37.536 E21.92412
G1 X34.941 Y-36.964 E21.95435
G1 X34.709 Y-36.497 E21.98037
G1 X34.501 Y-36.131 E22.00137
G1 X34.168 Y-35.625 E22.03159
G1 X33.77 Y-35.167 E22.06186
G1 X33.316 Y-34.765 E22.09212
G1 X33.304 Y-34.758 E22.09281
G1 X33.027 Y-34.445 E22.11366
G1 X33.463 Y-34.06 E22.14268
G1 X33.862 Y-33.604 E22.17291
G1 X34.197 Y-33.098 E22.20319
G1 X34.462 Y-32.553 E22.23342
G1 X34.654 Y-31.978 E22.26366
G1 X34.769 Y-31.383 E22.2939
G1 X34.804 Y-30.778 E22.32413
G1 X34.759 Y-30.173 E22.3544
G1 X34.635 Y-29.579 E22.38467
G1 X34.434 Y-29.007 E22.41492
G1 X34.188 Y-28.514 E22.44241
G1 X-7.599 Y43.863 E26.61192
G0 F7800 X-7.946 Y43.663
G1 F1800 X-8.269 Y44.144 E26.64083
G1 X-8.656 Y44.575 E26.66973
G1 X-9.098 Y44.949 E26.69861
G1 X-9.588 Y45.259 E26.72754
G1 X-10.115 Y45.498 E26.75641
G1 X-10.671 Y45.663 E26.78535
G1 X-11.244 Y45.749 E26.81425
G1 X-11.823 Y45.756 E26.84314
G1 X-12.398 Y45.683 E26.87206
G1 X-12.957 Y45.532 E26.90095
G1 X-13.614 Y45.231 E26.937
G1 X-13.647 Y45.455 E26.9483
G1 X-13.923 Y46.61 E27.00754
G1 X-14.096 Y47.163 E27.03645
G1 X-14.405 Y47.792 E27.07141
G1 X-14.617 Y48.146 E27.092
G1 X-14.948 Y48.621 E27.12088
G1 X-15.341 Y49.046 E27.14976
G1 X-15.79 Y49.413 E27.17869
G1 X-16.284 Y49.715 E27.20758
G1 X-16.815 Y49.946 E27.23647
G1 X-17.373 Y50.102 E27.26538
G1 X-17.948 Y50.179 E27.29432
G1 X-18.527 Y50.177 E27.32321
G1 X-19.1 Y50.095 E27.35208
G1 X-19.657 Y49.935 E27.381
G1 X-20.318 Y49.626 E27.4174
G1 X-22.85 Y48.166 E27.56322
G1 X-23.331 Y47.843 E27.59212
G1 X-23.762 Y47.457 E27.62099
G1 X-24.137 Y47.015 E27.64991
G1 X-24.447 Y46.525 E27.67884
G1 X-24.686 Y45.998 E27.70771
G1 X-24.851 Y45.443 E27.73659
G1 X-24.938 Y44.87 E27.76551
G1 X-24.945 Y44.29 E27.79445
G1 X-24.873 Y43.716 E27.82331
G1 X-24.722 Y43.156 E27.85224
G1 X-24.398 Y42.444 E27.89127
G1 X-23.628 Y41.097 E27.96868
G1 X-23.307 Y40.615 E27.99757
G1 X-22.922 Y40.182 E28.02648
G1 X-22.702 Y39.994 E28.04091
G1 X-23.36 Y39.614 E28.07882
G1 X-23.366 Y39.663 E28.08128
G1 X-23.517 Y40.222 E28.11017
G1 X-23.721 Y40.71 E28.13656
G1 X-24.411 Y42.106 E28.21425
G1 X-24.703 Y42.606 E28.24314
G1 X-25.061 Y43.062 E28.27206
G1 X-25.478 Y43.464 E28.30096
G1 X-25.947 Y43.804 E28.32986
G1 X-26.457 Y44.077 E28.35872
G1 X-27.001 Y44.277 E28.38764
G1 X-27.567 Y44.401 E28.41654
G1 X-28.145 Y44.445 E28.44546
G1 X-28.723 Y44.409 E28.47436
G1 X-29.291 Y44.294 E28.50327
G1 X-29.837 Y44.102 E28.53214
G1 X-30.278 Y43.881 E28.55675
G1 X-32.826 Y42.408 E28.70359
G1 X-33.306 Y42.084 E28.73248
G1 X-33.738 Y41.697 E28.76141
G1 X-34.111 Y41.255 E28.79027
G1 X-34.421 Y40.765 E28.8192
G1 X-34.66 Y40.238 E28.84807
G1 X-34.824 Y39.682 E28.87699
G1 X-34.91 Y39.109 E28.90589
G1 X-34.917 Y38.53 E28.93478
G1 X-34.844 Y37.955 E28.9637
G1 X-34.692 Y37.396 E28.9926
G1 X-34.465 Y36.863 E29.0215
G1 X-34.323 Y36.607 E29.03611
G1 X-34.101 Y36.238 E29.05759
G1 X-33.769 Y35.763 E29.08651
G1 X-33.374 Y35.339 E29.11542
G1 X-33.115 Y35.115 E29.1325
G1 X-32.29 Y34.459 E29.18509
G1 X-32.304 Y34.451 E29.18589
G1 X-32.784 Y34.128 E29.21475
G1 X-33.216 Y33.741 E29.24369
G1 X-33.59 Y33.299 E29.27258
G1 X-33.9 Y32.81 E29.30146
G1 X-34.139 Y32.282 E29.33038
G1 X-34.304 Y31.727 E29.35926
G1 X-34.39 Y31.154 E29.38817
G1 X-34.397 Y30.575 E29.41706
G1 X-34.324 Y30 E29.44598
G1 X-34.173 Y29.441 E29.47487
G1 X-33.841 Y28.714 E29.51474
G1 X7.946 Y-43.663 E33.68425
G1 X8.269 Y-44.144 E33.71316
G1 X8.656 Y-44.575 E33.74206
G1 X9.098 Y-44.949 E33.77094
G1 X9.588 Y-45.259 E33.79987
G1 X10.115 Y-45.498 E33.82874
G1 X10.671 Y-45.663 E33.85768
G1 X11.244 Y-45.749 E33.88658
G1 X11.823 Y-45.756 E33.91547
G1 X12.398 Y-45.683 E33.94439
G1 X12.957 Y-45.532 E33.97328
G1 X13.308 Y-45.371 E33.99254
G1 X13.32 Y-45.462 E33.99712
G1 X13.471 Y-46.021 E34.02601
G1 X13.812 Y-46.763 E34.06675
G1 X14.592 Y-48.101 E34.14402
G1 X14.917 Y-48.58 E34.1729
G1 X15.306 Y-49.01 E34.20183
G1 X15.749 Y-49.382 E34.23069
G1 X16.24 Y-49.69 E34.2596
G1 X16.769 Y-49.927 E34.28852
G1 X17.325 Y-50.09 E34.31743
G1 X17.898 Y-50.174 E34.34632
G1 X18.477 Y-50.178 E34.37521
G1 X19.052 Y-50.103 E34.40414
G1 X19.61 Y-49.949 E34.43302
G1 X20.324 Y-49.621 E34.47222
G1 X22.86 Y-48.153 E34.61841
G1 X23.34 Y-47.829 E34.6473
G1 X23.771 Y-47.442 E34.6762
G1 X24.145 Y-46.999 E34.70512
G1 X24.454 Y-46.509 E34.73403
G1 X24.693 Y-45.981 E34.76294
G1 X24.857 Y-45.426 E34.79181
G1 X24.943 Y-44.853 E34.82072
G1 X24.949 Y-44.273 E34.84966
G1 X24.875 Y-43.699 E34.87853
G1 X24.723 Y-43.14 E34.90743
G1 X24.391 Y-42.414 E34.94726
G1 X24.042 Y-41.811 E34.98202
G1 X23.698 Y-41.305 E35.01255
G1 X23.165 Y-40.633 E35.05534
G1 X22.774 Y-40.205 E35.08426
G1 X22.595 Y-40.056 E35.09588
G1 X23.699 Y-39.418 E35.15949
G1 X23.784 Y-40.279 E35.20266
G1 X23.881 Y-40.85 E35.23155
G1 X24.056 Y-41.402 E35.26044
G1 X24.32 Y-41.954 E35.29097
G1 X24.531 Y-42.322 E35.31213
G1 X24.854 Y-42.804 E35.34108
G1 X25.239 Y-43.236 E35.36995
G1 X25.68 Y-43.612 E35.39886
G1 X26.169 Y-43.923 E35.42778
G1 X26.696 Y-44.164 E35.45669
G1 X27.25 Y-44.33 E35.48554
G1 X27.823 Y-44.418 E35.51446
G1 X28.402 Y-44.427 E35.54335
G1 X28.977 Y-44.356 E35.57226
G1 X29.537 Y-44.206 E35.60118
G1 X30.274 Y-43.871 E35.64157
G1 X32.809 Y-42.408 E35.78759
G1 X33.29 Y-42.084 E35.81653
G1 X33.721 Y-41.698 E35.84539
G1 X34.096 Y-41.255 E35.87435
G1 X34.405 Y-40.766 E35.90321
G1 X34.645 Y-40.238 E35.93214
G1 X34.81 Y-39.683 E35.96103
G1 X34.896 Y-39.11 E35.98994
G1 X34.903 Y-38.531 E36.01883
G1 X34.83 Y-37.956 E36.04774
G1 X34.679 Y-37.397 E36.07663
G1 X34.362 Y-36.695 E36.11506
G1 X34.154 Y-36.329 E36.13606
G1 X33.833 Y-35.846 E36.16499
G1 X33.45 Y-35.412 E36.19387
G1 X33.01 Y-35.035 E36.22278
G1 X33 Y-35.029 E36.22336
G1 X32.915 Y-34.91 E36.23066
G1 X32.516 Y-34.49 E36.25956
G1 X32.393 Y-34.391 E36.26744
G1 X32.784 Y-34.128 E36.29095
G1 X33.216 Y-33.741 E36.31988
G1 X33.59 Y-33.299 E36.34877
G1 X33.9 Y-32.81 E36.37765
G1 X34.139 Y-32.282 E36.40657
G1 X34.304 Y-31.727 E36.43546
G1 X34.39 Y-31.154 E36.46436
G1 X34.397 Y-30.575 E36.49325
G1 X34.324 Y-30 E36.52217
G1 X34.173 Y-29.441 E36.55106
G1 X33.841 Y-28.714 E36.59093
G1 X-7.946 Y43.663 E40.76045
G0 F7800 X-8.292 Y43.463
G1 F1800 X-8.601 Y43.919 E40.78793
G1 X-8.974 Y44.325 E40.81543
G1 X-9.4 Y44.674 E40.84291
G1 X-9.873 Y44.957 E40.87041
G1 X-10.382 Y45.168 E40.8979
G1 X-10.916 Y45.304 E40.92539
G1 X-11.464 Y45.361 E40.95288
G1 X-12.015 Y45.338 E40.98039
G1 X-12.556 Y45.236 E41.00786
G1 X-13.077 Y45.057 E41.03534
G1 X-13.483 Y44.854 E41.05799
G1 X-13.943 Y44.588 E41.0845
G1 X-13.956 Y44.909 E41.10052
G1 X-14.036 Y45.362 E41.12347
G1 X-14.312 Y46.517 E41.18272
G1 X-14.479 Y47.042 E41.2102
G1 X-14.748 Y47.586 E41.24048
G1 X-14.96 Y47.94 E41.26107
G1 X-15.277 Y48.391 E41.28857
G1 X-15.655 Y48.792 E41.31606
G1 X-16.087 Y49.133 E41.34352
G1 X-16.565 Y49.409 E41.37106
G1 X-17.077 Y49.612 E41.39854
G1 X-17.613 Y49.739 E41.42602
G1 X-18.162 Y49.788 E41.45352
G1 X-18.712 Y49.756 E41.481
G1 X-19.252 Y49.645 E41.50851
G1 X-19.77 Y49.458 E41.53598
G1 X-20.118 Y49.28 E41.55548
G1 X-22.65 Y47.82 E41.7013
G1 X-23.106 Y47.511 E41.72878
G1 X-23.513 Y47.139 E41.75629
G1 X-23.862 Y46.712 E41.78381
G1 X-24.145 Y46.24 E41.81126
G1 X-24.357 Y45.731 E41.83877
