;FLAVOR:RepRap
;TIME:8549
;Generated with Cura_SteamEngine 2.3.0
M104 S200
M109 S200
G21 ;metric values
G90 ;absolute positioning
M82 ;set extruder to absolute mode
M107 ;start with the fan off
G28 ;Home all axes (max endstops)
G1 Z15.0 F9000 ;move the platform down 15mm
G92 E0 ;zero the extruded length
G1 F200 E3 ;extrude 3mm of feed stock
G92 E0 ;zero the extruded length again
G1 F9000
;Put printing message on LCD screen
M117 Printing...
;LAYER_COUNT:53
;LAYER:0
M107
G1 F1500 E-6.5
G0 F7800 X47.137 Y-1.641 Z.3
;TYPE:SKIRT
G1 F1500 E0
G1 F1800 X47.488 Y-1.418 E0.02075
G1 X48.264 Y-.879 E0.06788
G1 X48.76 Y-.486 E0.09946
G1 X49.133 Y-.112 E0.12581
G1 X49.967 Y.817 E0.18809
G1 X50.358 Y1.313 E0.2196
G1 X50.674 Y1.835 E0.25005
G1 X51.255 Y2.943 E0.31246
G1 X51.513 Y3.52 E0.344
G1 X51.695 Y4.126 E0.37556
G1 X51.98 Y5.344 E0.43797
G1 X52.085 Y5.967 E0.46949
G1 X52.111 Y6.583 E0.50025
G1 X52.086 Y7.833 E0.56263
G1 X52.033 Y8.463 E0.59417
G1 X51.904 Y9.073 E0.62527
G1 X51.566 Y10.288 E0.68819
G1 X51.358 Y10.885 E0.71973
G1 X51.082 Y11.442 E0.75075
G1 X35.807 Y37.979 E2.27835
G1 X35.457 Y38.507 E2.30995
G1 X34.699 Y39.506 E2.37251
G1 X34.286 Y39.985 E2.40407
G1 X33.828 Y40.397 E2.4348
G1 X32.846 Y41.178 E2.4974
G1 X32.328 Y41.54 E2.52893
G1 X31.763 Y41.835 E2.56073
G1 X30.612 Y42.346 E2.62356
G1 X30.019 Y42.565 E2.65509
G1 X29.417 Y42.706 E2.68594
G1 X28.182 Y42.915 E2.74843
G1 X27.554 Y42.981 E2.77993
G1 X26.932 Y42.968 E2.81097
G1 X25.686 Y42.864 E2.87335
G1 X25.061 Y42.771 E2.90488
G1 X24.281 Y42.538 E2.94549
G1 X22.983 Y42.03 E3.01503
G1 X22.853 Y41.99 E3.02182
G1 X22.139 Y41.65 E3.06127
G1 X-47.137 Y1.641 E7.05245
G1 X-47.488 Y1.418 E7.0732
G1 X-48.264 Y.879 E7.12033
G1 X-48.76 Y.486 E7.15191
G1 X-49.133 Y.112 E7.17826
G1 X-49.967 Y-.817 E7.24054
G1 X-50.358 Y-1.313 E7.27205
G1 X-50.674 Y-1.835 E7.3025
G1 X-51.256 Y-2.945 E7.36503
G1 X-51.514 Y-3.522 E7.39656
G1 X-51.697 Y-4.132 E7.42833
G1 X-51.981 Y-5.35 E7.49073
G1 X-52.086 Y-5.973 E7.52225
G1 X-52.111 Y-6.585 E7.55281
G1 X-52.086 Y-7.833 E7.61508
G1 X-52.033 Y-8.463 E7.64662
G1 X-51.904 Y-9.073 E7.67773
G1 X-51.566 Y-10.288 E7.74065
G1 X-51.358 Y-10.885 E7.77219
G1 X-51.082 Y-11.442 E7.8032
G1 X-35.807 Y-37.979 E9.3308
G1 X-35.457 Y-38.507 E9.36241
G1 X-34.699 Y-39.506 E9.42497
G1 X-34.286 Y-39.985 E9.45652
G1 X-33.828 Y-40.397 E9.48726
G1 X-32.846 Y-41.178 E9.54985
G1 X-32.328 Y-41.54 E9.58138
G1 X-31.763 Y-41.835 E9.61318
G1 X-30.612 Y-42.346 E9.67601
G1 X-30.019 Y-42.565 E9.70755
G1 X-29.417 Y-42.706 E9.73839
G1 X-28.182 Y-42.915 E9.80089
G1 X-27.554 Y-42.981 E9.83239
G1 X-26.932 Y-42.968 E9.86343
G1 X-25.686 Y-42.864 E9.92581
G1 X-25.061 Y-42.771 E9.95733
G1 X-24.281 Y-42.538 E9.99795
G1 X-22.983 Y-42.03 E10.06749
G1 X-22.853 Y-41.99 E10.07427
G1 X-22.139 Y-41.65 E10.11373
G1 X47.137 Y-1.641 E14.10491
G0 F7800 X46.937 Y-1.294
G1 F1800 X47.26 Y-1.089 E14.12399
G1 X48.036 Y-.55 E14.17113
G1 X48.51 Y-.172 E14.20138
G1 X48.835 Y.155 E14.22438
G1 X49.669 Y1.084 E14.28666
G1 X50.043 Y1.561 E14.3169
G1 X50.32 Y2.021 E14.34369
G1 X50.901 Y3.129 E14.40611
G1 X51.146 Y3.683 E14.43633
G1 X51.306 Y4.217 E14.46414
G1 X51.591 Y5.435 E14.52655
G1 X51.69 Y6.033 E14.55679
G1 X51.711 Y6.575 E14.58385
G1 X51.686 Y7.825 E14.64623
G1 X51.634 Y8.429 E14.67647
G1 X51.519 Y8.966 E14.70387
G1 X51.181 Y10.181 E14.76679
G1 X50.98 Y10.753 E14.79704
G1 X50.736 Y11.243 E14.82434
G1 X35.461 Y37.78 E16.35195
G1 X35.139 Y38.265 E16.38099
G1 X34.381 Y39.264 E16.44355
G1 X33.983 Y39.722 E16.47382
G1 X33.579 Y40.084 E16.50089
G1 X32.597 Y40.865 E16.56348
G1 X32.099 Y41.211 E16.59374
G1 X31.601 Y41.469 E16.62172
G1 X30.45 Y41.98 E16.68455
G1 X29.88 Y42.189 E16.71484
G1 X29.351 Y42.312 E16.74193
G1 X28.116 Y42.521 E16.80442
G1 X27.512 Y42.582 E16.83471
G1 X26.965 Y42.569 E16.86201
G1 X25.719 Y42.465 E16.92439
G1 X25.12 Y42.375 E16.95461
G1 X24.427 Y42.165 E16.99073
G1 X23.017 Y41.614 E17.06626
G1 X22.721 Y41.501 E17.08207
G1 X22.339 Y41.303 E17.10353
G1 X-46.937 Y1.294 E21.09471
G1 X-47.26 Y1.089 E21.1138
G1 X-48.036 Y.55 E21.16094
G1 X-48.51 Y.172 E21.19118
G1 X-48.835 Y-.155 E21.21418
G1 X-49.669 Y-1.084 E21.27647
G1 X-50.043 Y-1.561 E21.30671
G1 X-50.32 Y-2.021 E21.3335
G1 X-50.902 Y-3.131 E21.39603
G1 X-51.148 Y-3.685 E21.42627
G1 X-51.308 Y-4.222 E21.45422
G1 X-51.592 Y-5.44 E21.51662
G1 X-51.69 Y-6.039 E21.5469
G1 X-51.711 Y-6.577 E21.57376
G1 X-51.686 Y-7.825 E21.63604
G1 X-51.634 Y-8.429 E21.66628
G1 X-51.519 Y-8.966 E21.69368
G1 X-51.181 Y-10.181 E21.7566
G1 X-50.98 Y-10.753 E21.78685
G1 X-50.736 Y-11.243 E21.81416
G1 X-35.461 Y-37.78 E23.34176
G1 X-35.139 Y-38.265 E23.3708
G1 X-34.381 Y-39.264 E23.43337
G1 X-33.983 Y-39.722 E23.46364
G1 X-33.579 Y-40.084 E23.4907
G1 X-32.597 Y-40.865 E23.5533
G1 X-32.099 Y-41.211 E23.58355
G1 X-31.601 Y-41.469 E23.61153
G1 X-30.45 Y-41.98 E23.67436
G1 X-29.88 Y-42.189 E23.70465
G1 X-29.351 Y-42.312 E23.73175
G1 X-28.116 Y-42.521 E23.79424
G1 X-27.512 Y-42.582 E23.82452
G1 X-26.965 Y-42.569 E23.85182
G1 X-25.719 Y-42.465 E23.9142
G1 X-25.12 Y-42.375 E23.94442
G1 X-24.427 Y-42.165 E23.98055
G1 X-23.041 Y-41.623 E24.05479
G1 X-22.721 Y-41.501 E24.07188
G1 X-22.339 Y-41.303 E24.09335
G1 X46.937 Y-1.294 E28.08453
G0 F7800 X46.736 Y-.948
G1 F1800 X47.032 Y-.761 E28.10199
G1 X47.808 Y-.222 E28.14913
G1 X48.26 Y.141 E28.17805
G1 X48.537 Y.422 E28.19774
G1 X49.371 Y1.351 E28.26002
G1 X49.728 Y1.808 E28.28895
G1 X49.966 Y2.207 E28.31213
G1 X50.547 Y3.315 E28.37455
G1 X50.78 Y3.845 E28.40343
G1 X50.917 Y4.308 E28.42752
G1 X51.202 Y5.526 E28.48993
G1 X51.294 Y6.098 E28.51884
G1 X51.311 Y6.567 E28.54225
G1 X51.286 Y7.817 E28.60462
G1 X51.235 Y8.394 E28.63352
G1 X51.133 Y8.859 E28.65727
G1 X50.795 Y10.074 E28.72019
G1 X50.602 Y10.62 E28.74908
G1 X50.389 Y11.043 E28.77271
G1 X35.114 Y37.58 E30.30031
G1 X34.82 Y38.024 E30.32688
G1 X34.062 Y39.023 E30.38944
G1 X33.681 Y39.459 E30.41833
G1 X33.33 Y39.771 E30.44176
G1 X32.348 Y40.552 E30.50436
G1 X31.871 Y40.881 E30.53327
G1 X31.438 Y41.104 E30.55757
G1 X30.287 Y41.615 E30.62039
G1 X29.743 Y41.813 E30.64928
G1 X29.284 Y41.917 E30.67276
G1 X28.049 Y42.126 E30.73525
G1 X27.472 Y42.183 E30.76417
G1 X26.999 Y42.17 E30.78778
G1 X25.753 Y42.066 E30.85016
G1 X25.18 Y41.979 E30.87907
G1 X24.573 Y41.793 E30.91075
G1 X23.258 Y41.279 E30.98119
G1 X23.137 Y41.242 E30.9875
G1 X22.54 Y40.957 E31.0205
G1 X-46.736 Y.948 E35.01168
G1 X-47.032 Y.761 E35.02915
G1 X-47.808 Y.222 E35.07629
G1 X-48.26 Y-.141 E35.10521
G1 X-48.537 Y-.422 E35.1249
G1 X-49.371 Y-1.351 E35.18718
G1 X-49.728 Y-1.808 E35.21611
G1 X-49.966 Y-2.207 E35.23929
G1 X-50.548 Y-3.317 E35.30182
G1 X-50.781 Y-3.847 E35.3307
G1 X-50.918 Y-4.313 E35.35494
G1 X-51.202 Y-5.531 E35.41733
G1 X-51.295 Y-6.103 E35.44625
G1 X-51.311 Y-6.569 E35.46951
G1 X-51.286 Y-7.817 E35.53178
G1 X-51.235 Y-8.394 E35.56068
G1 X-51.133 Y-8.859 E35.58443
G1 X-50.795 Y-10.074 E35.64735
G1 X-50.602 Y-10.62 E35.67624
G1 X-50.389 Y-11.043 E35.69987
G1 X-35.114 Y-37.58 E37.22747
G1 X-34.82 Y-38.024 E37.25404
G1 X-34.062 Y-39.023 E37.3166
G1 X-33.681 Y-39.459 E37.34549
G1 X-33.33 Y-39.771 E37.36892
G1 X-32.348 Y-40.552 E37.43152
G1 X-31.871 Y-40.881 E37.46043
G1 X-31.438 Y-41.104 E37.48472
G1 X-30.287 Y-41.615 E37.54755
G1 X-29.743 Y-41.813 E37.57644
G1 X-29.284 Y-41.917 E37.59992
G1 X-28.049 Y-42.126 E37.66241
G1 X-27.472 Y-42.183 E37.69133
G1 X-26.999 Y-42.17 E37.71494
G1 X-25.753 Y-42.066 E37.77732
G1 X-25.18 Y-41.979 E37.80623
G1 X-24.573 Y-41.793 E37.83791
G1 X-23.258 Y-41.279 E37.90835
G1 X-23.137 Y-41.242 E37.91466
G1 X-22.54 Y-40.957 E37.94766
G1 X46.736 Y-.948 E41.93884
G0 F7800 X46.536 Y-.602
G1 F1800 X46.804 Y-.432 E41.95468
G1 X47.58 Y.107 E42.00181
G1 X48.008 Y.453 E42.02927
G1 X48.24 Y.689 E42.04578
G1 X49.074 Y1.618 E42.10807
G1 X49.411 Y2.054 E42.13556
G1 X49.611 Y2.392 E42.15515
G1 X50.192 Y3.5 E42.21757
G1 X50.412 Y4.006 E42.2451
G1 X50.527 Y4.399 E42.26553
G1 X50.812 Y5.617 E42.32793
G1 X50.898 Y6.161 E42.35541
G1 X50.911 Y6.559 E42.37528
G1 X50.886 Y7.809 E42.43765
G1 X50.835 Y8.358 E42.46516
G1 X50.748 Y8.751 E42.48524
G1 X50.41 Y9.966 E42.54816
G1 X50.224 Y10.485 E42.57567
G1 X50.042 Y10.844 E42.59575
G1 X34.767 Y37.381 E44.12335
G1 X34.501 Y37.782 E44.14736
G1 X33.743 Y38.781 E44.20992
G1 X33.379 Y39.195 E44.23742
G1 X33.081 Y39.458 E44.25725
G1 X32.099 Y40.239 E44.31985
G1 X31.644 Y40.55 E44.34734
G1 X31.276 Y40.738 E44.36796
G1 X30.125 Y41.249 E44.43079
G1 X29.606 Y41.436 E44.45831
G1 X29.217 Y41.523 E44.4782
G1 X27.982 Y41.732 E44.54069
G1 X27.434 Y41.784 E44.56815
G1 X27.032 Y41.772 E44.58822
G1 X25.786 Y41.668 E44.6506
G1 X25.242 Y41.582 E44.67807
G1 X24.718 Y41.42 E44.70544
G1 X23.26 Y40.85 E44.78354
G1 X23.008 Y40.752 E44.79703
G1 X22.74 Y40.611 E44.81214
G1 X-46.536 Y.602 E48.80332
G1 X-46.804 Y.432 E48.81915
G1 X-47.58 Y-.107 E48.86629
G1 X-48.008 Y-.453 E48.89374
G1 X-48.24 Y-.689 E48.91026
G1 X-49.074 Y-1.618 E48.97254
G1 X-49.411 Y-2.054 E49.00003
G1 X-49.611 Y-2.392 E49.01963
G1 X-50.193 Y-3.502 E49.08215
G1 X-50.413 Y-4.008 E49.10968
G1 X-50.529 Y-4.404 E49.13027
G1 X-50.813 Y-5.622 E49.19266
G1 X-50.899 Y-6.166 E49.22014
G1 X-50.911 Y-6.561 E49.23986
G1 X-50.886 Y-7.809 E49.30213
G1 X-50.835 Y-8.358 E49.32964
G1 X-50.748 Y-8.751 E49.34972
G1 X-50.41 Y-9.966 E49.41264
G1 X-50.224 Y-10.485 E49.44015
G1 X-50.042 Y-10.844 E49.46023
G1 X-34.767 Y-37.381 E50.98783
G1 X-34.501 Y-37.782 E51.01183
G1 X-33.743 Y-38.781 E51.0744
G1 X-33.379 Y-39.195 E51.1019
G1 X-33.081 Y-39.458 E51.12173
G1 X-32.099 Y-40.239 E51.18433
G1 X-31.644 Y-40.55 E51.21182
G1 X-31.276 Y-40.738 E51.23244
G1 X-30.125 Y-41.249 E51.29527
G1 X-29.606 Y-41.436 E51.32279
G1 X-29.217 Y-41.523 E51.34268
G1 X-27.982 Y-41.732 E51.40517
G1 X-27.434 Y-41.784 E51.43263
G1 X-27.032 Y-41.772 E51.4527
G1 X-25.786 Y-41.668 E51.51508
G1 X-25.242 Y-41.582 E51.54255
G1 X-24.718 Y-41.42 E51.56992
G1 X-23.29 Y-40.862 E51.64641
G1 X-23.008 Y-40.752 E51.66151
G1 X-22.74 Y-40.611 E51.67661
G1 X46.536 Y-.602 E55.66779
G0 F7800 X46.336 Y-.255
G1 F1800 X46.576 Y-.103 E55.68197
G1 X47.352 Y.436 E55.72911
G1 X47.756 Y.765 E55.7551
G1 X47.942 Y.957 E55.76844
G1 X48.776 Y1.886 E55.83072
G1 X49.093 Y2.299 E55.85669
G1 X49.257 Y2.578 E55.87284
G1 X49.838 Y3.686 E55.93526
G1 X50.044 Y4.165 E55.96127
G1 X50.138 Y4.49 E55.97815
G1 X50.423 Y5.708 E56.04056
G1 X50.502 Y6.223 E56.06655
G1 X50.511 Y6.551 E56.08292
G1 X50.486 Y7.801 E56.1453
G1 X50.436 Y8.32 E56.17131
G1 X50.363 Y8.644 E56.18788
G1 X50.025 Y9.859 E56.2508
G1 X49.847 Y10.349 E56.27681
G1 X49.696 Y10.644 E56.29334
G1 X34.421 Y37.181 E57.82094
G1 X34.183 Y37.54 E57.84243
G1 X33.425 Y38.539 E57.90499
G1 X33.079 Y38.929 E57.931
G1 X32.832 Y39.145 E57.94737
G1 X31.85 Y39.926 E58.00997
G1 X31.419 Y40.218 E58.03595
G1 X31.114 Y40.373 E58.05301
G1 X29.963 Y40.884 E58.11584
G1 X29.471 Y41.058 E58.14188
G1 X29.15 Y41.128 E58.15827
G1 X27.915 Y41.337 E58.22076
G1 X27.396 Y41.385 E58.24676
G1 X27.065 Y41.373 E58.26329
G1 X25.819 Y41.269 E58.32567
G1 X25.305 Y41.186 E58.35164
G1 X24.864 Y41.048 E58.3747
G1 X23.505 Y40.517 E58.44749
G1 X23.373 Y40.475 E58.4544
G1 X22.94 Y40.264 E58.47843
G1 X-46.336 Y.255 E62.46961
G1 X-46.576 Y.103 E62.48378
G1 X-47.352 Y-.436 E62.53092
G1 X-47.756 Y-.765 E62.55691
G1 X-47.942 Y-.957 E62.57025
G1 X-48.776 Y-1.886 E62.63254
G1 X-49.093 Y-2.299 E62.65851
G1 X-49.257 Y-2.578 E62.67466
G1 X-49.839 Y-3.688 E62.73719
G1 X-50.045 Y-4.167 E62.7632
G1 X-50.139 Y-4.495 E62.78022
G1 X-50.423 Y-5.713 E62.84262
G1 X-50.502 Y-6.228 E62.86861
G1 X-50.511 Y-6.553 E62.88483
G1 X-50.486 Y-7.801 E62.94711
G1 X-50.436 Y-8.32 E62.97312
G1 X-50.363 Y-8.644 E62.98969
G1 X-50.025 Y-9.859 E63.05261
G1 X-49.847 Y-10.349 E63.07862
G1 X-49.696 Y-10.644 E63.09515
G1 X-34.421 Y-37.181 E64.62275
G1 X-34.183 Y-37.54 E64.64424
G1 X-33.425 Y-38.539 E64.7068
G1 X-33.079 Y-38.929 E64.73282
G1 X-32.832 Y-39.145 E64.74919
G1 X-31.85 Y-39.926 E64.81178
G1 X-31.419 Y-40.218 E64.83776
G1 X-31.114 Y-40.373 E64.85482
G1 X-29.963 Y-40.884 E64.91765
G1 X-29.471 Y-41.058 E64.94369
G1 X-29.15 Y-41.128 E64.96008
G1 X-27.915 Y-41.337 E65.02257
G1 X-27.396 Y-41.385 E65.04857
G1 X-27.065 Y-41.373 E65.0651
G1 X-25.819 Y-41.269 E65.12748
G1 X-25.305 Y-41.186 E65.15345
G1 X-24.864 Y-41.048 E65.17651
G1 X-23.505 Y-40.517 E65.2493
G1 X-23.373 Y-40.475 E65.25621
G1 X-22.94 Y-40.264 E65.28024
G1 X46.336 Y-.255 E69.27142
G0 F7800 X46.136 Y.091
G1 F1800 X46.347 Y.225 E69.28389
G1 X47.123 Y.764 E69.33103
G1 X47.644 Y1.224 E69.3657
G1 X48.478 Y2.153 E69.42799
G1 X48.775 Y2.543 E69.45245
G1 X48.903 Y2.764 E69.46519
G1 X49.484 Y3.872 E69.5276
G1 X49.675 Y4.322 E69.55199
G1 X49.748 Y4.581 E69.56542
G1 X50.033 Y5.799 E69.62783
G1 X50.105 Y6.284 E69.65229
G1 X50.111 Y6.543 E69.66521
G1 X50.086 Y7.793 E69.72759
G1 X50.037 Y8.28 E69.75201
G1 X49.977 Y8.537 E69.76517
G1 X49.639 Y9.752 E69.82809
G1 X49.47 Y10.211 E69.85249
G1 X49.349 Y10.445 E69.86564
G1 X34.074 Y36.982 E71.39324
G1 X33.864 Y37.298 E71.41217
G1 X33.106 Y38.297 E71.47473
G1 X32.779 Y38.662 E71.49918
G1 X32.583 Y38.832 E71.51212
G1 X31.601 Y39.613 E71.57472
G1 X31.195 Y39.885 E71.5991
G1 X30.951 Y40.007 E71.61271
G1 X29.8 Y40.518 E71.67554
G1 X29.338 Y40.679 E71.69995
G1 X29.084 Y40.734 E71.71291
G1 X27.849 Y40.943 E71.7754
G1 X27.361 Y40.985 E71.79984
G1 X27.098 Y40.975 E71.81297
G1 X25.852 Y40.871 E71.87535
G1 X25.37 Y40.79 E71.89974
G1 X25.01 Y40.675 E71.91859
G1 X23.742 Y40.179 E71.98652
G1 X23.703 Y40.17 E71.98852
G1 X23.598 Y40.123 E71.99425
G1 X23.552 Y40.105 E71.99672
G1 X23.553 Y40.103 E71.99683
G1 X23.14 Y39.918 E72.01941
G1 X-46.136 Y-.091 E76.01059
G1 X-46.347 Y-.225 E76.02306
G1 X-47.123 Y-.764 E76.0702
G1 X-47.644 Y-1.224 E76.10487
G1 X-48.478 Y-2.153 E76.16716
G1 X-48.775 Y-2.543 E76.19161
G1 X-48.903 Y-2.764 E76.20435
G1 X-49.485 Y-3.874 E76.26688
G1 X-49.676 Y-4.325 E76.29132
G1 X-49.75 Y-4.586 E76.30485
G1 X-50.034 Y-5.804 E76.36725
G1 X-50.106 Y-6.288 E76.39166
G1 X-50.111 Y-6.545 E76.40448
G1 X-50.086 Y-7.793 E76.46676
G1 X-50.037 Y-8.28 E76.49118
G1 X-49.977 Y-8.537 E76.50435
G1 X-49.639 Y-9.752 E76.56726
G1 X-49.47 Y-10.211 E76.59167
G1 X-49.349 Y-10.445 E76.60481
G1 X-34.074 Y-36.982 E78.13241
G1 X-33.864 Y-37.298 E78.15134
G1 X-33.106 Y-38.297 E78.2139
G1 X-32.779 Y-38.662 E78.23835
G1 X-32.583 Y-38.832 E78.2513
G1 X-31.601 Y-39.613 E78.31389
G1 X-31.195 Y-39.885 E78.33827
G1 X-30.951 Y-40.007 E78.35188
G1 X-29.8 Y-40.518 E78.41471
G1 X-29.338 Y-40.679 E78.43912
G1 X-29.084 Y-40.734 E78.45209
G1 X-27.849 Y-40.943 E78.51458
G1 X-27.361 Y-40.985 E78.53901
G1 X-27.098 Y-40.975 E78.55214
G1 X-25.852 Y-40.871 E78.61452
G1 X-25.37 Y-40.79 E78.63891
G1 X-25.01 Y-40.675 E78.65776
G1 X-23.742 Y-40.179 E78.72569
G1 X-23.703 Y-40.17 E78.72769
G1 X-23.598 Y-40.123 E78.73343
G1 X-23.552 Y-40.105 E78.73589
G1 X-23.553 Y-40.103 E78.736
G1 X-23.14 Y-39.918 E78.75858
G1 X46.136 Y.091 E82.74976
G0 F7800 X45.936 Y.438
G1 F1800 X46.119 Y.554 E82.76057
G1 X46.895 Y1.093 E82.80771
G1 X47.347 Y1.491 E82.83775
G1 X48.181 Y2.42 E82.90004
G1 X48.549 Y2.95 E82.93223
G1 X49.13 Y4.058 E82.99465
G1 X49.359 Y4.673 E83.02739
G1 X49.644 Y5.891 E83.0898
G1 X49.711 Y6.535 E83.1221
G1 X49.686 Y7.785 E83.18447
G1 X49.592 Y8.43 E83.21699
G1 X49.254 Y9.645 E83.27991
G1 X49.002 Y10.245 E83.31238
G1 X33.727 Y36.782 E84.83998
G1 X33.545 Y37.057 E84.85643
G1 X32.787 Y38.056 E84.91899
G1 X32.334 Y38.519 E84.95131
G1 X31.352 Y39.3 E85.01391
G1 X30.789 Y39.641 E85.04675
G1 X29.638 Y40.152 E85.10957
G1 X29.017 Y40.34 E85.14194
G1 X27.782 Y40.549 E85.20444
G1 X27.132 Y40.576 E85.23689
G1 X25.886 Y40.472 E85.29927
G1 X25.437 Y40.394 E85.32201
G1 X25.155 Y40.303 E85.33679
G1 X23.715 Y39.74 E85.41393
G1 X23.564 Y39.687 E85.42191
G1 X23.34 Y39.571 E85.4345
G1 X-45.936 Y-.438 E89.42568
G1 X-46.119 Y-.554 E89.43649
G1 X-46.895 Y-1.093 E89.48362
G1 X-47.347 Y-1.491 E89.51367
G1 X-48.181 Y-2.42 E89.57596
G1 X-48.549 Y-2.95 E89.60815
G1 X-49.131 Y-4.06 E89.67068
G1 X-49.36 Y-4.677 E89.70351
G1 X-49.644 Y-5.895 E89.76591
G1 X-49.711 Y-6.537 E89.79811
G1 X-49.686 Y-7.785 E89.86038
G1 X-49.592 Y-8.43 E89.8929
G1 X-49.254 Y-9.645 E89.95582
G1 X-49.002 Y-10.245 E89.98829
