;FLAVOR:RepRap
;TIME:6847
;Generated with Cura_SteamEngine 2.3.0
M104 S200
M109 S200
G21 ;metric values
G90 ;absolute positioning
M82 ;set extruder to absolute mode
M107 ;start with the fan off
G28 ;Home all axes (max endstops)
G1 Z15.0 F9000 ;move the platform down 15mm
G92 E0 ;zero the extruded length
G1 F200 E3 ;extrude 3mm of feed stock
G92 E0 ;zero the extruded length again
G1 F9000
;Put printing message on LCD screen
M117 Printing...
;LAYER_COUNT:53
;LAYER:0
M107
G1 F1500 E-6.5
G0 F7800 X38.746 Y-6.485 Z.3
;TYPE:SKIRT
G1 F1500 E0
G1 F1800 X39.51 Y-5.942 E0.04676
G1 X40.459 Y-5.124 E0.10927
G1 X40.911 Y-4.682 E0.14081
G1 X41.3 Y-4.191 E0.17206
G1 X42.014 Y-3.164 E0.23446
G1 X42.342 Y-2.623 E0.26603
G1 X42.594 Y-2.056 E0.29698
G1 X43.034 Y-.875 E0.35986
G1 X43.217 Y-.269 E0.39144
G1 X43.322 Y.351 E0.42282
G1 X43.452 Y1.595 E0.48522
G1 X43.478 Y2.227 E0.51677
G1 X43.425 Y2.849 E0.54792
G1 X43.241 Y4.088 E0.61041
G1 X43.109 Y4.707 E0.64199
G1 X42.905 Y5.29 E0.6728
G1 X42.419 Y6.447 E0.73541
G1 X42.136 Y7.017 E0.76716
G1 X26.786 Y33.524 E2.29533
G1 X26.241 Y34.289 E2.3422
G1 X25.838 Y34.755 E2.37293
G1 X25.166 Y35.399 E2.41937
G1 X24.183 Y36.18 E2.482
G1 X23.665 Y36.541 E2.5135
G1 X23.106 Y36.833 E2.54497
G1 X21.958 Y37.344 E2.60766
G1 X21.366 Y37.564 E2.63917
G1 X20.758 Y37.706 E2.67032
G1 X19.521 Y37.915 E2.73291
G1 X18.892 Y37.981 E2.76446
G1 X18.272 Y37.968 E2.7954
G1 X17.026 Y37.864 E2.85778
G1 X16.401 Y37.771 E2.8893
G1 X15.798 Y37.603 E2.92053
G1 X14.612 Y37.19 E2.98319
G1 X13.756 Y36.798 E3.03016
G1 X-38.746 Y6.485 E6.05473
G1 X-39.511 Y5.942 E6.10153
G1 X-40.462 Y5.122 E6.16418
G1 X-40.914 Y4.679 E6.19576
G1 X-41.304 Y4.186 E6.22712
G1 X-42.017 Y3.159 E6.28949
G1 X-42.344 Y2.618 E6.32103
G1 X-42.596 Y2.052 E6.35194
G1 X-43.036 Y.87 E6.41486
G1 X-43.219 Y.265 E6.4464
G1 X-43.323 Y-.357 E6.47786
G1 X-43.452 Y-1.599 E6.54016
G1 X-43.478 Y-2.231 E6.57172
G1 X-43.425 Y-2.851 E6.60276
G1 X-43.241 Y-4.089 E6.6652
G1 X-43.108 Y-4.707 E6.69674
G1 X-42.904 Y-5.291 E6.7276
G1 X-42.416 Y-6.452 E6.79043
G1 X-42.134 Y-7.021 E6.82212
G1 X-26.786 Y-33.524 E8.35007
G1 X-26.435 Y-34.05 E8.38162
G1 X-26.026 Y-34.521 E8.41274
G1 X-25.148 Y-35.415 E8.47525
G1 X-24.678 Y-35.838 E8.5068
G1 X-24.17 Y-36.19 E8.53763
G1 X-23.106 Y-36.834 E8.59968
G1 X-22.546 Y-37.126 E8.63119
G1 X-21.964 Y-37.342 E8.66216
G1 X-20.76 Y-37.706 E8.72492
G1 X-20.145 Y-37.85 E8.75643
G1 X-19.521 Y-37.916 E8.78773
G1 X-18.271 Y-37.968 E8.85015
G1 X-17.639 Y-37.954 E8.88169
G1 X-17.026 Y-37.863 E8.91261
G1 X-15.795 Y-37.602 E8.97539
G1 X-15.186 Y-37.432 E9.00693
G1 X-14.89 Y-37.318 E9.02276
G1 X-14.316 Y-37.076 E9.05383
G1 X-13.758 Y-36.799 E9.08491
G1 X38.746 Y-6.485 E12.1096
G0 F7800 X38.546 Y-6.139
G1 F1800 X39.249 Y-5.639 E12.15264
G1 X40.198 Y-4.821 E12.21514
G1 X40.63 Y-4.396 E12.24538
G1 X40.972 Y-3.963 E12.27291
G1 X41.686 Y-2.936 E12.33531
G1 X41.998 Y-2.416 E12.36556
G1 X42.22 Y-1.916 E12.39286
G1 X42.66 Y-.735 E12.45573
G1 X42.833 Y-.154 E12.48598
G1 X42.924 Y.393 E12.51364
G1 X43.054 Y1.637 E12.57604
G1 X43.077 Y2.243 E12.6063
G1 X43.029 Y2.791 E12.63374
G1 X42.845 Y4.03 E12.69623
G1 X42.717 Y4.622 E12.72645
G1 X42.536 Y5.135 E12.75359
G1 X42.05 Y6.292 E12.8162
G1 X41.79 Y6.816 E12.84538
G1 X26.44 Y33.323 E14.37356
G1 X25.938 Y34.027 E14.4167
G1 X25.535 Y34.493 E14.44743
G1 X24.918 Y35.086 E14.49013
G1 X23.935 Y35.867 E14.55276
G1 X23.436 Y36.212 E14.58303
G1 X22.944 Y36.467 E14.61068
G1 X21.796 Y36.978 E14.67337
G1 X21.227 Y37.188 E14.70363
G1 X20.691 Y37.312 E14.73108
G1 X19.454 Y37.521 E14.79366
G1 X18.851 Y37.582 E14.8239
G1 X18.305 Y37.569 E14.85115
G1 X17.059 Y37.465 E14.91353
G1 X16.46 Y37.375 E14.94375
G1 X15.929 Y37.225 E14.97128
G1 X14.743 Y36.812 E15.03393
G1 X13.956 Y36.452 E15.07711
G1 X-38.546 Y6.139 E18.10168
G1 X-39.25 Y5.639 E18.14476
G1 X-40.201 Y4.819 E18.20741
G1 X-40.633 Y4.393 E18.23768
G1 X-40.976 Y3.958 E18.26531
G1 X-41.689 Y2.931 E18.32769
G1 X-42.001 Y2.412 E18.3579
G1 X-42.221 Y1.913 E18.38511
G1 X-42.661 Y.731 E18.44803
G1 X-42.835 Y.15 E18.47829
G1 X-42.925 Y-.399 E18.50604
G1 X-43.054 Y-1.641 E18.56834
G1 X-43.077 Y-2.247 E18.5986
G1 X-43.029 Y-2.792 E18.62589
G1 X-42.845 Y-4.03 E18.68833
G1 X-42.717 Y-4.623 E18.7186
G1 X-42.536 Y-5.136 E18.74574
G1 X-42.048 Y-6.297 E18.80857
G1 X-41.788 Y-6.82 E18.83771
G1 X-26.44 Y-33.323 E20.36566
G1 X-26.102 Y-33.827 E20.39594
G1 X-25.741 Y-34.241 E20.42334
G1 X-24.863 Y-35.135 E20.48586
G1 X-24.411 Y-35.539 E20.5161
G1 X-23.963 Y-35.847 E20.54323
G1 X-22.899 Y-36.491 E20.60528
G1 X-22.361 Y-36.77 E20.63551
G1 X-21.848 Y-36.959 E20.66279
G1 X-20.644 Y-37.323 E20.72554
G1 X-20.054 Y-37.46 E20.75576
G1 X-19.504 Y-37.516 E20.78334
G1 X-18.254 Y-37.568 E20.84576
G1 X-17.648 Y-37.553 E20.876
G1 X-17.109 Y-37.472 E20.90319
G1 X-15.878 Y-37.211 E20.96597
G1 X-15.045 Y-36.95 E21.00952
G1 X-14.471 Y-36.708 E21.0406
G1 X-13.958 Y-36.453 E21.06918
G1 X38.546 Y-6.139 E24.09386
G0 F7800 X38.346 Y-5.792
G1 F1800 X38.988 Y-5.336 E24.13315
G1 X39.937 Y-4.518 E24.19566
G1 X40.349 Y-4.111 E24.22455
G1 X40.643 Y-3.734 E24.2484
G1 X41.357 Y-2.707 E24.31081
G1 X41.655 Y-2.21 E24.33972
G1 X41.845 Y-1.776 E24.36335
G1 X42.285 Y-.595 E24.42623
G1 X42.449 Y-.04 E24.4551
G1 X42.526 Y.434 E24.47906
G1 X42.656 Y1.678 E24.54146
G1 X42.677 Y2.257 E24.57037
G1 X42.633 Y2.732 E24.59417
G1 X42.449 Y3.971 E24.65666
G1 X42.325 Y4.537 E24.68557
G1 X42.167 Y4.981 E24.70908
G1 X41.681 Y6.138 E24.77169
G1 X41.444 Y6.616 E24.7983
G1 X26.094 Y33.123 E26.32648
G1 X25.636 Y33.765 E26.36582
G1 X25.233 Y34.231 E26.39656
G1 X24.669 Y34.772 E26.43555
G1 X23.686 Y35.553 E26.49819
G1 X23.208 Y35.882 E26.52714
G1 X22.781 Y36.102 E26.5511
G1 X21.633 Y36.613 E26.61379
G1 X21.089 Y36.812 E26.64269
G1 X20.625 Y36.917 E26.66643
G1 X19.388 Y37.126 E26.72902
G1 X18.811 Y37.183 E26.75794
G1 X18.339 Y37.17 E26.7815
G1 X17.093 Y37.066 E26.84388
G1 X16.52 Y36.979 E26.87279
G1 X16.061 Y36.847 E26.89662
G1 X14.875 Y36.434 E26.95928
G1 X14.156 Y36.105 E26.99872
G1 X-38.346 Y5.792 E30.0233
G1 X-38.989 Y5.336 E30.06262
G1 X-39.94 Y4.516 E30.12527
G1 X-40.351 Y4.108 E30.15416
G1 X-40.647 Y3.73 E30.17812
G1 X-41.36 Y2.703 E30.24049
G1 X-41.657 Y2.206 E30.26938
G1 X-41.846 Y1.773 E30.29295
G1 X-42.286 Y.591 E30.35587
G1 X-42.45 Y.036 E30.38474
G1 X-42.528 Y-.44 E30.40881
G1 X-42.657 Y-1.682 E30.47111
G1 X-42.676 Y-2.261 E30.50001
G1 X-42.633 Y-2.733 E30.52365
G1 X-42.449 Y-3.971 E30.5861
G1 X-42.325 Y-4.537 E30.615
G1 X-42.167 Y-4.981 E30.63851
G1 X-41.679 Y-6.142 E30.70135
G1 X-41.442 Y-6.62 E30.72796
G1 X-26.094 Y-33.123 E32.25592
G1 X-25.769 Y-33.603 E32.28484
G1 X-25.456 Y-33.961 E32.30856
G1 X-24.578 Y-34.855 E32.37108
G1 X-24.144 Y-35.239 E32.39999
G1 X-23.756 Y-35.505 E32.42346
G1 X-22.692 Y-36.149 E32.48551
G1 X-22.177 Y-36.414 E32.5144
G1 X-21.732 Y-36.576 E32.53803
G1 X-20.528 Y-36.94 E32.60078
G1 X-19.964 Y-37.069 E32.62965
G1 X-19.488 Y-37.116 E32.65351
G1 X-18.238 Y-37.168 E32.71593
G1 X-17.658 Y-37.152 E32.74487
G1 X-17.192 Y-37.081 E32.76839
G1 X-15.961 Y-36.82 E32.83117
G1 X-15.2 Y-36.581 E32.87096
G1 X-14.626 Y-36.339 E32.90204
G1 X-14.158 Y-36.106 E32.92812
G1 X38.346 Y-5.792 E35.95281
G0 F7800 X38.146 Y-5.446
G1 F1800 X38.727 Y-5.033 E35.98837
G1 X39.676 Y-4.215 E36.05088
G1 X40.066 Y-3.826 E36.07836
G1 X40.315 Y-3.506 E36.09859
G1 X41.029 Y-2.479 E36.16099
G1 X41.31 Y-2.005 E36.18848
G1 X41.47 Y-1.637 E36.2085
G1 X41.91 Y-.456 E36.27138
G1 X42.064 Y.073 E36.29887
G1 X42.128 Y.476 E36.31922
G1 X42.258 Y1.72 E36.38163
G1 X42.276 Y2.271 E36.40913
G1 X42.238 Y2.673 E36.42927
G1 X42.054 Y3.912 E36.49177
G1 X41.934 Y4.45 E36.51927
G1 X41.798 Y4.826 E36.53922
G1 X41.312 Y5.983 E36.60182
G1 X41.097 Y6.415 E36.6259
G1 X25.747 Y32.922 E38.15407
G1 X25.333 Y33.504 E38.18971
G1 X24.93 Y33.97 E38.22044
G1 X24.42 Y34.459 E38.25569
G1 X23.437 Y35.24 E38.31833
G1 X22.982 Y35.551 E38.34583
G1 X22.618 Y35.737 E38.36622
G1 X21.47 Y36.248 E38.42891
G1 X20.952 Y36.435 E38.45639
G1 X20.558 Y36.523 E38.47653
G1 X19.321 Y36.732 E38.53912
G1 X18.773 Y36.784 E38.56658
G1 X18.372 Y36.772 E38.58659
G1 X17.126 Y36.668 E38.64897
G1 X16.582 Y36.582 E38.67645
G1 X16.192 Y36.47 E38.69669
G1 X15.006 Y36.057 E38.75935
G1 X14.356 Y35.759 E38.79502
G1 X-38.146 Y5.446 E41.8196
G1 X-38.727 Y5.033 E41.85516
G1 X-39.678 Y4.213 E41.91781
G1 X-40.069 Y3.824 E41.94532
G1 X-40.318 Y3.502 E41.96563
G1 X-41.031 Y2.475 E42.028
G1 X-41.312 Y2.001 E42.0555
G1 X-41.471 Y1.634 E42.07545
G1 X-41.911 Y.452 E42.13837
G1 X-42.066 Y-.077 E42.16588
G1 X-42.13 Y-.481 E42.18628
G1 X-42.259 Y-1.723 E42.24858
G1 X-42.276 Y-2.274 E42.27608
G1 X-42.238 Y-2.675 E42.29618
G1 X-42.054 Y-3.913 E42.35862
G1 X-41.933 Y-4.45 E42.38608
G1 X-41.798 Y-4.826 E42.40601
G1 X-41.31 Y-5.987 E42.46884
G1 X-41.095 Y-6.419 E42.49292
G1 X-25.747 Y-32.922 E44.02087
G1 X-25.437 Y-33.378 E44.04838
G1 X-25.17 Y-33.681 E44.06853
G1 X-24.292 Y-34.575 E44.13104
G1 X-23.879 Y-34.939 E44.15851
G1 X-23.549 Y-35.163 E44.17841
G1 X-22.485 Y-35.807 E44.24046
G1 X-21.994 Y-36.057 E44.26795
G1 X-21.617 Y-36.193 E44.28794
G1 X-20.413 Y-36.557 E44.35069
G1 X-19.875 Y-36.678 E44.3782
G1 X-19.471 Y-36.717 E44.39845
G1 X-18.221 Y-36.769 E44.46087
G1 X-17.67 Y-36.752 E44.48837
G1 X-17.275 Y-36.689 E44.50833
G1 X-16.044 Y-36.428 E44.57111
G1 X-15.356 Y-36.213 E44.60707
G1 X-14.782 Y-35.971 E44.63815
G1 X-14.358 Y-35.76 E44.66178
G1 X38.146 Y-5.446 E47.68646
G0 F7800 X37.946 Y-5.099
G1 F1800 X38.466 Y-4.73 E47.71827
G1 X39.415 Y-3.912 E47.78078
G1 X39.782 Y-3.543 E47.80674
G1 X39.987 Y-3.278 E47.82346
G1 X40.701 Y-2.251 E47.88586
G1 X40.964 Y-1.801 E47.91186
G1 X41.095 Y-1.497 E47.92838
G1 X41.535 Y-.316 E47.99126
G1 X41.679 Y.185 E48.01726
G1 X41.731 Y.518 E48.03408
G1 X41.861 Y1.762 E48.09648
G1 X41.875 Y2.283 E48.12248
G1 X41.842 Y2.614 E48.13908
G1 X41.658 Y3.853 E48.20157
G1 X41.542 Y4.362 E48.22761
G1 X41.43 Y4.671 E48.24401
G1 X40.944 Y5.828 E48.30662
G1 X40.751 Y6.215 E48.32819
G1 X25.401 Y32.722 E49.85637
G1 X25.031 Y33.242 E49.88821
G1 X24.628 Y33.708 E49.91895
G1 X24.171 Y34.146 E49.95053
G1 X23.188 Y34.927 E50.01316
G1 X22.756 Y35.219 E50.03918
G1 X22.456 Y35.371 E50.05596
G1 X21.308 Y35.882 E50.11865
G1 X20.817 Y36.057 E50.14465
G1 X20.491 Y36.128 E50.1613
G1 X19.254 Y36.337 E50.22389
G1 X18.735 Y36.385 E50.24989
G1 X18.405 Y36.373 E50.26637
G1 X17.159 Y36.269 E50.32875
G1 X16.645 Y36.186 E50.35472
G1 X16.324 Y36.092 E50.37141
G1 X15.138 Y35.679 E50.43406
G1 X14.556 Y35.412 E50.46601
G1 X-37.946 Y5.099 E53.49058
G1 X-38.466 Y4.73 E53.52239
G1 X-39.417 Y3.91 E53.58504
G1 X-39.785 Y3.54 E53.61107
G1 X-39.99 Y3.274 E53.62783
G1 X-40.703 Y2.247 E53.6902
G1 X-40.966 Y1.797 E53.71621
G1 X-41.096 Y1.494 E53.73266
G1 X-41.536 Y.312 E53.79558
G1 X-41.68 Y-.189 E53.82159
G1 X-41.732 Y-.523 E53.83845
G1 X-41.861 Y-1.765 E53.90075
G1 X-41.875 Y-2.286 E53.92675
G1 X-41.842 Y-2.616 E53.9433
G1 X-41.658 Y-3.854 E54.00574
G1 X-41.542 Y-4.362 E54.03174
G1 X-41.429 Y-4.671 E54.04815
G1 X-40.941 Y-5.832 E54.11098
G1 X-40.749 Y-6.219 E54.13253
G1 X-25.401 Y-32.722 E55.66049
G1 X-25.106 Y-33.152 E55.6865
G1 X-24.885 Y-33.4 E55.70307
G1 X-24.007 Y-34.294 E55.76559
G1 X-23.614 Y-34.637 E55.79161
G1 X-23.342 Y-34.821 E55.808
G1 X-22.278 Y-35.465 E55.87005
G1 X-21.812 Y-35.7 E55.89608
G1 X-21.501 Y-35.811 E55.91256
G1 X-20.297 Y-36.175 E55.97531
G1 X-19.788 Y-36.287 E56.00131
G1 X-19.454 Y-36.317 E56.01804
G1 X-18.204 Y-36.369 E56.08046
G1 X-17.683 Y-36.351 E56.10647
G1 X-17.358 Y-36.298 E56.1229
G1 X-16.127 Y-36.037 E56.18568
G1 X-15.511 Y-35.844 E56.21788
G1 X-14.937 Y-35.602 E56.24896
G1 X-14.558 Y-35.413 E56.27009
G1 X37.946 Y-5.099 E59.29477
G0 F7800 X37.746 Y-4.753
G1 F1800 X38.205 Y-4.427 E59.32286
G1 X39.154 Y-3.609 E59.38537
G1 X39.497 Y-3.261 E59.40974
G1 X39.658 Y-3.049 E59.42303
G1 X40.372 Y-2.022 E59.48543
G1 X40.618 Y-1.599 E59.50984
G1 X40.72 Y-1.357 E59.52294
G1 X41.16 Y-.176 E59.58582
G1 X41.293 Y.295 E59.61024
G1 X41.333 Y.559 E59.62356
G1 X41.463 Y1.803 E59.68596
G1 X41.474 Y2.293 E59.71041
G1 X41.446 Y2.556 E59.72361
G1 X41.262 Y3.795 E59.7861
G1 X41.151 Y4.271 E59.81048
G1 X41.061 Y4.516 E59.82351
G1 X40.575 Y5.673 E59.88612
G1 X40.405 Y6.014 E59.90512
G1 X25.055 Y32.521 E61.4333
G1 X24.728 Y32.98 E61.46142
G1 X24.325 Y33.446 E61.49215
G1 X23.922 Y33.833 E61.52003
G1 X22.939 Y34.614 E61.58266
G1 X22.532 Y34.886 E61.60709
G1 X22.293 Y35.006 E61.62043
G1 X21.145 Y35.517 E61.68312
G1 X20.683 Y35.679 E61.70755
G1 X20.425 Y35.734 E61.72071
G1 X19.188 Y35.943 E61.7833
G1 X18.7 Y35.985 E61.80773
G1 X18.438 Y35.975 E61.82081
G1 X17.192 Y35.871 E61.88319
G1 X16.71 Y35.79 E61.90758
G1 X16.455 Y35.714 E61.92085
G1 X15.269 Y35.301 E61.98351
G1 X14.756 Y35.066 E62.01166
G1 X-37.746 Y4.753 E65.03623
G1 X-38.205 Y4.427 E65.06432
G1 X-39.156 Y3.607 E65.12696
G1 X-39.499 Y3.258 E65.15138
G1 X-39.661 Y3.046 E65.16469
G1 X-40.374 Y2.019 E65.22706
G1 X-40.62 Y1.595 E65.25152
G1 X-40.722 Y1.355 E65.26453
G1 X-41.162 Y.173 E65.32745
G1 X-41.294 Y-.299 E65.35191
G1 X-41.334 Y-.564 E65.36528
G1 X-41.463 Y-1.806 E65.42757
G1 X-41.474 Y-2.295 E65.45198
G1 X-41.446 Y-2.557 E65.46512
G1 X-41.262 Y-3.795 E65.52756
G1 X-41.151 Y-4.272 E65.552
G1 X-41.061 Y-4.516 E65.56497
G1 X-40.573 Y-5.677 E65.6278
G1 X-40.403 Y-6.018 E65.64681
G1 X-25.055 Y-32.521 E67.17476
G1 X-24.776 Y-32.924 E67.19922
G1 X-24.599 Y-33.12 E67.21239
G1 X-23.721 Y-34.014 E67.27491
G1 X-23.351 Y-34.334 E67.29931
G1 X-23.134 Y-34.479 E67.31234
G1 X-22.07 Y-35.123 E67.37438
G1 X-21.632 Y-35.341 E67.39879
G1 X-21.385 Y-35.428 E67.41186
G1 X-20.181 Y-35.792 E67.47461
G1 X-19.703 Y-35.895 E67.49901
G1 X-19.438 Y-35.917 E67.51227
G1 X-18.188 Y-35.969 E67.57469
G1 X-17.699 Y-35.95 E67.5991
G1 X-17.441 Y-35.907 E67.61215
G1 X-16.21 Y-35.646 E67.67493
G1 X-15.667 Y-35.475 E67.70333
G1 X-15.093 Y-35.233 E67.73441
G1 X-14.758 Y-35.067 E67.75307
G1 X37.746 Y-4.753 E70.77775
G0 F7800 X37.546 Y-4.407
G1 F1800 X37.944 Y-4.124 E70.80211
G1 X38.893 Y-3.306 E70.86462
G1 X39.33 Y-2.821 E70.89719
G1 X40.044 Y-1.794 E70.95959
G1 X40.345 Y-1.218 E70.99202
G1 X40.785 Y-.037 E71.05489
G1 X40.935 Y.601 E71.08759
G1 X41.065 Y1.845 E71.14999
G1 X41.051 Y2.497 E71.18253
G1 X40.867 Y3.736 E71.24502
G1 X40.692 Y4.361 E71.2774
G1 X40.206 Y5.518 E71.34001
G1 X40.059 Y5.814 E71.3565
G1 X24.709 Y32.321 E72.88467
G1 X24.426 Y32.719 E72.90904
G1 X24.023 Y33.185 E72.93977
G1 X23.673 Y33.52 E72.96395
G1 X22.69 Y34.301 E73.02658
G1 X22.13 Y34.64 E73.05924
G1 X20.982 Y35.151 E73.12193
G1 X20.358 Y35.34 E73.15446
G1 X19.121 Y35.549 E73.21705
G1 X18.472 Y35.576 E73.24946
G1 X17.226 Y35.472 E73.31184
G1 X16.587 Y35.336 E73.34443
G1 X15.401 Y34.923 E73.40708
G1 X14.956 Y34.72 E73.43149
G1 X-37.546 Y4.407 E76.45606
G1 X-37.944 Y4.124 E76.48042
G1 X-38.895 Y3.304 E76.54307
G1 X-39.333 Y2.818 E76.57571
G1 X-40.046 Y1.791 E76.63808
G1 X-40.347 Y1.215 E76.67051
G1 X-40.787 Y.033 E76.73343
G1 X-40.936 Y-.605 E76.76612
G1 X-41.065 Y-1.847 E76.82842
G1 X-41.051 Y-2.498 E76.8609
G1 X-40.867 Y-3.736 E76.92334
G1 X-40.692 Y-4.361 E76.95572
G1 X-40.204 Y-5.522 E77.01856
G1 X-40.057 Y-5.818 E77.03504
G1 X-24.709 Y-32.321 E78.563
G1 X-24.314 Y-32.84 E78.59554
G1 X-23.436 Y-33.734 E78.65805
G1 X-22.927 Y-34.136 E78.69041
G1 X-21.863 Y-34.78 E78.75246
G1 X-21.269 Y-35.045 E78.78491
G1 X-20.065 Y-35.409 E78.84766
G1 X-19.421 Y-35.518 E78.88025
G1 X-18.171 Y-35.57 E78.94266
G1 X-17.524 Y-35.515 E78.97506
G1 X-16.293 Y-35.254 E79.03784
G1 X-15.822 Y-35.107 E79.06246
G1 X-15.248 Y-34.865 E79.09353
G1 X-14.958 Y-34.721 E79.10969
G1 X37.546 Y-4.407 E82.13437
G0 F7800 X37.346 Y-4.06
G1 F1800 X37.682 Y-3.821 E82.15494
G1 X38.631 Y-3.003 E82.21745
G1 X39.001 Y-2.593 E82.245
G1 X39.715 Y-1.566 E82.30741
G1 X39.971 Y-1.078 E82.3349
G1 X40.411 Y.103 E82.39778
G1 X40.537 Y.642 E82.42539
G1 X40.667 Y1.886 E82.48779
G1 X40.655 Y2.438 E82.51534
G1 X40.471 Y3.677 E82.57783
G1 X40.323 Y4.206 E82.60524
G1 X39.837 Y5.363 E82.66784
G1 X39.713 Y5.613 E82.68177
G1 X24.363 Y32.12 E84.20994
G1 X24.123 Y32.457 E84.23058
G1 X23.72 Y32.923 E84.26132
G1 X23.425 Y33.207 E84.28175
G1 X22.442 Y33.988 E84.34439
G1 X21.968 Y34.275 E84.37203
