;FLAVOR:RepRap
;TIME:4072
;Generated with Cura_SteamEngine 2.3.0
M104 S200
M109 S200
G21 ;metric values
G90 ;absolute positioning
M82 ;set extruder to absolute mode
M107 ;start with the fan off
G28 ;Home all axes (max endstops)
G1 Z15.0 F9000 ;move the platform down 15mm
G92 E0 ;zero the extruded length
G1 F200 E3 ;extrude 3mm of feed stock
G92 E0 ;zero the extruded length again
G1 F9000
;Put printing message on LCD screen
M117 Printing...
;LAYER_COUNT:32
;LAYER:0
M107
G1 F1500 E-6.5
G0 F7800 X-9.155 Y-34.14 Z.3
;TYPE:SKIRT
G1 F1500 E0
G1 F1800 X34.416 Y-8.985 E2.51003
G1 X35.18 Y-8.442 E2.55679
G1 X36.129 Y-7.624 E2.6193
G1 X36.581 Y-7.182 E2.65084
G1 X36.968 Y-6.694 E2.68191
G1 X37.683 Y-5.667 E2.74434
G1 X38.011 Y-5.126 E2.77591
G1 X38.267 Y-4.551 E2.80731
G1 X38.706 Y-3.369 E2.87022
G1 X38.888 Y-2.764 E2.90174
G1 X38.992 Y-2.148 E2.9329
G1 X39.122 Y-.904 E2.9953
G1 X39.148 Y-.272 E3.02686
G1 X39.095 Y.348 E3.05791
G1 X38.912 Y1.584 E3.12024
G1 X38.78 Y2.203 E3.15182
G1 X38.575 Y2.79 E3.18284
G1 X38.088 Y3.948 E3.24551
G1 X37.806 Y4.516 E3.27715
G1 X22.456 Y31.024 E4.80537
G1 X21.911 Y31.789 E4.85223
G1 X21.508 Y32.255 E4.88297
G1 X20.836 Y32.899 E4.9294
G1 X19.853 Y33.68 E4.99204
G1 X19.335 Y34.041 E5.02354
G1 X18.776 Y34.333 E5.055
G1 X17.628 Y34.844 E5.1177
G1 X17.036 Y35.064 E5.1492
G1 X16.428 Y35.206 E5.18035
G1 X15.191 Y35.415 E5.24294
G1 X14.562 Y35.481 E5.2745
G1 X13.942 Y35.468 E5.30543
G1 X12.696 Y35.364 E5.36781
G1 X12.071 Y35.271 E5.39934
G1 X11.321 Y35.049 E5.43836
G1 X9.859 Y34.488 E5.51649
G1 X9.149 Y34.15 E5.55572
G1 X-34.146 Y9.14 E8.05021
G1 X-34.492 Y8.92 E8.07066
G1 X-35.263 Y8.386 E8.11745
G1 X-35.759 Y7.994 E8.14899
G1 X-36.134 Y7.62 E8.17542
G1 X-36.974 Y6.686 E8.23809
G1 X-37.366 Y6.19 E8.26963
G1 X-37.684 Y5.664 E8.30029
G1 X-38.266 Y4.554 E8.36282
G1 X-38.524 Y3.977 E8.39435
G1 X-38.707 Y3.367 E8.42613
G1 X-38.991 Y2.149 E8.48852
G1 X-39.096 Y1.526 E8.52004
G1 X-39.121 Y.91 E8.5508
G1 X-39.095 Y-.339 E8.61313
G1 X-39.042 Y-.969 E8.64467
G1 X-38.913 Y-1.577 E8.67568
G1 X-38.575 Y-2.79 E8.7385
G1 X-38.367 Y-3.387 E8.77004
G1 X-38.091 Y-3.942 E8.80096
G1 X-22.816 Y-30.478 E10.32852
G1 X-22.47 Y-31.002 E10.35985
G1 X-21.713 Y-32.002 E10.42242
G1 X-21.3 Y-32.481 E10.45398
G1 X-20.836 Y-32.899 E10.48513
G1 X-19.853 Y-33.68 E10.54777
G1 X-19.335 Y-34.041 E10.57927
G1 X-18.776 Y-34.333 E10.61073
G1 X-17.628 Y-34.844 E10.67342
G1 X-17.036 Y-35.064 E10.70493
G1 X-16.428 Y-35.206 E10.73608
G1 X-15.191 Y-35.415 E10.79867
G1 X-14.562 Y-35.481 E10.83022
G1 X-13.942 Y-35.468 E10.86116
G1 X-12.696 Y-35.364 E10.92354
G1 X-12.071 Y-35.271 E10.95507
G1 X-11.288 Y-35.036 E10.99585
G1 X-9.831 Y-34.465 E11.07393
G1 X-9.155 Y-34.14 E11.11135
G0 F7800 X-9.355 Y-33.794
G1 F1800 X34.216 Y-8.639 E13.62138
G1 X34.919 Y-8.139 E13.66442
G1 X35.868 Y-7.321 E13.72692
G1 X36.3 Y-6.896 E13.75716
G1 X36.64 Y-6.465 E13.78455
G1 X37.355 Y-5.438 E13.84698
G1 X37.668 Y-4.919 E13.87721
G1 X37.892 Y-4.412 E13.90487
G1 X38.331 Y-3.23 E13.96777
G1 X38.504 Y-2.649 E13.99802
G1 X38.594 Y-2.106 E14.02548
G1 X38.724 Y-.862 E14.08788
G1 X38.747 Y-.256 E14.11813
G1 X38.699 Y.29 E14.14548
G1 X38.516 Y1.526 E14.20782
G1 X38.388 Y2.118 E14.23803
G1 X38.206 Y2.635 E14.26538
G1 X37.719 Y3.793 E14.32805
G1 X37.46 Y4.315 E14.35712
G1 X22.11 Y30.823 E15.88534
G1 X21.608 Y31.527 E15.92848
G1 X21.205 Y31.993 E15.95922
G1 X20.588 Y32.586 E16.00191
G1 X19.605 Y33.367 E16.06455
G1 X19.106 Y33.712 E16.09481
G1 X18.614 Y33.967 E16.12246
G1 X17.466 Y34.478 E16.18515
G1 X16.897 Y34.688 E16.21541
G1 X16.361 Y34.812 E16.24286
G1 X15.124 Y35.021 E16.30545
G1 X14.521 Y35.082 E16.33568
G1 X13.975 Y35.069 E16.36293
G1 X12.729 Y34.965 E16.42531
G1 X12.13 Y34.875 E16.45553
G1 X11.464 Y34.676 E16.49021
G1 X10.002 Y34.115 E16.56833
G1 X9.349 Y33.803 E16.60444
G1 X-33.946 Y8.793 E19.09893
G1 X-34.264 Y8.592 E19.1177
G1 X-35.035 Y8.058 E19.16449
G1 X-35.51 Y7.68 E19.19477
G1 X-35.836 Y7.352 E19.21785
G1 X-36.676 Y6.418 E19.28052
G1 X-37.051 Y5.941 E19.31079
G1 X-37.33 Y5.478 E19.33776
G1 X-37.912 Y4.368 E19.40029
G1 X-38.158 Y3.814 E19.43053
G1 X-38.318 Y3.277 E19.45848
G1 X-38.602 Y2.059 E19.52088
G1 X-38.7 Y1.46 E19.55116
G1 X-38.721 Y.918 E19.57822
G1 X-38.695 Y-.331 E19.64055
G1 X-38.642 Y-.935 E19.6708
G1 X-38.527 Y-1.47 E19.6981
G1 X-38.189 Y-2.683 E19.76092
G1 X-37.988 Y-3.255 E19.79117
G1 X-37.745 Y-3.743 E19.81837
G1 X-22.47 Y-30.279 E21.34592
G1 X-22.151 Y-30.76 E21.37472
G1 X-21.394 Y-31.76 E21.43729
G1 X-20.997 Y-32.219 E21.46757
G1 X-20.588 Y-32.586 E21.49498
G1 X-19.605 Y-33.367 E21.55762
G1 X-19.106 Y-33.712 E21.58788
G1 X-18.614 Y-33.967 E21.61553
G1 X-17.466 Y-34.478 E21.67822
G1 X-16.897 Y-34.688 E21.70848
G1 X-16.361 Y-34.812 E21.73593
G1 X-15.124 Y-35.021 E21.79852
G1 X-14.521 Y-35.082 E21.82876
G1 X-13.975 Y-35.069 E21.856
G1 X-12.729 Y-34.965 E21.91838
G1 X-12.13 Y-34.875 E21.9486
G1 X-11.434 Y-34.664 E21.98489
G1 X-9.977 Y-34.093 E22.06296
G1 X-9.355 Y-33.794 E22.09739
G0 F7800 X-9.555 Y-33.447
G1 F1800 X34.016 Y-8.292 E24.60742
G1 X34.658 Y-7.836 E24.64671
G1 X35.607 Y-7.018 E24.70922
G1 X36.019 Y-6.611 E24.73811
G1 X36.312 Y-6.237 E24.76181
G1 X37.027 Y-5.21 E24.82424
G1 X37.324 Y-4.713 E24.85313
G1 X37.517 Y-4.272 E24.87714
G1 X37.956 Y-3.09 E24.94005
G1 X38.12 Y-2.535 E24.96892
G1 X38.196 Y-2.065 E24.99268
G1 X38.326 Y-.821 E25.05508
G1 X38.347 Y-.242 E25.08398
G1 X38.304 Y.231 E25.10768
G1 X38.121 Y1.467 E25.17002
G1 X37.997 Y2.033 E25.19892
G1 X37.838 Y2.48 E25.22259
G1 X37.351 Y3.638 E25.28527
G1 X37.114 Y4.115 E25.31184
G1 X21.764 Y30.623 E26.84006
G1 X21.306 Y31.265 E26.8794
G1 X20.903 Y31.731 E26.91014
G1 X20.339 Y32.272 E26.94913
G1 X19.356 Y33.053 E27.01177
G1 X18.878 Y33.382 E27.04072
G1 X18.451 Y33.602 E27.06468
G1 X17.303 Y34.113 E27.12737
G1 X16.759 Y34.312 E27.15627
G1 X16.295 Y34.417 E27.18001
G1 X15.058 Y34.626 E27.24259
G1 X14.481 Y34.683 E27.27152
G1 X14.009 Y34.67 E27.29508
G1 X12.763 Y34.566 E27.35746
G1 X12.19 Y34.479 E27.38637
G1 X11.607 Y34.302 E27.41677
G1 X10.145 Y33.741 E27.49489
G1 X9.549 Y33.457 E27.52783
G1 X-33.746 Y8.447 E30.02232
G1 X-34.036 Y8.263 E30.03946
G1 X-34.807 Y7.729 E30.08625
G1 X-35.26 Y7.367 E30.11518
G1 X-35.539 Y7.085 E30.13497
G1 X-36.379 Y6.151 E30.19764
G1 X-36.736 Y5.694 E30.22657
G1 X-36.976 Y5.292 E30.24993
G1 X-37.558 Y4.182 E30.31246
G1 X-37.791 Y3.652 E30.34134
G1 X-37.928 Y3.186 E30.36557
G1 X-38.212 Y1.968 E30.42797
G1 X-38.305 Y1.396 E30.45688
G1 X-38.321 Y.927 E30.48029
G1 X-38.295 Y-.322 E30.54262
G1 X-38.243 Y-.899 E30.57152
G1 X-38.142 Y-1.362 E30.59517
G1 X-37.804 Y-2.575 E30.65799
G1 X-37.61 Y-3.121 E30.6869
G1 X-37.398 Y-3.543 E30.71046
G1 X-22.123 Y-30.079 E32.23801
G1 X-21.832 Y-30.519 E32.26433
G1 X-21.075 Y-31.519 E32.32691
G1 X-20.694 Y-31.956 E32.35583
G1 X-20.339 Y-32.272 E32.37954
G1 X-19.356 Y-33.053 E32.44218
G1 X-18.878 Y-33.382 E32.47113
G1 X-18.451 Y-33.602 E32.49509
G1 X-17.303 Y-34.113 E32.55778
G1 X-16.759 Y-34.312 E32.58668
G1 X-16.295 Y-34.417 E32.61042
G1 X-15.058 Y-34.626 E32.67301
G1 X-14.481 Y-34.683 E32.70193
G1 X-14.009 Y-34.67 E32.72549
G1 X-12.763 Y-34.566 E32.78787
G1 X-12.19 Y-34.479 E32.81678
G1 X-11.579 Y-34.291 E32.84868
G1 X-10.122 Y-33.72 E32.92675
G1 X-9.555 Y-33.447 E32.95815
G0 F7800 X-9.755 Y-33.101
G1 F1800 X33.816 Y-7.946 E35.46818
G1 X34.397 Y-7.533 E35.50374
G1 X35.346 Y-6.715 E35.56625
G1 X35.736 Y-6.326 E35.59373
G1 X35.984 Y-6.008 E35.61385
G1 X36.699 Y-4.981 E35.67628
G1 X36.98 Y-4.507 E35.70377
G1 X37.142 Y-4.133 E35.72411
G1 X37.581 Y-2.951 E35.78701
G1 X37.735 Y-2.422 E35.8145
G1 X37.798 Y-2.023 E35.83465
G1 X37.928 Y-.779 E35.89705
G1 X37.946 Y-.228 E35.92456
G1 X37.908 Y.173 E35.94465
G1 X37.725 Y1.409 E36.00699
G1 X37.605 Y1.946 E36.03444
G1 X37.469 Y2.325 E36.05453
G1 X36.982 Y3.483 E36.1172
G1 X36.767 Y3.914 E36.14123
G1 X21.417 Y30.422 E37.66945
G1 X21.003 Y31.004 E37.70508
G1 X20.6 Y31.47 E37.73582
G1 X20.09 Y31.959 E37.77107
G1 X19.107 Y32.74 E37.83371
G1 X18.652 Y33.051 E37.8612
G1 X18.288 Y33.237 E37.8816
G1 X17.14 Y33.748 E37.94429
G1 X16.622 Y33.935 E37.97176
G1 X16.228 Y34.023 E37.99191
G1 X14.991 Y34.232 E38.05449
G1 X14.443 Y34.284 E38.08196
G1 X14.042 Y34.272 E38.10197
G1 X12.796 Y34.168 E38.16435
G1 X12.252 Y34.082 E38.19183
G1 X11.751 Y33.929 E38.21796
G1 X10.289 Y33.368 E38.29609
G1 X9.749 Y33.11 E38.32595
G1 X-33.546 Y8.1 E40.82043
G1 X-33.809 Y7.934 E40.83595
G1 X-34.58 Y7.4 E40.88274
G1 X-35.009 Y7.054 E40.91024
G1 X-35.241 Y6.817 E40.92678
G1 X-36.081 Y5.883 E40.98945
G1 X-36.419 Y5.448 E41.01694
G1 X-36.621 Y5.107 E41.03671
G1 X-37.203 Y3.997 E41.09924
G1 X-37.423 Y3.491 E41.12677
G1 X-37.539 Y3.095 E41.14735
G1 X-37.823 Y1.877 E41.20975
G1 X-37.909 Y1.333 E41.23723
G1 X-37.921 Y.935 E41.25709
G1 X-37.895 Y-.314 E41.31942
G1 X-37.844 Y-.863 E41.34693
G1 X-37.757 Y-1.255 E41.36696
G1 X-37.419 Y-2.468 E41.42978
G1 X-37.233 Y-2.987 E41.45729
G1 X-37.051 Y-3.344 E41.47728
G1 X-21.776 Y-29.88 E43.00484
G1 X-21.513 Y-30.278 E43.02864
G1 X-20.756 Y-31.278 E43.09121
G1 X-20.392 Y-31.692 E43.11871
G1 X-20.09 Y-31.959 E43.13882
G1 X-19.107 Y-32.74 E43.20146
G1 X-18.652 Y-33.051 E43.22896
G1 X-18.288 Y-33.237 E43.24935
G1 X-17.14 Y-33.748 E43.31204
G1 X-16.622 Y-33.935 E43.33952
G1 X-16.228 Y-34.023 E43.35966
G1 X-14.991 Y-34.232 E43.42225
G1 X-14.443 Y-34.284 E43.44971
G1 X-14.042 Y-34.272 E43.46972
G1 X-12.796 Y-34.168 E43.5321
G1 X-12.252 Y-34.082 E43.55958
G1 X-11.725 Y-33.919 E43.5871
G1 X-10.268 Y-33.348 E43.66517
G1 X-9.755 Y-33.101 E43.69358
G0 F7800 X-9.955 Y-32.755
G1 F1800 X33.616 Y-7.6 E46.20361
G1 X34.136 Y-7.23 E46.23545
G1 X35.085 Y-6.412 E46.29796
G1 X35.452 Y-6.043 E46.32392
G1 X35.655 Y-5.78 E46.3405
G1 X36.37 Y-4.753 E46.40293
G1 X36.634 Y-4.303 E46.42896
G1 X36.767 Y-3.994 E46.44574
G1 X37.206 Y-2.812 E46.50865
G1 X37.35 Y-2.311 E46.53465
G1 X37.401 Y-1.981 E46.55131
G1 X37.531 Y-.737 E46.61372
G1 X37.545 Y-.216 E46.63972
G1 X37.512 Y.114 E46.65626
G1 X37.329 Y1.35 E46.7186
G1 X37.214 Y1.858 E46.74459
G1 X37.1 Y2.17 E46.76116
G1 X36.613 Y3.328 E46.82383
G1 X36.421 Y3.714 E46.84534
G1 X21.071 Y30.222 E48.37356
G1 X20.701 Y30.742 E48.4054
G1 X20.298 Y31.208 E48.43613
G1 X19.841 Y31.646 E48.46772
G1 X18.858 Y32.427 E48.53035
G1 X18.426 Y32.719 E48.55637
G1 X18.126 Y32.871 E48.57314
G1 X16.978 Y33.382 E48.63584
G1 X16.487 Y33.557 E48.66184
G1 X16.161 Y33.628 E48.67849
G1 X14.924 Y33.837 E48.74108
G1 X14.405 Y33.885 E48.76708
G1 X14.075 Y33.873 E48.78355
G1 X12.829 Y33.769 E48.84593
G1 X12.315 Y33.686 E48.87191
G1 X11.894 Y33.555 E48.89391
G1 X10.432 Y32.994 E48.97203
G1 X9.949 Y32.764 E48.99872
G1 X-33.346 Y7.754 E51.49321
G1 X-33.581 Y7.605 E51.50709
G1 X-34.352 Y7.071 E51.55388
G1 X-34.756 Y6.742 E51.57988
G1 X-34.944 Y6.55 E51.59328
G1 X-35.784 Y5.616 E51.65595
G1 X-36.102 Y5.203 E51.68196
G1 X-36.267 Y4.921 E51.69826
G1 X-36.849 Y3.811 E51.76079
G1 X-37.055 Y3.332 E51.7868
G1 X-37.149 Y3.004 E51.80382
G1 X-37.433 Y1.786 E51.86622
G1 X-37.512 Y1.271 E51.89221
G1 X-37.521 Y.943 E51.90858
G1 X-37.495 Y-.306 E51.97091
G1 X-37.445 Y-.824 E51.99687
G1 X-37.371 Y-1.148 E52.01345
G1 X-37.033 Y-2.361 E52.07628
G1 X-36.855 Y-2.85 E52.10224
G1 X-36.705 Y-3.144 E52.1187
G1 X-21.43 Y-29.68 E53.64626
G1 X-21.194 Y-30.036 E53.66757
G1 X-20.437 Y-31.036 E53.73014
G1 X-20.091 Y-31.426 E53.75615
G1 X-19.841 Y-31.646 E53.77277
G1 X-18.858 Y-32.427 E53.83541
G1 X-18.426 Y-32.719 E53.86142
G1 X-18.126 Y-32.871 E53.8782
G1 X-16.978 Y-33.382 E53.94089
G1 X-16.487 Y-33.557 E53.9669
G1 X-16.161 Y-33.628 E53.98354
G1 X-14.924 Y-33.837 E54.04613
G1 X-14.405 Y-33.885 E54.07213
G1 X-14.075 Y-33.873 E54.08861
G1 X-12.829 Y-33.769 E54.15099
G1 X-12.315 Y-33.686 E54.17696
G1 X-11.871 Y-33.547 E54.20017
G1 X-10.414 Y-32.976 E54.27825
G1 X-9.955 Y-32.755 E54.30366
G0 F7800 X-10.155 Y-32.408
G1 F1800 X33.416 Y-7.253 E56.81369
G1 X33.875 Y-6.927 E56.84178
G1 X34.824 Y-6.109 E56.90429
G1 X35.167 Y-5.761 E56.92867
G1 X35.327 Y-5.551 E56.94184
G1 X36.042 Y-4.524 E57.00427
G1 X36.288 Y-4.101 E57.02868
G1 X36.392 Y-3.854 E57.04205
G1 X36.831 Y-2.672 E57.10496
G1 X36.964 Y-2.201 E57.12937
G1 X37.003 Y-1.94 E57.14254
G1 X37.133 Y-.696 E57.20494
G1 X37.144 Y-.206 E57.22939
G1 X37.117 Y.055 E57.24249
G1 X36.934 Y1.291 E57.30482
G1 X36.823 Y1.768 E57.32926
G1 X36.731 Y2.015 E57.34241
G1 X36.244 Y3.173 E57.40508
G1 X36.075 Y3.513 E57.42402
G1 X20.725 Y30.021 E58.95224
G1 X20.398 Y30.48 E58.98036
G1 X19.995 Y30.946 E59.01109
G1 X19.592 Y31.333 E59.03897
G1 X18.609 Y32.114 E59.1016
G1 X18.202 Y32.386 E59.12603
G1 X17.963 Y32.506 E59.13937
G1 X16.815 Y33.017 E59.20206
G1 X16.353 Y33.179 E59.22649
G1 X16.095 Y33.234 E59.23965
G1 X14.858 Y33.443 E59.30224
G1 X14.37 Y33.485 E59.32667
G1 X14.108 Y33.475 E59.33975
G1 X12.862 Y33.371 E59.40213
G1 X12.38 Y33.29 E59.42652
G1 X12.037 Y33.182 E59.44446
G1 X10.575 Y32.621 E59.52258
G1 X10.149 Y32.418 E59.54613
G1 X-33.146 Y7.408 E62.04061
G1 X-33.353 Y7.276 E62.05286
G1 X-34.124 Y6.742 E62.09965
G1 X-34.647 Y6.282 E62.1344
G1 X-35.487 Y5.348 E62.19707
G1 X-35.783 Y4.959 E62.22146
G1 X-35.913 Y4.735 E62.23438
G1 X-36.495 Y3.625 E62.29691
G1 X-36.686 Y3.174 E62.32134
G1 X-36.76 Y2.913 E62.33488
G1 X-37.044 Y1.695 E62.39728
G1 X-37.116 Y1.211 E62.42169
G1 X-37.121 Y.952 E62.43461
G1 X-37.095 Y-.297 E62.49694
G1 X-37.045 Y-.784 E62.52136
G1 X-36.986 Y-1.04 E62.53447
G1 X-36.648 Y-2.253 E62.59729
G1 X-36.478 Y-2.713 E62.62176
G1 X-36.358 Y-2.945 E62.63479
G1 X-21.083 Y-29.481 E64.16235
G1 X-20.875 Y-29.795 E64.18114
G1 X-20.118 Y-30.795 E64.24371
G1 X-19.792 Y-31.16 E64.26813
G1 X-19.592 Y-31.333 E64.28132
G1 X-18.609 Y-32.114 E64.34396
G1 X-18.202 Y-32.386 E64.36838
G1 X-17.963 Y-32.506 E64.38172
G1 X-16.815 Y-33.017 E64.44441
G1 X-16.353 Y-33.179 E64.46884
G1 X-16.095 Y-33.234 E64.482
G1 X-14.858 Y-33.443 E64.54459
G1 X-14.37 Y-33.485 E64.56902
G1 X-14.108 Y-33.475 E64.5821
G1 X-12.862 Y-33.371 E64.64448
G1 X-12.38 Y-33.29 E64.66887
G1 X-12.017 Y-33.174 E64.68788
G1 X-10.56 Y-32.603 E64.76595
G1 X-10.155 Y-32.408 E64.78838
G0 F7800 X-10.355 Y-32.062
G1 F1800 X33.216 Y-6.907 E67.29841
G1 X33.614 Y-6.624 E67.32277
G1 X34.563 Y-5.806 E67.38528
G1 X34.999 Y-5.323 E67.41774
G1 X35.714 Y-4.296 E67.48017
G1 X36.017 Y-3.715 E67.51287
G1 X36.456 Y-2.533 E67.57577
G1 X36.605 Y-1.898 E67.60831
G1 X36.735 Y-.654 E67.67071
G1 X36.721 Y-.003 E67.7032
G1 X36.538 Y1.233 E67.76554
G1 X36.363 Y1.86 E67.79801
G1 X35.876 Y3.018 E67.86069
G1 X35.729 Y3.313 E67.87713
G1 X20.379 Y29.821 E69.40535
G1 X20.096 Y30.219 E69.42971
G1 X19.693 Y30.685 E69.46045
G1 X19.343 Y31.02 E69.48462
G1 X18.36 Y31.801 E69.54726
G1 X17.8 Y32.14 E69.57992
G1 X16.652 Y32.651 E69.64261
G1 X16.028 Y32.84 E69.67514
G1 X14.791 Y33.049 E69.73772
G1 X14.142 Y33.076 E69.77013
G1 X12.896 Y32.972 E69.83251
G1 X12.447 Y32.894 E69.85525
G1 X12.181 Y32.808 E69.86919
G1 X10.719 Y32.247 E69.94732
G1 X10.349 Y32.071 E69.96776
G1 X-32.946 Y7.061 E72.46225
G1 X-33.125 Y6.947 E72.47284
G1 X-33.896 Y6.413 E72.51963
G1 X-34.349 Y6.015 E72.54971
G1 X-35.189 Y5.081 E72.61238
G1 X-35.559 Y4.549 E72.64471
G1 X-36.141 Y3.439 E72.70724
G1 X-36.37 Y2.822 E72.74007
G1 X-36.654 Y1.604 E72.80247
G1 X-36.721 Y.96 E72.83477
G1 X-36.695 Y-.289 E72.8971
G1 X-36.601 Y-.933 E72.92957
G1 X-36.263 Y-2.146 E72.99239
G1 X-36.011 Y-2.745 E73.02481
G1 X-20.736 Y-29.281 E74.55237
G1 X-20.556 Y-29.553 E74.56864
G1 X-19.799 Y-30.553 E74.63121
G1 X-19.343 Y-31.02 E74.66378
G1 X-18.36 Y-31.801 E74.72641
G1 X-17.8 Y-32.14 E74.75907
G1 X-16.652 Y-32.651 E74.82177
G1 X-16.028 Y-32.84 E74.85429
G1 X-14.791 Y-33.049 E74.91688
G1 X-14.142 Y-33.076 E74.94929
G1 X-12.896 Y-32.972 E75.01167
G1 X-12.447 Y-32.894 E75.0344
G1 X-12.163 Y-32.802 E75.0493
G1 X-10.706 Y-32.231 E75.12737
G1 X-10.355 Y-32.062 E75.14681
G0 F7800 X-10.555 Y-31.715
G1 F1800 X33.016 Y-6.56 E77.65684
G1 X33.352 Y-6.321 E77.67741
G1 X34.301 Y-5.503 E77.73992
G1 X34.671 Y-5.094 E77.76743
G1 X35.386 Y-4.067 E77.82986
G1 X35.642 Y-3.576 E77.85749
G1 X36.081 Y-2.394 E77.92039
G1 X36.207 Y-1.857 E77.94791
G1 X36.337 Y-.613 E78.01031
G1 X36.325 Y-.062 E78.03781
G1 X36.142 Y1.174 E78.10015
G1 X35.994 Y1.705 E78.12765
