;FLAVOR:RepRap
;TIME:2412
;Generated with Cura_SteamEngine 2.3.0
M104 S200
M109 S200
G21 ;metric values
G90 ;absolute positioning
M82 ;set extruder to absolute mode
M107 ;start with the fan off
G28 ;Home all axes (max endstops)
G1 Z15.0 F9000 ;move the platform down 15mm
G92 E0 ;zero the extruded length
G1 F200 E3 ;extrude 3mm of feed stock
G92 E0 ;zero the extruded length again
G1 F9000
;Put printing message on LCD screen
M117 Printing...
;LAYER_COUNT:60
;LAYER:0
M107
G1 F1500 E-6.5
G0 F7800 X-22.522 Y10.057 Z.3
;TYPE:SKIRT
G1 F1500 E0
G1 F1800 X-23.048 Y9.707 E0.03152
G1 X-23.501 Y9.316 E0.06138
G1 X-24.19 Y8.647 E0.10929
G1 X-24.615 Y8.179 E0.14083
G1 X-24.911 Y7.767 E0.16614
G1 X-25.468 Y6.902 E0.21746
G1 X-25.776 Y6.35 E0.249
G1 X-25.912 Y6.039 E0.26594
G1 X-26.325 Y4.998 E0.32181
G1 X-26.563 Y4.214 E0.36269
G1 X-26.823 Y3.016 E0.42385
G1 X-26.921 Y2.352 E0.45733
G1 X-27.027 Y1.019 E0.52405
G1 X-27.04 Y.453 E0.55229
G1 X-26.99 Y-1.015 E0.62557
G1 X-26.95 Y-1.502 E0.64995
G1 X-26.744 Y-3.055 E0.72811
G1 X-26.67 Y-3.473 E0.74929
G1 X-26.313 Y-5.095 E0.83215
G1 X-26.217 Y-5.463 E0.85112
G1 X-25.708 Y-7.152 E0.93913
G1 X-25.597 Y-7.48 E0.9564
G1 X-24.958 Y-9.167 E1.0464
G1 X-24.83 Y-9.472 E1.06291
G1 X-24.053 Y-11.174 E1.15625
G1 X-23.91 Y-11.464 E1.17238
G1 X-23.021 Y-13.119 E1.26611
G1 X-22.868 Y-13.383 E1.28133
G1 X-21.885 Y-14.972 E1.37455
G1 X-21.705 Y-15.244 E1.39082
G1 X-20.619 Y-16.768 E1.48418
G1 X-20.418 Y-17.03 E1.50066
G1 X-19.277 Y-18.426 E1.59061
G1 X-19.048 Y-18.688 E1.60797
G1 X-17.843 Y-19.969 E1.69571
G1 X-17.575 Y-20.233 E1.71448
G1 X-16.346 Y-21.357 E1.79757
G1 X-16.019 Y-21.632 E1.81889
G1 X-14.771 Y-22.591 E1.89741
G1 X-14.372 Y-22.867 E1.92161
G1 X-13.134 Y-23.64 E1.99443
G1 X-12.634 Y-23.914 E2.02287
G1 X-11.419 Y-24.492 E2.09
G1 X-10.791 Y-24.74 E2.12369
G1 X-9.622 Y-25.113 E2.1849
G1 X-8.832 Y-25.296 E2.22536
G1 X-7.728 Y-25.459 E2.28104
G1 X-7.098 Y-25.512 E2.31258
G1 X-6.751 Y-25.507 E2.32989
G1 X-5.721 Y-25.456 E2.38134
G1 X-5.093 Y-25.385 E2.41287
G1 X-4.61 Y-25.274 E2.4376
G1 X-3.689 Y-25.014 E2.48534
G1 X-3.092 Y-24.804 E2.51692
G1 X-2.55 Y-24.534 E2.54713
G1 X28.616 Y-6.572 E4.34175
G1 X29.142 Y-6.222 E4.37327
G1 X29.621 Y-5.809 E4.40483
G1 X30.043 Y-5.339 E4.43634
G1 X30.403 Y-4.819 E4.46789
G1 X30.694 Y-4.258 E4.49942
G1 X30.912 Y-3.664 E4.53099
G1 X31.053 Y-3.048 E4.56252
G1 X31.116 Y-2.419 E4.59406
G1 X31.098 Y-1.787 E4.6256
G1 X31.002 Y-1.163 E4.6571
G1 X30.827 Y-.555 E4.68866
G1 X30.449 Y.26 E4.73348
G1 X15.449 Y26.24 E6.23016
G1 X15.099 Y26.766 E6.26168
G1 X14.685 Y27.244 E6.29323
G1 X14.215 Y27.666 E6.32474
G1 X13.695 Y28.026 E6.35629
G1 X13.133 Y28.316 E6.38784
G1 X12.54 Y28.534 E6.41937
G1 X11.923 Y28.675 E6.45094
G1 X11.294 Y28.737 E6.48247
G1 X10.663 Y28.719 E6.51397
G1 X10.038 Y28.622 E6.54552
G1 X9.431 Y28.446 E6.57705
G1 X8.615 Y28.068 E6.62192
G1 X-22.522 Y10.057 E8.41652
G0 F7800 X-22.321 Y9.711
G1 F1800 X-22.825 Y9.373 E8.44679
G1 X-23.222 Y9.029 E8.473
G1 X-23.911 Y8.36 E8.52091
G1 X-24.318 Y7.91 E8.55118
G1 X-24.575 Y7.55 E8.57325
G1 X-25.132 Y6.685 E8.62458
G1 X-25.54 Y5.891 E8.66912
G1 X-25.953 Y4.85 E8.72499
G1 X-26.172 Y4.13 E8.76254
G1 X-26.432 Y2.932 E8.8237
G1 X-26.523 Y2.321 E8.85451
G1 X-26.629 Y.988 E8.92123
G1 X-26.64 Y.466 E8.94728
G1 X-26.59 Y-1.002 E9.02056
G1 X-26.553 Y-1.45 E9.04298
G1 X-26.347 Y-3.003 E9.12114
G1 X-26.279 Y-3.387 E9.1406
G1 X-25.922 Y-5.009 E9.22346
G1 X-25.834 Y-5.347 E9.24088
G1 X-25.325 Y-7.036 E9.32889
G1 X-25.223 Y-7.338 E9.34479
G1 X-24.584 Y-9.025 E9.43479
G1 X-24.467 Y-9.306 E9.44998
G1 X-23.69 Y-11.008 E9.54332
G1 X-23.557 Y-11.275 E9.5582
G1 X-22.668 Y-12.93 E9.65193
G1 X-22.528 Y-13.173 E9.66592
G1 X-21.545 Y-14.762 E9.75914
G1 X-21.379 Y-15.012 E9.77411
G1 X-20.293 Y-16.536 E9.86747
G1 X-20.109 Y-16.777 E9.8826
G1 X-18.968 Y-18.173 E9.97255
G1 X-18.757 Y-18.414 E9.98853
G1 X-17.552 Y-19.695 E10.07627
G1 X-17.305 Y-19.937 E10.09353
G1 X-16.076 Y-21.061 E10.17662
G1 X-15.775 Y-21.314 E10.19623
G1 X-14.527 Y-22.273 E10.27476
G1 X-14.16 Y-22.528 E10.29705
G1 X-12.922 Y-23.301 E10.36987
G1 X-12.462 Y-23.553 E10.39604
G1 X-11.247 Y-24.131 E10.46316
G1 X-10.669 Y-24.359 E10.49416
G1 X-9.5 Y-24.732 E10.55538
G1 X-8.774 Y-24.901 E10.59257
G1 X-7.67 Y-25.064 E10.64824
G1 X-6.771 Y-25.107 E10.69315
G1 X-5.741 Y-25.056 E10.7446
G1 X-5.138 Y-24.987 E10.77488
G1 X-4.718 Y-24.889 E10.79639
G1 X-3.797 Y-24.629 E10.84414
G1 X-3.226 Y-24.426 E10.87437
G1 X-2.75 Y-24.187 E10.90094
G1 X28.416 Y-6.225 E12.69557
G1 X28.92 Y-5.889 E12.72579
G1 X29.376 Y-5.489 E12.75606
G1 X29.775 Y-5.032 E12.78632
G1 X30.11 Y-4.527 E12.81656
G1 X30.376 Y-3.982 E12.84681
G1 X30.568 Y-3.407 E12.87706
G1 X30.683 Y-2.812 E12.90729
G1 X30.719 Y-2.207 E12.93753
G1 X30.675 Y-1.602 E12.96779
G1 X30.551 Y-1.008 E12.99806
G1 X30.351 Y-.436 E13.0283
G1 X30.103 Y.06 E13.05596
G1 X15.103 Y26.04 E14.55263
G1 X14.766 Y26.544 E14.58288
G1 X14.365 Y26.999 E14.61314
G1 X13.908 Y27.398 E14.64341
G1 X13.403 Y27.733 E14.67364
G1 X12.858 Y27.999 E14.7039
G1 X12.283 Y28.19 E14.73413
G1 X11.687 Y28.305 E14.76441
G1 X11.082 Y28.34 E14.79464
G1 X10.477 Y28.295 E14.82491
G1 X9.884 Y28.171 E14.85513
G1 X9.312 Y27.97 E14.88538
G1 X8.816 Y27.722 E14.91305
G1 X-22.321 Y9.711 E16.70765
G0 F7800 X-22.121 Y9.365
G1 F1800 X-22.601 Y9.041 E16.73654
G1 X-22.944 Y8.742 E16.75924
G1 X-23.633 Y8.073 E16.80715
G1 X-24.02 Y7.642 E16.83605
G1 X-24.238 Y7.334 E16.85488
G1 X-24.795 Y6.469 E16.9062
G1 X-25.168 Y5.744 E16.94688
G1 X-25.581 Y4.703 E17.00276
G1 X-25.781 Y4.045 E17.03707
G1 X-26.041 Y2.847 E17.09823
G1 X-26.124 Y2.289 E17.12637
G1 X-26.23 Y.956 E17.19308
G1 X-26.241 Y.48 E17.21684
G1 X-26.191 Y-.988 E17.29012
G1 X-26.157 Y-1.397 E17.3106
G1 X-25.951 Y-2.95 E17.38875
G1 X-25.889 Y-3.301 E17.40654
G1 X-25.532 Y-4.923 E17.48939
G1 X-25.451 Y-5.232 E17.50533
G1 X-24.942 Y-6.921 E17.59334
G1 X-24.849 Y-7.197 E17.60787
G1 X-24.21 Y-8.884 E17.69787
G1 X-24.103 Y-9.14 E17.71171
G1 X-23.326 Y-10.842 E17.80506
G1 X-23.205 Y-11.085 E17.8186
G1 X-22.316 Y-12.74 E17.91233
G1 X-22.188 Y-12.963 E17.92515
G1 X-21.205 Y-14.552 E18.01837
G1 X-21.053 Y-14.779 E18.032
G1 X-19.967 Y-16.303 E18.12536
G1 X-19.799 Y-16.524 E18.13921
G1 X-18.658 Y-17.92 E18.22916
G1 X-18.465 Y-18.14 E18.24377
G1 X-17.26 Y-19.421 E18.33151
G1 X-17.036 Y-19.642 E18.34721
G1 X-15.807 Y-20.766 E18.4303
G1 X-15.531 Y-20.997 E18.44825
G1 X-14.283 Y-21.956 E18.52678
G1 X-13.948 Y-22.189 E18.54713
G1 X-12.71 Y-22.962 E18.61995
G1 X-12.29 Y-23.192 E18.64384
G1 X-11.075 Y-23.77 E18.71096
G1 X-10.548 Y-23.978 E18.73923
G1 X-9.379 Y-24.351 E18.80045
G1 X-8.715 Y-24.505 E18.83446
G1 X-7.611 Y-24.668 E18.89013
G1 X-6.79 Y-24.708 E18.93114
G1 X-5.76 Y-24.657 E18.98259
G1 X-5.185 Y-24.588 E19.01148
G1 X-4.827 Y-24.504 E19.02983
G1 X-3.906 Y-24.244 E19.07757
G1 X-3.361 Y-24.049 E19.10645
G1 X-2.95 Y-23.841 E19.12943
G1 X28.216 Y-5.879 E20.92406
G1 X28.697 Y-5.556 E20.95297
G1 X29.129 Y-5.169 E20.9819
G1 X29.503 Y-4.727 E21.01079
G1 X29.813 Y-4.238 E21.03967
G1 X30.053 Y-3.711 E21.06856
G1 X30.218 Y-3.155 E21.0975
G1 X30.305 Y-2.583 E21.12636
G1 X30.312 Y-2.003 E21.1553
G1 X30.24 Y-1.429 E21.18416
G1 X30.089 Y-.869 E21.2131
G1 X29.756 Y-.14 E21.25309
G1 X14.756 Y25.84 E22.74976
G1 X14.433 Y26.321 E22.77866
G1 X14.046 Y26.752 E22.80756
G1 X13.604 Y27.126 E22.83645
G1 X13.114 Y27.436 E22.86538
G1 X12.587 Y27.675 E22.89425
G1 X12.031 Y27.84 E22.92318
G1 X11.458 Y27.926 E22.95209
G1 X10.879 Y27.933 E22.98098
G1 X10.304 Y27.86 E23.00989
G1 X9.745 Y27.709 E23.03878
G1 X9.016 Y27.376 E23.07877
G1 X-22.121 Y9.365 E24.87337
G0 F7800 X-21.921 Y9.018
G1 F1800 X-22.376 Y8.709 E24.90081
G1 X-22.665 Y8.455 E24.92
G1 X-23.354 Y7.786 E24.96791
G1 X-23.721 Y7.375 E24.9954
G1 X-23.902 Y7.117 E25.01113
G1 X-24.459 Y6.252 E25.06245
G1 X-24.796 Y5.596 E25.09925
G1 X-25.209 Y4.555 E25.15512
G1 X-25.391 Y3.96 E25.18616
G1 X-25.651 Y2.762 E25.24732
G1 X-25.725 Y2.257 E25.27279
G1 X-25.831 Y.924 E25.3395
G1 X-25.841 Y.494 E25.36096
G1 X-25.791 Y-.974 E25.43424
G1 X-25.76 Y-1.345 E25.45282
G1 X-25.554 Y-2.898 E25.53097
G1 X-25.498 Y-3.215 E25.54703
G1 X-25.141 Y-4.837 E25.62989
G1 X-25.068 Y-5.116 E25.64428
G1 X-24.559 Y-6.805 E25.73229
G1 X-24.475 Y-7.055 E25.74545
G1 X-23.836 Y-8.742 E25.83545
G1 X-23.739 Y-8.974 E25.84799
G1 X-22.962 Y-10.676 E25.94133
G1 X-22.853 Y-10.896 E25.95358
G1 X-21.964 Y-12.551 E26.04731
G1 X-21.848 Y-12.752 E26.05889
G1 X-20.865 Y-14.341 E26.15211
G1 X-20.728 Y-14.547 E26.16445
G1 X-19.642 Y-16.071 E26.25781
G1 X-19.489 Y-16.271 E26.27037
G1 X-18.348 Y-17.667 E26.36033
G1 X-18.174 Y-17.866 E26.37351
G1 X-16.969 Y-19.147 E26.46125
G1 X-16.766 Y-19.347 E26.47547
G1 X-15.537 Y-20.471 E26.55856
G1 X-15.287 Y-20.68 E26.57482
G1 X-14.039 Y-21.639 E26.65334
G1 X-13.737 Y-21.849 E26.67169
G1 X-12.499 Y-22.622 E26.74451
G1 X-12.118 Y-22.83 E26.76617
G1 X-10.903 Y-23.408 E26.83329
G1 X-10.426 Y-23.597 E26.85889
G1 X-9.257 Y-23.97 E26.92011
G1 X-8.657 Y-24.109 E26.95083
G1 X-7.553 Y-24.272 E27.00651
G1 X-6.81 Y-24.308 E27.04362
G1 X-5.78 Y-24.257 E27.09507
G1 X-5.233 Y-24.19 E27.12257
G1 X-4.936 Y-24.119 E27.1378
G1 X-4.015 Y-23.859 E27.18555
G1 X-3.497 Y-23.671 E27.21304
G1 X-3.15 Y-23.494 E27.23247
G1 X28.016 Y-5.532 E29.0271
G1 X28.473 Y-5.223 E29.05462
G1 X28.879 Y-4.852 E29.08206
G1 X29.228 Y-4.425 E29.10958
G1 X29.511 Y-3.952 E29.13707
G1 X29.723 Y-3.444 E29.16454
G1 X29.859 Y-2.91 E29.19203
G1 X29.917 Y-2.362 E29.21952
G1 X29.895 Y-1.811 E29.24703
G1 X29.793 Y-1.27 E29.2745
G1 X29.614 Y-.749 E29.30198
G1 X29.41 Y-.34 E29.32479
G1 X14.41 Y25.64 E30.82146
G1 X14.1 Y26.096 E30.84897
G1 X13.728 Y26.502 E30.87644
G1 X13.302 Y26.851 E30.90392
G1 X12.829 Y27.134 E30.93141
G1 X12.32 Y27.345 E30.9589
G1 X11.786 Y27.481 E30.9864
G1 X11.238 Y27.538 E31.01388
G1 X10.687 Y27.515 E31.0414
G1 X10.146 Y27.413 E31.06886
G1 X9.625 Y27.234 E31.09635
G1 X9.216 Y27.029 E31.11917
G1 X-21.921 Y9.018 E32.91377
G0 F7800 X-21.72 Y8.672
G1 F1800 X-22.15 Y8.377 E32.93979
G1 X-22.386 Y8.168 E32.95551
G1 X-23.075 Y7.499 E33.00343
G1 X-23.566 Y6.901 E33.04203
G1 X-24.123 Y6.036 E33.09336
G1 X-24.424 Y5.449 E33.12627
G1 X-24.837 Y4.408 E33.18214
G1 X-25 Y3.875 E33.20995
G1 X-25.26 Y2.677 E33.27111
G1 X-25.326 Y2.226 E33.29385
G1 X-25.432 Y.893 E33.36056
G1 X-25.441 Y.507 E33.37982
G1 X-25.391 Y-.961 E33.45311
G1 X-25.363 Y-1.292 E33.46968
G1 X-25.157 Y-2.845 E33.54784
G1 X-25.108 Y-3.129 E33.56221
G1 X-24.751 Y-4.751 E33.64507
G1 X-24.685 Y-5.001 E33.65797
G1 X-24.176 Y-6.69 E33.74598
G1 X-24.101 Y-6.913 E33.75772
G1 X-23.462 Y-8.6 E33.84772
G1 X-23.375 Y-8.808 E33.85897
G1 X-22.598 Y-10.51 E33.95231
G1 X-22.5 Y-10.707 E33.96329
G1 X-21.611 Y-12.362 E34.05701
G1 X-21.507 Y-12.542 E34.06739
G1 X-20.524 Y-14.131 E34.1606
G1 X-20.402 Y-14.315 E34.17162
G1 X-19.316 Y-15.839 E34.26498
G1 X-19.18 Y-16.018 E34.2762
G1 X-18.039 Y-17.414 E34.36615
G1 X-17.883 Y-17.592 E34.37796
G1 X-16.678 Y-18.873 E34.4657
G1 X-16.496 Y-19.052 E34.47843
G1 X-15.267 Y-20.176 E34.56152
G1 X-15.044 Y-20.363 E34.57604
G1 X-13.796 Y-21.322 E34.65457
G1 X-13.525 Y-21.51 E34.67102
G1 X-12.287 Y-22.283 E34.74384
G1 X-11.947 Y-22.469 E34.76317
G1 X-10.732 Y-23.047 E34.8303
G1 X-10.305 Y-23.216 E34.85321
G1 X-9.136 Y-23.589 E34.91443
G1 X-8.599 Y-23.714 E34.94193
G1 X-7.495 Y-23.877 E34.99761
G1 X-6.83 Y-23.909 E35.03083
G1 X-5.8 Y-23.858 E35.08227
G1 X-5.044 Y-23.734 E35.1205
G1 X-4.123 Y-23.474 E35.16824
G1 X-3.634 Y-23.295 E35.19422
G1 X-3.349 Y-23.148 E35.21022
G1 X27.817 Y-5.186 E37.00485
G1 X28.247 Y-4.892 E37.03083
G1 X28.627 Y-4.535 E37.05685
G1 X28.949 Y-4.125 E37.08286
G1 X29.203 Y-3.67 E37.10885
G1 X29.386 Y-3.182 E37.13486
G1 X29.491 Y-2.672 E37.16083
G1 X29.518 Y-2.151 E37.18686
G1 X29.464 Y-1.633 E37.21284
G1 X29.332 Y-1.129 E37.23884
G1 X29.063 Y-.54 E37.27114
G1 X14.063 Y25.44 E38.76782
G1 X13.769 Y25.87 E38.7938
G1 X13.412 Y26.25 E38.81982
G1 X13.002 Y26.571 E38.84579
G1 X12.547 Y26.826 E38.87182
G1 X12.059 Y27.008 E38.8978
G1 X11.548 Y27.113 E38.92383
G1 X11.028 Y27.139 E38.9498
G1 X10.509 Y27.085 E38.97583
G1 X10.005 Y26.952 E39.00184
G1 X9.417 Y26.683 E39.0341
G1 X-21.72 Y8.672 E40.8287
G0 F7800 X-21.52 Y8.326
G1 F1800 X-21.922 Y8.047 E40.85311
G1 X-22.108 Y7.881 E40.86555
G1 X-22.797 Y7.212 E40.91346
G1 X-23.229 Y6.684 E40.9475
G1 X-23.786 Y5.819 E40.99882
G1 X-24.053 Y5.301 E41.0279
G1 X-24.466 Y4.26 E41.08377
G1 X-24.609 Y3.79 E41.10828
G1 X-24.869 Y2.592 E41.16944
G1 X-24.928 Y2.194 E41.18951
G1 X-25.034 Y.861 E41.25623
G1 X-25.041 Y.521 E41.27319
G1 X-24.991 Y-.947 E41.34648
G1 X-24.967 Y-1.239 E41.36109
G1 X-24.761 Y-2.792 E41.43925
G1 X-24.717 Y-3.043 E41.45196
G1 X-24.36 Y-4.665 E41.53482
G1 X-24.302 Y-4.886 E41.54622
G1 X-23.793 Y-6.575 E41.63423
G1 X-23.726 Y-6.772 E41.64461
G1 X-23.087 Y-8.459 E41.73461
G1 X-23.011 Y-8.642 E41.7445
G1 X-22.234 Y-10.344 E41.83784
G1 X-22.148 Y-10.518 E41.84752
G1 X-21.259 Y-12.173 E41.94125
G1 X-21.167 Y-12.331 E41.95037
G1 X-20.184 Y-13.92 E42.04359
G1 X-20.076 Y-14.083 E42.05335
G1 X-18.99 Y-15.607 E42.14671
G1 X-18.87 Y-15.765 E42.15661
G1 X-17.729 Y-17.161 E42.24656
G1 X-17.591 Y-17.318 E42.25699
G1 X-16.386 Y-18.599 E42.34473
G1 X-16.226 Y-18.757 E42.35595
G1 X-14.997 Y-19.881 E42.43904
G1 X-14.8 Y-20.046 E42.45186
G1 X-13.552 Y-21.005 E42.53038
G1 X-13.313 Y-21.171 E42.5449
G1 X-12.075 Y-21.944 E42.61771
G1 X-11.775 Y-22.108 E42.63477
G1 X-10.56 Y-22.686 E42.7019
G1 X-10.183 Y-22.835 E42.72212
G1 X-9.014 Y-23.208 E42.78334
G1 X-8.54 Y-23.318 E42.80762
G1 X-7.436 Y-23.481 E42.86329
G1 X-6.85 Y-23.509 E42.89256
G1 X-5.82 Y-23.458 E42.94401
G1 X-5.153 Y-23.349 E42.97773
G1 X-4.232 Y-23.089 E43.02547
G1 X-3.773 Y-22.918 E43.04991
G1 X-3.549 Y-22.801 E43.06252
G1 X27.617 Y-4.839 E44.85715
G1 X28.02 Y-4.561 E44.88157
G1 X28.372 Y-4.221 E44.90599
G1 X28.664 Y-3.828 E44.93041
G1 X28.888 Y-3.393 E44.95482
G1 X29.039 Y-2.928 E44.97922
G1 X29.112 Y-2.444 E45.00364
G1 X29.105 Y-1.954 E45.02808
G1 X29.019 Y-1.472 E45.05251
G1 X28.856 Y-1.011 E45.07691
G1 X28.717 Y-.74 E45.0921
G1 X13.717 Y25.24 E46.58877
G1 X13.439 Y25.643 E46.6132
G1 X13.098 Y25.994 E46.63761
G1 X12.705 Y26.286 E46.66204
G1 X12.27 Y26.51 E46.68645
G1 X11.804 Y26.661 E46.71089
G1 X11.32 Y26.733 E46.7353
G1 X10.831 Y26.726 E46.7597
G1 X10.349 Y26.639 E46.78414
G1 X9.888 Y26.476 E46.80853
G1 X9.617 Y26.337 E46.82373
G1 X-21.52 Y8.326 E48.61833
G0 F7800 X-21.32 Y7.98
G1 F1800 X-21.829 Y7.594 E48.6502
G1 X-22.518 Y6.925 E48.69811
G1 X-22.893 Y6.468 E48.7276
G1 X-23.45 Y5.603 E48.77893
G1 X-23.681 Y5.154 E48.80412
G1 X-24.094 Y4.113 E48.85999
G1 X-24.218 Y3.705 E48.88127
G1 X-24.478 Y2.507 E48.94243
G1 X-24.529 Y2.162 E48.95983
G1 X-24.635 Y.829 E49.02654
G1 X-24.641 Y.534 E49.04126
G1 X-24.591 Y-.934 E49.11454
G1 X-24.57 Y-1.187 E49.12721
G1 X-24.364 Y-2.74 E49.20537
G1 X-24.326 Y-2.957 E49.21636
G1 X-23.969 Y-4.579 E49.29922
G1 X-23.919 Y-4.77 E49.30907
G1 X-23.41 Y-6.459 E49.39707
G1 X-23.352 Y-6.63 E49.40608
G1 X-22.713 Y-8.317 E49.49608
G1 X-22.647 Y-8.476 E49.50467
G1 X-21.87 Y-10.178 E49.59802
G1 X-21.795 Y-10.328 E49.60638
G1 X-20.906 Y-11.983 E49.70011
G1 X-20.827 Y-12.121 E49.70804
G1 X-19.844 Y-13.71 E49.80126
G1 X-19.75 Y-13.851 E49.80972
G1 X-18.664 Y-15.375 E49.90308
G1 X-18.56 Y-15.511 E49.91162
G1 X-17.419 Y-16.907 E50.00157
G1 X-17.3 Y-17.043 E50.01059
G1 X-16.095 Y-18.324 E50.09833
G1 X-15.956 Y-18.462 E50.1081
G1 X-14.727 Y-19.586 E50.19119
G1 X-14.556 Y-19.729 E50.20231
G1 X-13.308 Y-20.688 E50.28083
G1 X-13.101 Y-20.831 E50.29339
G1 X-11.863 Y-21.604 E50.3662
G1 X-11.603 Y-21.747 E50.381
G1 X-10.388 Y-22.325 E50.44813
G1 X-10.061 Y-22.454 E50.46567
G1 X-8.892 Y-22.827 E50.52689
G1 X-8.482 Y-22.922 E50.54788
G1 X-7.378 Y-23.085 E50.60356
G1 X-6.869 Y-23.11 E50.62898
G1 X-5.839 Y-23.059 E50.68043
G1 X-5.262 Y-22.964 E50.70961
G1 X-4.341 Y-22.704 E50.75735
G1 X-3.749 Y-22.455 E50.78939
G1 X27.417 Y-4.493 E52.58402
G1 X27.791 Y-4.231 E52.6068
G1 X28.113 Y-3.909 E52.62952
G1 X28.373 Y-3.535 E52.65225
G1 X28.565 Y-3.122 E52.67497
G1 X28.681 Y-2.681 E52.69772
G1 X28.719 Y-2.227 E52.72045
G1 X28.677 Y-1.774 E52.74315
G1 X28.556 Y-1.334 E52.76591
