;FLAVOR:RepRap
;TIME:12084
;Generated with Cura_SteamEngine 2.3.0
M104 S200
M109 S200
G21 ;metric values
G90 ;absolute positioning
M82 ;set extruder to absolute mode
M107 ;start with the fan off
G28 ;Home all axes (max endstops)
G1 Z15.0 F9000 ;move the platform down 15mm
G92 E0 ;zero the extruded length
G1 F200 E3 ;extrude 3mm of feed stock
G92 E0 ;zero the extruded length again
G1 F9000
;Put printing message on LCD screen
M117 Printing...
;LAYER_COUNT:175
;LAYER:0
M107
G1 F1500 E-6.5
G0 F7800 X38.606 Y-29.053 Z.3
;TYPE:SKIRT
G1 F1500 E0
G1 F1800 X38.735 Y-29.298 E0.01381
G1 X39.111 Y-29.929 E0.05046
G1 X39.395 Y-30.327 E0.07485
G1 X39.74 Y-30.674 E0.09927
G1 X40.137 Y-30.961 E0.12371
G1 X40.575 Y-31.179 E0.14811
G1 X41.043 Y-31.323 E0.17254
G1 X41.528 Y-31.389 E0.19696
G1 X42.017 Y-31.375 E0.22137
G1 X42.498 Y-31.282 E0.24581
G1 X42.957 Y-31.111 E0.27025
G1 X43.191 Y-30.989 E0.28341
G1 X45.513 Y-29.645 E0.41726
G1 X45.915 Y-29.366 E0.44168
G1 X46.267 Y-29.026 E0.46609
G1 X46.558 Y-28.633 E0.49049
G1 X46.782 Y-28.197 E0.51495
G1 X46.931 Y-27.731 E0.53935
G1 X47.003 Y-27.247 E0.56377
G1 X46.996 Y-26.758 E0.58816
G1 X46.909 Y-26.276 E0.6126
G1 X46.744 Y-25.815 E0.63703
G1 X46.598 Y-25.532 E0.65292
G1 X46.213 Y-24.875 E0.69091
G1 X46.054 Y-24.649 E0.70469
G1 X47.301 Y-23.93 E0.77651
G1 X47.704 Y-23.651 E0.80096
G1 X48.056 Y-23.311 E0.82538
G1 X48.348 Y-22.918 E0.8498
G1 X48.572 Y-22.483 E0.87421
G1 X48.722 Y-22.018 E0.89859
G1 X48.795 Y-21.534 E0.92301
G1 X48.788 Y-21.044 E0.94746
G1 X48.702 Y-20.562 E0.97188
G1 X48.538 Y-20.101 E0.9963
G1 X48.4 Y-19.831 E1.01142
G1 X7.026 Y51.83 E5.1397
G1 X6.748 Y52.233 E5.16413
G1 X6.407 Y52.584 E5.18854
G1 X6.014 Y52.876 E5.21297
G1 X5.579 Y53.1 E5.23738
G1 X5.113 Y53.251 E5.26182
G1 X4.629 Y53.323 E5.28623
G1 X4.14 Y53.316 E5.31063
G1 X3.658 Y53.23 E5.33506
G1 X3.197 Y53.066 E5.35947
G1 X2.928 Y52.928 E5.37455
G1 X1.712 Y52.226 E5.4446
G1 X1.545 Y52.549 E5.46274
G1 X1.146 Y53.205 E5.50105
G1 X.858 Y53.601 E5.52548
G1 X.51 Y53.945 E5.54989
G1 X.111 Y54.228 E5.57429
G1 X-.329 Y54.442 E5.5987
G1 X-.799 Y54.582 E5.62317
G1 X-1.284 Y54.643 E5.64756
G1 X-1.773 Y54.625 E5.67197
G1 X-2.253 Y54.527 E5.69641
G1 X-2.916 Y54.245 E5.73236
G1 X-5.251 Y52.898 E5.86685
G1 X-5.654 Y52.619 E5.8913
G1 X-6.006 Y52.279 E5.91571
G1 X-6.298 Y51.886 E5.94014
G1 X-6.522 Y51.451 E5.96455
G1 X-6.672 Y50.985 E5.98898
G1 X-6.745 Y50.501 E6.0134
G1 X-6.738 Y50.012 E6.03779
G1 X-6.652 Y49.53 E6.06222
G1 X-6.488 Y49.069 E6.08663
G1 X-6.357 Y48.811 E6.10107
G1 X-5.992 Y48.172 E6.13778
G1 X-5.868 Y47.991 E6.14873
G1 X-38.618 Y29.046 E8.03632
G1 X-38.723 Y29.249 E8.04772
G1 X-39.087 Y29.883 E8.08419
G1 X-39.365 Y30.286 E8.10862
G1 X-39.704 Y30.639 E8.13303
G1 X-40.097 Y30.931 E8.15746
G1 X-40.531 Y31.157 E8.18187
G1 X-40.997 Y31.308 E8.20631
G1 X-41.481 Y31.382 E8.23074
G1 X-41.97 Y31.376 E8.25514
G1 X-42.452 Y31.29 E8.27956
G1 X-42.914 Y31.128 E8.30399
G1 X-43.184 Y30.99 E8.31912
G1 X-45.508 Y29.654 E8.45286
G1 X-45.911 Y29.376 E8.47728
G1 X-46.264 Y29.036 E8.50173
G1 X-46.556 Y28.644 E8.52612
G1 X-46.781 Y28.209 E8.55055
G1 X-46.932 Y27.744 E8.57494
G1 X-47.006 Y27.26 E8.59937
G1 X-47 Y26.77 E8.62382
G1 X-46.914 Y26.288 E8.64825
G1 X-46.751 Y25.827 E8.67264
G1 X-46.579 Y25.498 E8.69116
G1 X-46.182 Y24.843 E8.72937
G1 X-46.045 Y24.654 E8.74102
G1 X-47.301 Y23.93 E8.81335
G1 X-47.703 Y23.652 E8.83773
G1 X-48.055 Y23.311 E8.86218
G1 X-48.347 Y22.919 E8.88657
G1 X-48.572 Y22.484 E8.911
G1 X-48.722 Y22.018 E8.93543
G1 X-48.795 Y21.534 E8.95985
G1 X-48.788 Y21.044 E8.98429
G1 X-48.702 Y20.563 E9.00867
G1 X-48.538 Y20.101 E9.03313
G1 X-48.4 Y19.831 E9.04826
G1 X-7.026 Y-51.83 E13.17654
G1 X-6.748 Y-52.233 E13.20096
G1 X-6.407 Y-52.584 E13.22538
G1 X-6.014 Y-52.876 E13.2498
G1 X-5.579 Y-53.1 E13.27421
G1 X-5.113 Y-53.251 E13.29865
G1 X-4.629 Y-53.323 E13.32306
G1 X-4.14 Y-53.316 E13.34746
G1 X-3.658 Y-53.23 E13.37189
G1 X-3.197 Y-53.066 E13.3963
G1 X-2.928 Y-52.928 E13.41139
G1 X-1.691 Y-52.214 E13.48264
G1 X-1.57 Y-52.457 E13.49619
G1 X-1.193 Y-53.123 E13.53437
G1 X-.918 Y-53.528 E13.55879
G1 X-.58 Y-53.882 E13.58321
G1 X-.19 Y-54.178 E13.60763
G1 X.243 Y-54.405 E13.63203
G1 X.708 Y-54.56 E13.65648
G1 X1.191 Y-54.636 E13.68087
G1 X1.681 Y-54.633 E13.70532
G1 X2.163 Y-54.551 E13.72971
G1 X2.626 Y-54.391 E13.75415
G1 X2.918 Y-54.243 E13.77048
G1 X5.24 Y-52.902 E13.90426
G1 X5.643 Y-52.623 E13.92871
G1 X5.995 Y-52.283 E13.95313
G1 X6.286 Y-51.89 E13.97753
G1 X6.51 Y-51.455 E14.00194
G1 X6.661 Y-50.989 E14.02638
G1 X6.733 Y-50.505 E14.05079
G1 X6.726 Y-50.015 E14.07524
G1 X6.639 Y-49.534 E14.09962
G1 X6.476 Y-49.072 E14.12407
G1 X6.344 Y-48.814 E14.13852
G1 X5.979 Y-48.176 E14.1752
G1 X5.857 Y-47.998 E14.18596
G1 X38.606 Y-29.053 E16.07351
G0 F7800 X38.82 Y-28.468
G1 F1800 X38.886 Y-28.697 E16.0854
G1 X39.078 Y-29.093 E16.10735
G1 X39.454 Y-29.724 E16.144
G1 X39.721 Y-30.093 E16.16672
G1 X40.048 Y-30.411 E16.18948
G1 X40.426 Y-30.666 E16.21223
G1 X40.842 Y-30.851 E16.23494
G1 X41.284 Y-30.961 E16.25766
G1 X41.738 Y-30.993 E16.28037
G1 X42.191 Y-30.944 E16.3031
G1 X42.629 Y-30.817 E16.32585
G1 X42.99 Y-30.643 E16.34585
G1 X45.312 Y-29.299 E16.4797
G1 X45.685 Y-29.037 E16.50244
G1 X46.007 Y-28.714 E16.52519
G1 X46.267 Y-28.34 E16.54792
G1 X46.457 Y-27.926 E16.57064
G1 X46.573 Y-27.486 E16.59335
G1 X46.61 Y-27.032 E16.61607
G1 X46.567 Y-26.578 E16.63882
G1 X46.445 Y-26.139 E16.66156
G1 X46.253 Y-25.734 E16.68392
G1 X45.868 Y-25.077 E16.72191
G1 X45.604 Y-24.706 E16.74462
G1 X45.438 Y-24.542 E16.75627
G1 X47.101 Y-23.583 E16.85204
G1 X47.474 Y-23.322 E16.87475
G1 X47.796 Y-22.999 E16.89751
G1 X48.057 Y-22.626 E16.92022
G1 X48.248 Y-22.212 E16.94297
G1 X48.364 Y-21.772 E16.96567
G1 X48.402 Y-21.318 E16.9884
G1 X48.36 Y-20.864 E17.01114
G1 X48.239 Y-20.425 E17.03386
G1 X48.054 Y-20.031 E17.05558
G1 X6.68 Y51.63 E21.18386
G1 X6.418 Y52.003 E21.2066
G1 X6.096 Y52.325 E21.22932
G1 X5.722 Y52.585 E21.25204
G1 X5.308 Y52.777 E21.27481
G1 X4.867 Y52.893 E21.29756
G1 X4.413 Y52.93 E21.32028
G1 X3.96 Y52.887 E21.34298
G1 X3.52 Y52.766 E21.36575
G1 X3.128 Y52.582 E21.38736
G1 X1.49 Y51.636 E21.48173
G1 X1.429 Y51.868 E21.49369
G1 X1.203 Y52.341 E21.51985
G1 X.804 Y52.997 E21.55815
G1 X.534 Y53.364 E21.58088
G1 X.205 Y53.678 E21.60357
G1 X-.175 Y53.93 E21.62632
G1 X-.593 Y54.112 E21.64907
G1 X-1.036 Y54.218 E21.67179
G1 X-1.491 Y54.245 E21.69453
G1 X-1.944 Y54.192 E21.71729
G1 X-2.38 Y54.061 E21.74
G1 X-2.716 Y53.898 E21.75863
G1 X-5.051 Y52.551 E21.89312
G1 X-5.424 Y52.29 E21.91583
G1 X-5.746 Y51.967 E21.93858
G1 X-6.007 Y51.593 E21.96134
G1 X-6.198 Y51.18 E21.98404
G1 X-6.314 Y50.739 E22.00679
G1 X-6.352 Y50.285 E22.02952
G1 X-6.31 Y49.832 E22.05222
G1 X-6.189 Y49.392 E22.07498
G1 X-6.01 Y49.009 E22.09607
G1 X-5.645 Y48.37 E22.13279
G1 X-5.385 Y47.996 E22.15551
G1 X-5.267 Y47.877 E22.16387
G1 X-38.833 Y28.46 E24.09849
G1 X-38.899 Y28.69 E24.11043
G1 X-39.07 Y29.05 E24.13031
G1 X-39.434 Y29.684 E24.16679
G1 X-39.695 Y30.057 E24.1895
G1 X-40.017 Y30.38 E24.21225
G1 X-40.39 Y30.641 E24.23497
G1 X-40.803 Y30.833 E24.25769
G1 X-41.243 Y30.951 E24.28042
G1 X-41.697 Y30.989 E24.30315
G1 X-42.151 Y30.948 E24.32589
G1 X-42.591 Y30.828 E24.34864
G1 X-42.985 Y30.643 E24.37036
G1 X-45.309 Y29.307 E24.50409
G1 X-45.682 Y29.046 E24.52681
G1 X-46.005 Y28.724 E24.54956
G1 X-46.266 Y28.351 E24.57227
G1 X-46.458 Y27.938 E24.595
G1 X-46.575 Y27.497 E24.61776
G1 X-46.613 Y27.043 E24.64049
G1 X-46.571 Y26.59 E24.66319
G1 X-46.451 Y26.15 E24.68594
G1 X-46.236 Y25.705 E24.7106
G1 X-45.839 Y25.05 E24.74881
G1 X-45.57 Y24.683 E24.77151
G1 X-45.428 Y24.547 E24.78132
G1 X-47.101 Y23.583 E24.87765
G1 X-47.474 Y23.322 E24.90036
G1 X-47.796 Y23 E24.92308
G1 X-48.057 Y22.626 E24.94583
G1 X-48.248 Y22.212 E24.96858
G1 X-48.364 Y21.772 E24.99128
G1 X-48.402 Y21.318 E25.01401
G1 X-48.36 Y20.864 E25.03676
G1 X-48.239 Y20.425 E25.05948
G1 X-48.054 Y20.031 E25.08119
G1 X-6.68 Y-51.63 E29.20947
G1 X-6.418 Y-52.003 E29.23221
G1 X-6.096 Y-52.325 E29.25493
G1 X-5.722 Y-52.585 E29.27765
G1 X-5.308 Y-52.777 E29.30042
G1 X-4.867 Y-52.893 E29.32317
G1 X-4.413 Y-52.93 E29.3459
G1 X-3.96 Y-52.887 E29.3686
G1 X-3.52 Y-52.766 E29.39137
G1 X-3.128 Y-52.582 E29.41297
G1 X-1.468 Y-51.623 E29.50861
G1 X-1.405 Y-51.859 E29.5208
G1 X-1.222 Y-52.26 E29.54279
G1 X-.845 Y-52.926 E29.58097
G1 X-.586 Y-53.301 E29.60371
G1 X-.266 Y-53.626 E29.62646
G1 X.105 Y-53.889 E29.64915
G1 X.517 Y-54.084 E29.67189
G1 X.957 Y-54.204 E29.69465
G1 X1.41 Y-54.245 E29.71734
G1 X1.864 Y-54.206 E29.74007
G1 X2.305 Y-54.089 E29.76284
G1 X2.718 Y-53.897 E29.78556
G1 X5.04 Y-52.556 E29.91933
G1 X5.413 Y-52.294 E29.94208
G1 X5.735 Y-51.971 E29.96483
G1 X5.995 Y-51.597 E29.98755
G1 X6.187 Y-51.184 E30.01028
G1 X6.303 Y-50.743 E30.03303
G1 X6.34 Y-50.289 E30.05575
G1 X6.297 Y-49.835 E30.0785
G1 X6.176 Y-49.396 E30.10122
G1 X5.997 Y-49.013 E30.12231
G1 X5.632 Y-48.375 E30.15898
G1 X5.372 Y-48.001 E30.18171
G1 X5.255 Y-47.884 E30.18996
G1 X38.82 Y-28.468 E32.12451
G0 F7800 X39.123 Y-27.83
G1 F1800 X39.125 Y-28 E32.133
G1 X39.21 Y-28.411 E32.15394
G1 X39.422 Y-28.888 E32.17998
G1 X39.798 Y-29.519 E32.21662
G1 X40.046 Y-29.857 E32.23754
G1 X40.353 Y-30.142 E32.25844
G1 X40.709 Y-30.363 E32.27934
G1 X41.1 Y-30.513 E32.30024
G1 X41.513 Y-30.586 E32.32116
G1 X41.932 Y-30.579 E32.34207
G1 X42.342 Y-30.493 E32.36297
G1 X42.79 Y-30.297 E32.38736
G1 X45.112 Y-28.953 E32.52121
G1 X45.453 Y-28.71 E32.5421
G1 X45.742 Y-28.406 E32.56303
G1 X45.968 Y-28.053 E32.58394
G1 X46.122 Y-27.663 E32.60486
G1 X46.201 Y-27.252 E32.62574
G1 X46.199 Y-26.833 E32.64665
G1 X46.119 Y-26.421 E32.66758
G1 X45.908 Y-25.937 E32.69393
G1 X45.523 Y-25.28 E32.73192
G1 X45.278 Y-24.94 E32.75283
G1 X44.972 Y-24.653 E32.77376
G1 X44.721 Y-24.494 E32.78858
G1 X46.901 Y-23.237 E32.91412
G1 X47.243 Y-22.994 E32.93506
G1 X47.532 Y-22.69 E32.95598
G1 X47.758 Y-22.338 E32.97685
G1 X47.914 Y-21.949 E32.99776
G1 X47.992 Y-21.537 E33.01868
G1 X47.992 Y-21.118 E33.03958
G1 X47.912 Y-20.707 E33.06047
G1 X47.707 Y-20.231 E33.08633
G1 X6.333 Y51.43 E37.21461
G1 X6.09 Y51.771 E37.2355
G1 X5.787 Y52.06 E37.25639
G1 X5.434 Y52.287 E37.27733
G1 X5.045 Y52.442 E37.29822
G1 X4.633 Y52.52 E37.31914
G1 X4.214 Y52.52 E37.34004
G1 X3.803 Y52.439 E37.36094
G1 X3.328 Y52.235 E37.38673
G1 X1.172 Y50.99 E37.51094
G1 X1.174 Y51.178 E37.52032
G1 X1.099 Y51.59 E37.54121
G1 X.862 Y52.133 E37.57077
G1 X.463 Y52.789 E37.60908
G1 X.212 Y53.125 E37.63
G1 X-.098 Y53.407 E37.65091
G1 X-.456 Y53.625 E37.67182
G1 X-.849 Y53.771 E37.69274
G1 X-1.262 Y53.841 E37.71364
G1 X-1.681 Y53.83 E37.73455
G1 X-2.09 Y53.74 E37.75544
G1 X-2.516 Y53.552 E37.77867
G1 X-4.851 Y52.205 E37.91316
G1 X-5.193 Y51.962 E37.93409
G1 X-5.482 Y51.658 E37.95502
G1 X-5.708 Y51.306 E37.97589
G1 X-5.864 Y50.916 E37.99684
G1 X-5.942 Y50.505 E38.01771
G1 X-5.942 Y50.086 E38.03862
G1 X-5.862 Y49.675 E38.05951
G1 X-5.662 Y49.208 E38.08485
G1 X-5.297 Y48.569 E38.12157
G1 X-5.056 Y48.226 E38.14248
G1 X-4.754 Y47.936 E38.16337
G1 X-4.571 Y47.817 E38.17426
G1 X-39.136 Y27.822 E40.16646
G1 X-39.138 Y27.993 E40.17499
G1 X-39.223 Y28.404 E40.19593
G1 X-39.417 Y28.85 E40.22019
G1 X-39.781 Y29.484 E40.25667
G1 X-40.023 Y29.826 E40.27757
G1 X-40.326 Y30.116 E40.29849
G1 X-40.678 Y30.343 E40.31939
G1 X-41.067 Y30.499 E40.3403
G1 X-41.479 Y30.579 E40.36124
G1 X-41.898 Y30.579 E40.38214
G1 X-42.309 Y30.5 E40.40302
G1 X-42.785 Y30.296 E40.42886
G1 X-45.109 Y28.96 E40.5626
G1 X-45.451 Y28.718 E40.5835
G1 X-45.741 Y28.415 E40.60442
G1 X-45.968 Y28.063 E40.62532
G1 X-46.124 Y27.674 E40.64623
G1 X-46.203 Y27.262 E40.66716
G1 X-46.203 Y26.843 E40.68806
G1 X-46.123 Y26.432 E40.70895
G1 X-45.894 Y25.913 E40.73725
G1 X-45.497 Y25.258 E40.77547
G1 X-45.247 Y24.922 E40.79636
G1 X-44.938 Y24.639 E40.81727
G1 X-44.711 Y24.5 E40.83055
G1 X-46.901 Y23.237 E40.95667
G1 X-47.242 Y22.994 E40.97756
G1 X-47.532 Y22.691 E40.99849
G1 X-47.758 Y22.338 E41.0194
G1 X-47.913 Y21.949 E41.04029
G1 X-47.992 Y21.537 E41.06122
G1 X-47.992 Y21.118 E41.08212
G1 X-47.912 Y20.707 E41.10301
G1 X-47.707 Y20.231 E41.12887
G1 X-6.333 Y-51.43 E45.25715
G1 X-6.09 Y-51.771 E45.27804
G1 X-5.787 Y-52.06 E45.29893
G1 X-5.434 Y-52.287 E45.31986
G1 X-5.045 Y-52.442 E45.34076
G1 X-4.633 Y-52.52 E45.36168
G1 X-4.214 Y-52.52 E45.38258
G1 X-3.803 Y-52.439 E45.40348
G1 X-3.328 Y-52.235 E45.42927
G1 X-1.149 Y-50.977 E45.5548
G1 X-1.151 Y-51.168 E45.56433
G1 X-1.075 Y-51.581 E45.58528
G1 X-.874 Y-52.063 E45.61133
G1 X-.497 Y-52.729 E45.64951
G1 X-.256 Y-53.072 E45.67043
G1 X.045 Y-53.364 E45.69135
G1 X.395 Y-53.593 E45.71222
G1 X.783 Y-53.751 E45.73312
G1 X1.194 Y-53.834 E45.75404
G1 X1.613 Y-53.836 E45.77494
G1 X2.025 Y-53.76 E45.79584
G1 X2.518 Y-53.55 E45.82258
G1 X4.84 Y-52.209 E45.95635
G1 X5.182 Y-51.966 E45.97728
G1 X5.47 Y-51.662 E45.99817
G1 X5.697 Y-51.31 E46.01907
G1 X5.852 Y-50.92 E46.04001
G1 X5.93 Y-50.509 E46.06088
G1 X5.93 Y-50.09 E46.08178
G1 X5.849 Y-49.679 E46.10268
G1 X5.65 Y-49.212 E46.12801
G1 X5.285 Y-48.574 E46.16468
G1 X5.043 Y-48.231 E46.18562
G1 X4.741 Y-47.941 E46.20651
G1 X4.56 Y-47.824 E46.21726
G1 X39.123 Y-27.83 E48.20935
G1 F1500 E41.70935
G0 F7800 X39.655 Y-27.06
G1 F1500 E48.20935
G1 F1800 X39.545 Y-27.418 E48.22804
G1 X39.512 Y-27.795 E48.24692
G1 X39.559 Y-28.171 E48.26582
G1 X39.766 Y-28.683 E48.29337
G1 X40.142 Y-29.314 E48.33002
G1 X40.369 Y-29.618 E48.34895
G1 X40.655 Y-29.867 E48.36787
G1 X40.986 Y-30.05 E48.38674
G1 X41.349 Y-30.161 E48.40567
G1 X41.726 Y-30.193 E48.42455
G1 X42.102 Y-30.145 E48.44346
G1 X42.59 Y-29.951 E48.46966
G1 X44.912 Y-28.607 E48.60351
G1 X45.218 Y-28.384 E48.6224
G1 X45.471 Y-28.101 E48.64134
G1 X45.658 Y-27.772 E48.66022
G1 X45.773 Y-27.411 E48.67912
G1 X45.81 Y-27.034 E48.69802
G1 X45.767 Y-26.657 E48.71695
G1 X45.563 Y-26.139 E48.74473
G1 X45.178 Y-25.482 E48.78272
G1 X44.953 Y-25.177 E48.80163
G1 X44.669 Y-24.926 E48.82054
G1 X44.339 Y-24.74 E48.83944
G1 X43.977 Y-24.627 E48.85836
G1 X43.729 Y-24.604 E48.87078
G1 X46.701 Y-22.89 E49.04195
G1 X47.008 Y-22.667 E49.06088
G1 X47.261 Y-22.385 E49.07978
G1 X47.449 Y-22.057 E49.09864
G1 X47.565 Y-21.696 E49.11756
G1 X47.602 Y-21.318 E49.13651
G1 X47.559 Y-20.942 E49.15539
G1 X47.361 Y-20.431 E49.18273
G1 X5.987 Y51.23 E53.311
G1 X5.764 Y51.536 E53.32989
G1 X5.482 Y51.789 E53.3488
G1 X5.153 Y51.978 E53.36773
G1 X4.792 Y52.093 E53.38663
G1 X4.415 Y52.13 E53.40553
G1 X4.038 Y52.087 E53.42446
G1 X3.528 Y51.889 E53.45175
G1 X.59 Y50.193 E53.621
G1 X.621 Y50.245 E53.62402
G1 X.74 Y50.605 E53.64293
G1 X.782 Y50.982 E53.66186
G1 X.744 Y51.359 E53.68076
G1 X.628 Y51.719 E53.69963
G1 X.52 Y51.925 E53.71124
G1 X.121 Y52.581 E53.74954
G1 X-.109 Y52.883 E53.76848
G1 X-.397 Y53.129 E53.78738
G1 X-.73 Y53.31 E53.80629
G1 X-1.094 Y53.417 E53.82522
G1 X-1.471 Y53.445 E53.84408
G1 X-1.847 Y53.394 E53.86301
G1 X-2.316 Y53.205 E53.88823
G1 X-4.651 Y51.858 E54.02272
G1 X-4.958 Y51.635 E54.04165
G1 X-5.211 Y51.353 E54.06055
G1 X-5.399 Y51.024 E54.07946
G1 X-5.515 Y50.663 E54.09838
G1 X-5.552 Y50.286 E54.11727
G1 X-5.509 Y49.91 E54.13616
G1 X-5.315 Y49.406 E54.1631
G1 X-4.95 Y48.767 E54.19981
G1 X-4.728 Y48.46 E54.21871
G1 X-4.447 Y48.206 E54.23761
G1 X-4.119 Y48.016 E54.25652
G1 X-3.759 Y47.899 E54.27541
G1 X-3.65 Y47.888 E54.28087
G1 X-39.668 Y27.052 E56.35683
G1 X-39.558 Y27.411 E56.37556
G1 X-39.525 Y27.788 E56.39444
G1 X-39.572 Y28.164 E56.41335
G1 X-39.764 Y28.651 E56.43947
G1 X-40.128 Y29.285 E56.47594
G1 X-40.35 Y29.592 E56.49484
G1 X-40.632 Y29.846 E56.51377
G1 X-40.96 Y30.035 E56.53266
G1 X-41.321 Y30.151 E56.55158
G1 X-41.698 Y30.189 E56.57048
G1 X-42.075 Y30.147 E56.58941
G1 X-42.586 Y29.95 E56.61673
G1 X-44.91 Y28.614 E56.75047
G1 X-45.217 Y28.391 E56.7694
G1 X-45.47 Y28.109 E56.7883
G1 X-45.659 Y27.781 E56.80719
G1 X-45.775 Y27.42 E56.8261
G1 X-45.813 Y27.043 E56.84501
G1 X-45.771 Y26.666 E56.86393
G1 X-45.651 Y26.307 E56.88282
G1 X-45.552 Y26.12 E56.89337
G1 X-45.155 Y25.465 E56.93158
G1 X-44.926 Y25.163 E56.95049
G1 X-44.638 Y24.917 E56.96939
G1 X-44.306 Y24.735 E56.98828
G1 X-43.942 Y24.628 E57.00721
G1 X-43.717 Y24.611 E57.01846
G1 X-46.701 Y22.89 E57.19032
