;FLAVOR:RepRap
;TIME:12873
;Generated with Cura_SteamEngine 2.3.0
M104 S200
M109 S200
G21 ;metric values
G90 ;absolute positioning
M82 ;set extruder to absolute mode
M107 ;start with the fan off
G28 ;Home all axes (max endstops)
G1 Z15.0 F9000 ;move the platform down 15mm
G92 E0 ;zero the extruded length
G1 F200 E3 ;extrude 3mm of feed stock
G92 E0 ;zero the extruded length again
G1 F9000
;Put printing message on LCD screen
M117 Printing...
;LAYER_COUNT:223
;LAYER:0
M107
G1 F1500 E-6.5
G0 F7800 X56.719 Y-13.439 Z.3
G0 X57.101 Y-14.286
;TYPE:SKIRT
G1 F1500 E0
G1 F1800 X57.059 Y-14.153 E0.00696
G1 X56.719 Y-13.439 E0.04641
G1 X16.557 Y56.102 E4.05286
G1 X16.015 Y56.865 E4.09955
G1 X15.193 Y57.819 E4.16238
G1 X14.751 Y58.271 E4.19392
G1 X14.264 Y58.657 E4.22492
G1 X13.238 Y59.372 E4.28731
G1 X12.697 Y59.7 E4.31888
G1 X12.119 Y59.958 E4.35045
G1 X10.936 Y60.397 E4.41341
G1 X10.33 Y60.579 E4.44497
G1 X9.716 Y60.682 E4.47604
G1 X8.472 Y60.812 E4.53844
G1 X7.84 Y60.838 E4.56999
G1 X7.215 Y60.784 E4.60129
G1 X5.974 Y60.599 E4.66389
G1 X5.356 Y60.467 E4.69542
G1 X4.776 Y60.264 E4.72607
G1 X3.623 Y59.78 E4.78846
G1 X3.055 Y59.499 E4.82008
G1 X-53.59 Y26.748 E8.08447
G1 X-54.116 Y26.397 E8.11602
G1 X-54.59 Y25.986 E8.14732
G1 X-55.484 Y25.108 E8.20983
G1 X-55.907 Y24.638 E8.24138
G1 X-56.26 Y24.128 E8.27232
G1 X-56.905 Y23.061 E8.33453
G1 X-57.197 Y22.5 E8.36608
G1 X-57.412 Y21.921 E8.39689
G1 X-57.775 Y20.72 E8.45949
G1 X-57.919 Y20.104 E8.49105
G1 X-57.985 Y19.481 E8.5223
G1 X-58.037 Y18.231 E8.58472
G1 X-58.023 Y17.599 E8.61626
G1 X-57.932 Y16.985 E8.64723
G1 X-57.671 Y15.755 E8.70996
G1 X-57.501 Y15.146 E8.7415
G1 X-57.325 Y14.71 E8.76496
G1 X-56.934 Y13.857 E8.81177
G1 X-56.719 Y13.439 E8.83522
G1 X-16.557 Y-56.102 E12.84167
G1 X-16.015 Y-56.865 E12.88836
G1 X-15.193 Y-57.819 E12.95119
G1 X-14.751 Y-58.271 E12.98273
G1 X-14.264 Y-58.657 E13.01373
G1 X-13.238 Y-59.372 E13.07612
G1 X-12.697 Y-59.7 E13.10769
G1 X-12.119 Y-59.958 E13.13927
G1 X-10.936 Y-60.397 E13.20222
G1 X-10.33 Y-60.579 E13.23379
G1 X-9.716 Y-60.682 E13.26485
G1 X-8.472 Y-60.812 E13.32725
G1 X-7.532 Y-60.821 E13.37415
G1 X-6.915 Y-60.769 E13.40504
G1 X-5.993 Y-60.604 E13.45177
G1 X-4.776 Y-60.265 E13.5148
G1 X-4.179 Y-60.057 E13.54634
G1 X-3.621 Y-59.78 E13.57742
G1 X53.051 Y-27.106 E16.84105
G1 X53.576 Y-26.757 E16.87251
G1 X54.575 Y-25.999 E16.93507
G1 X55.054 Y-25.586 E16.96662
G1 X55.467 Y-25.127 E16.99743
G1 X56.25 Y-24.142 E17.0602
G1 X56.611 Y-23.624 E17.0917
G1 X56.904 Y-23.065 E17.12319
G1 X57.412 Y-21.924 E17.1855
G1 X57.632 Y-21.331 E17.21706
G1 X57.774 Y-20.725 E17.24811
G1 X57.984 Y-19.485 E17.31086
G1 X58.05 Y-18.856 E17.34241
G1 X58.036 Y-18.231 E17.3736
G1 X57.931 Y-16.983 E17.43608
G1 X57.839 Y-16.358 E17.4676
G1 X57.607 Y-15.584 E17.50791
G1 X57.101 Y-14.286 E17.57742
G0 F7800 X56.691 Y-14.339
G1 F1800 X56.57 Y-14.021 E17.59439
G1 X56.372 Y-13.639 E17.61586
G1 X16.21 Y55.902 E21.6223
G1 X15.712 Y56.604 E21.66524
G1 X14.89 Y57.558 E21.72807
G1 X14.465 Y57.99 E21.7583
G1 X14.035 Y58.329 E21.78562
G1 X13.009 Y59.044 E21.84801
G1 X12.49 Y59.357 E21.87825
G1 X11.979 Y59.583 E21.90612
G1 X10.796 Y60.022 E21.96908
G1 X10.215 Y60.195 E21.99932
G1 X9.674 Y60.284 E22.02667
G1 X8.43 Y60.414 E22.08908
G1 X7.824 Y60.437 E22.11933
G1 X7.274 Y60.389 E22.14688
G1 X6.033 Y60.204 E22.20947
G1 X5.44 Y60.075 E22.23975
G1 X4.931 Y59.895 E22.26669
G1 X3.778 Y59.411 E22.32907
G1 X3.256 Y59.152 E22.35814
G1 X-53.389 Y26.401 E25.62254
G1 X-53.893 Y26.064 E25.65278
G1 X-54.31 Y25.701 E25.68037
G1 X-55.204 Y24.823 E25.74288
G1 X-55.608 Y24.371 E25.77313
G1 X-55.918 Y23.921 E25.80039
G1 X-56.563 Y22.854 E25.86259
G1 X-56.841 Y22.315 E25.89285
G1 X-57.029 Y21.805 E25.91997
G1 X-57.392 Y20.604 E25.98256
G1 X-57.529 Y20.013 E26.01283
G1 X-57.585 Y19.464 E26.04036
G1 X-57.637 Y18.214 E26.10278
G1 X-57.622 Y17.608 E26.13302
G1 X-57.541 Y17.068 E26.16026
G1 X-57.28 Y15.838 E26.22299
G1 X-57.115 Y15.255 E26.25322
G1 X-56.962 Y14.876 E26.27361
G1 X-56.571 Y14.023 E26.32043
G1 X-56.372 Y13.639 E26.342
G1 X-16.21 Y-55.902 E30.34845
G1 X-15.712 Y-56.604 E30.39139
G1 X-14.89 Y-57.558 E30.45422
G1 X-14.465 Y-57.99 E30.48445
G1 X-14.035 Y-58.329 E30.51177
G1 X-13.009 Y-59.044 E30.57416
G1 X-12.49 Y-59.357 E30.6044
G1 X-11.979 Y-59.583 E30.63227
G1 X-10.796 Y-60.022 E30.69522
G1 X-10.215 Y-60.195 E30.72547
G1 X-9.674 Y-60.284 E30.75282
G1 X-8.43 Y-60.414 E30.81522
G1 X-7.566 Y-60.423 E30.85833
G1 X-6.949 Y-60.371 E30.88922
G1 X-6.101 Y-60.218 E30.93221
G1 X-4.884 Y-59.879 E30.99524
G1 X-4.312 Y-59.678 E31.02549
G1 X-3.82 Y-59.433 E31.05291
G1 X52.852 Y-26.759 E34.31655
G1 X53.334 Y-26.439 E34.34541
G1 X54.333 Y-25.681 E34.40797
G1 X54.791 Y-25.283 E34.43825
G1 X55.154 Y-24.878 E34.46538
G1 X55.937 Y-23.893 E34.52816
G1 X56.282 Y-23.395 E34.55838
G1 X56.538 Y-22.902 E34.5861
G1 X57.046 Y-21.761 E34.64841
G1 X57.256 Y-21.192 E34.67867
G1 X57.379 Y-20.658 E34.70601
G1 X57.589 Y-19.418 E34.76875
G1 X57.651 Y-18.815 E34.79899
G1 X57.638 Y-18.264 E34.82649
G1 X57.533 Y-17.016 E34.88897
G1 X57.442 Y-16.417 E34.9192
G1 X57.234 Y-15.73 E34.95501
G1 X56.691 Y-14.339 E35.02951
G0 F7800 X56.347 Y-14.557
G1 F1800 X56.311 Y-14.437 E35.03576
G1 X56.026 Y-13.84 E35.06876
G1 X15.864 Y55.701 E39.07521
G1 X15.409 Y56.343 E39.11447
G1 X14.587 Y57.297 E39.17729
G1 X14.179 Y57.708 E39.20619
G1 X13.806 Y58.001 E39.22985
G1 X12.78 Y58.716 E39.29224
G1 X12.283 Y59.013 E39.32113
G1 X11.84 Y59.208 E39.34527
G1 X10.657 Y59.647 E39.40823
G1 X10.101 Y59.81 E39.43713
G1 X9.633 Y59.886 E39.46079
G1 X8.389 Y60.016 E39.52319
G1 X7.81 Y60.037 E39.55209
G1 X7.333 Y59.993 E39.57599
G1 X6.092 Y59.808 E39.63859
G1 X5.526 Y59.683 E39.66751
G1 X5.085 Y59.527 E39.69085
G1 X3.932 Y59.043 E39.75323
G1 X3.456 Y58.806 E39.77976
G1 X-53.189 Y26.055 E43.04415
G1 X-53.67 Y25.731 E43.07309
G1 X-54.03 Y25.416 E43.09695
G1 X-54.924 Y24.538 E43.15947
G1 X-55.308 Y24.104 E43.18838
G1 X-55.575 Y23.714 E43.21196
G1 X-56.22 Y22.647 E43.27416
G1 X-56.485 Y22.132 E43.30306
G1 X-56.646 Y21.689 E43.32657
G1 X-57.009 Y20.488 E43.38917
G1 X-57.138 Y19.923 E43.41808
G1 X-57.185 Y19.448 E43.44189
G1 X-57.237 Y18.198 E43.50431
G1 X-57.221 Y17.618 E43.53326
G1 X-57.15 Y17.151 E43.55682
G1 X-56.889 Y15.921 E43.61956
G1 X-56.729 Y15.364 E43.64847
G1 X-56.598 Y15.043 E43.66577
G1 X-56.207 Y14.19 E43.71258
G1 X-56.026 Y13.84 E43.73224
G1 X-15.864 Y-55.701 E47.73868
G1 X-15.409 Y-56.343 E47.77794
G1 X-14.587 Y-57.297 E47.84077
G1 X-14.179 Y-57.708 E47.86966
G1 X-13.806 Y-58.001 E47.89332
G1 X-12.78 Y-58.716 E47.95572
G1 X-12.283 Y-59.013 E47.9846
G1 X-11.84 Y-59.208 E48.00875
G1 X-10.657 Y-59.647 E48.0717
G1 X-10.101 Y-59.81 E48.10061
G1 X-9.633 Y-59.886 E48.12426
G1 X-8.389 Y-60.016 E48.18666
G1 X-7.599 Y-60.024 E48.22608
G1 X-6.982 Y-59.972 E48.25697
G1 X-6.208 Y-59.833 E48.2962
G1 X-4.991 Y-59.494 E48.35923
G1 X-4.445 Y-59.3 E48.38814
G1 X-4.02 Y-59.087 E48.41186
G1 X52.652 Y-26.413 E51.67549
G1 X53.093 Y-26.12 E51.70191
G1 X54.092 Y-25.362 E51.76447
G1 X54.528 Y-24.981 E51.79336
G1 X54.841 Y-24.63 E51.81682
G1 X55.624 Y-23.645 E51.8796
G1 X55.952 Y-23.167 E51.90852
G1 X56.173 Y-22.739 E51.93255
G1 X56.681 Y-21.598 E51.99486
G1 X56.879 Y-21.054 E52.02375
G1 X56.985 Y-20.591 E52.04744
G1 X57.195 Y-19.351 E52.11019
G1 X57.252 Y-18.775 E52.13907
G1 X57.239 Y-18.298 E52.16287
G1 X57.134 Y-17.05 E52.22535
G1 X57.046 Y-16.477 E52.25428
G1 X56.862 Y-15.875 E52.28568
G1 X56.347 Y-14.557 E52.35628
G0 F7800 X55.92 Y-14.562
G1 F1800 X55.821 Y-14.308 E52.36988
G1 X55.68 Y-14.04 E52.38499
G1 X15.518 Y55.501 E56.39143
G1 X15.106 Y56.081 E56.42693
G1 X14.284 Y57.035 E56.48975
G1 X13.895 Y57.426 E56.51727
G1 X13.578 Y57.673 E56.53732
G1 X12.552 Y58.388 E56.59971
G1 X12.078 Y58.669 E56.6272
G1 X11.701 Y58.833 E56.64771
G1 X10.518 Y59.272 E56.71067
G1 X9.989 Y59.425 E56.73814
G1 X9.591 Y59.488 E56.75824
G1 X8.347 Y59.618 E56.82064
G1 X7.796 Y59.636 E56.84815
G1 X7.392 Y59.597 E56.8684
G1 X6.151 Y59.412 E56.931
G1 X5.613 Y59.292 E56.9585
G1 X5.24 Y59.158 E56.97827
G1 X4.087 Y58.674 E57.04066
G1 X3.656 Y58.46 E57.06466
G1 X-52.989 Y25.709 E60.32906
G1 X-53.445 Y25.399 E60.35656
G1 X-53.75 Y25.13 E60.37685
G1 X-54.644 Y24.252 E60.43937
G1 X-55.008 Y23.839 E60.46683
G1 X-55.233 Y23.507 E60.48684
G1 X-55.878 Y22.44 E60.54905
G1 X-56.128 Y21.949 E60.57653
G1 X-56.263 Y21.573 E60.59647
G1 X-56.626 Y20.372 E60.65906
G1 X-56.747 Y19.835 E60.68652
G1 X-56.786 Y19.431 E60.70677
G1 X-56.838 Y18.181 E60.76919
G1 X-56.821 Y17.63 E60.79669
G1 X-56.758 Y17.234 E60.8167
G1 X-56.497 Y16.004 E60.87943
G1 X-56.344 Y15.475 E60.9069
G1 X-56.234 Y15.21 E60.92122
G1 X-55.843 Y14.357 E60.96803
G1 X-55.68 Y14.04 E60.98581
G1 X-15.518 Y-55.501 E64.99226
G1 X-15.106 Y-56.081 E65.02775
G1 X-14.284 Y-57.035 E65.09058
G1 X-13.895 Y-57.426 E65.1181
G1 X-13.578 Y-57.673 E65.13815
G1 X-12.552 Y-58.388 E65.20054
G1 X-12.078 Y-58.669 E65.22803
G1 X-11.701 Y-58.833 E65.24854
G1 X-10.518 Y-59.272 E65.31149
G1 X-9.989 Y-59.425 E65.33897
G1 X-9.591 Y-59.488 E65.35907
G1 X-8.347 Y-59.618 E65.42147
G1 X-7.633 Y-59.626 E65.45709
G1 X-7.016 Y-59.574 E65.48799
G1 X-6.315 Y-59.448 E65.52352
G1 X-5.098 Y-59.109 E65.58655
G1 X-4.58 Y-58.923 E65.61401
G1 X-4.22 Y-58.74 E65.63415
G1 X52.452 Y-26.066 E68.89779
G1 X52.851 Y-25.801 E68.92169
G1 X53.85 Y-25.043 E68.98425
G1 X54.264 Y-24.679 E69.01175
G1 X54.528 Y-24.381 E69.03162
G1 X55.311 Y-23.396 E69.09439
G1 X55.621 Y-22.941 E69.12186
G1 X55.807 Y-22.577 E69.14225
G1 X56.315 Y-21.436 E69.20457
G1 X56.503 Y-20.917 E69.23211
G1 X56.591 Y-20.525 E69.25215
G1 X56.801 Y-19.285 E69.31489
G1 X56.853 Y-18.736 E69.34241
G1 X56.841 Y-18.331 E69.36262
G1 X56.736 Y-17.083 E69.4251
G1 X56.65 Y-16.539 E69.45258
G1 X56.489 Y-16.02 E69.47969
G1 X55.92 Y-14.562 E69.55777
G0 F7800 X55.589 Y-14.816
G1 F1800 X55.544 Y-14.673 E69.56525
G1 X55.333 Y-14.24 E69.58928
G1 X15.171 Y55.301 E73.59573
G1 X14.803 Y55.82 E73.62747
G1 X13.981 Y56.774 E73.6903
G1 X13.611 Y57.142 E73.71633
G1 X13.349 Y57.344 E73.73284
G1 X12.323 Y58.059 E73.79523
G1 X11.874 Y58.324 E73.82124
G1 X11.562 Y58.458 E73.83818
G1 X10.379 Y58.897 E73.90113
G1 X9.878 Y59.04 E73.92713
G1 X9.549 Y59.091 E73.94374
G1 X8.305 Y59.221 E74.00614
G1 X7.784 Y59.235 E74.03214
G1 X7.451 Y59.202 E74.04884
G1 X6.21 Y59.017 E74.11143
G1 X5.702 Y58.901 E74.13743
G1 X5.395 Y58.789 E74.15373
G1 X4.242 Y58.305 E74.21612
G1 X3.856 Y58.113 E74.23763
G1 X-52.789 Y25.362 E77.50202
G1 X-53.219 Y25.068 E77.52801
G1 X-53.469 Y24.845 E77.54472
G1 X-54.363 Y23.967 E77.60724
G1 X-54.706 Y23.574 E77.63326
G1 X-54.891 Y23.3 E77.64975
G1 X-55.536 Y22.233 E77.71196
G1 X-55.77 Y21.768 E77.73793
G1 X-55.881 Y21.458 E77.75436
G1 X-56.244 Y20.257 E77.81695
G1 X-56.356 Y19.748 E77.84295
G1 X-56.386 Y19.414 E77.85968
G1 X-56.438 Y18.164 E77.9221
G1 X-56.42 Y17.643 E77.94811
G1 X-56.367 Y17.317 E77.96459
G1 X-56.106 Y16.087 E78.02732
G1 X-55.871 Y15.376 E78.06468
G1 X-55.48 Y14.523 E78.11149
G1 X-55.333 Y14.24 E78.1274
G1 X-15.171 Y-55.301 E82.13385
G1 X-14.803 Y-55.82 E82.16559
G1 X-13.981 Y-56.774 E82.22841
G1 X-13.611 Y-57.142 E82.25445
G1 X-13.349 Y-57.344 E82.27095
G1 X-12.323 Y-58.059 E82.33335
G1 X-11.874 Y-58.324 E82.35936
G1 X-11.562 Y-58.458 E82.3763
G1 X-10.379 Y-58.897 E82.43925
G1 X-9.878 Y-59.04 E82.46524
G1 X-9.549 Y-59.091 E82.48185
G1 X-8.305 Y-59.221 E82.54425
G1 X-7.666 Y-59.227 E82.57614
G1 X-7.049 Y-59.175 E82.60703
G1 X-6.423 Y-59.062 E82.63876
G1 X-5.206 Y-58.723 E82.70179
G1 X-4.716 Y-58.545 E82.7278
G1 X-4.42 Y-58.394 E82.74438
G1 X52.252 Y-25.72 E86.00802
G1 X52.609 Y-25.483 E86.02939
G1 X53.608 Y-24.725 E86.09196
G1 X53.998 Y-24.379 E86.11797
G1 X54.215 Y-24.132 E86.13437
G1 X54.998 Y-23.147 E86.19715
G1 X55.29 Y-22.715 E86.22316
G1 X55.442 Y-22.414 E86.23999
G1 X55.95 Y-21.273 E86.3023
G1 X56.125 Y-20.782 E86.3283
G1 X56.196 Y-20.458 E86.34485
G1 X56.406 Y-19.218 E86.4076
G1 X56.454 Y-18.699 E86.4336
G1 X56.442 Y-18.365 E86.45027
G1 X56.337 Y-17.117 E86.51276
G1 X56.254 Y-16.603 E86.53873
G1 X56.116 Y-16.166 E86.56159
G1 X55.589 Y-14.816 E86.6339
G0 F7800 X55.172 Y-14.854
G1 F1800 X54.987 Y-14.44 E86.65652
G1 X14.825 Y55.101 E90.66297
G1 X14.5 Y55.559 E90.69098
G1 X13.678 Y56.513 E90.75381
G1 X13.329 Y56.857 E90.77826
G1 X13.12 Y57.016 E90.79136
G1 X12.094 Y57.731 E90.85375
G1 X11.671 Y57.977 E90.87816
G1 X11.423 Y58.083 E90.89162
G1 X10.24 Y58.522 E90.95457
G1 X9.768 Y58.654 E90.97902
G1 X9.508 Y58.693 E90.99214
G1 X8.264 Y58.823 E91.05454
G1 X7.774 Y58.834 E91.07899
G1 X7.51 Y58.806 E91.09224
G1 X6.269 Y58.621 E91.15484
G1 X5.792 Y58.51 E91.17927
G1 X5.55 Y58.42 E91.19215
G1 X4.397 Y57.936 E91.25454
G1 X4.056 Y57.767 E91.27352
G1 X-52.589 Y25.016 E94.53792
G1 X-52.991 Y24.737 E94.56233
G1 X-53.189 Y24.559 E94.57561
G1 X-54.083 Y23.681 E94.63813
G1 X-54.403 Y23.311 E94.66253
G1 X-54.548 Y23.093 E94.67559
G1 X-55.193 Y22.026 E94.7378
G1 X-55.412 Y21.588 E94.76223
G1 X-55.498 Y21.342 E94.77523
G1 X-55.861 Y20.141 E94.83783
G1 X-55.964 Y19.662 E94.86227
G1 X-55.986 Y19.398 E94.87549
G1 X-56.038 Y18.148 E94.9379
G1 X-56.019 Y17.659 E94.96232
G1 X-55.976 Y17.4 E94.97542
G1 X-55.715 Y16.17 E95.03815
G1 X-55.507 Y15.543 E95.0711
G1 X-55.116 Y14.69 E95.11792
G1 X-54.987 Y14.44 E95.13195
G1 X-14.825 Y-55.101 E99.1384
G1 X-14.5 Y-55.559 E99.16642
G1 X-13.678 Y-56.513 E99.22924
G1 X-13.329 Y-56.857 E99.25369
G1 X-13.12 Y-57.016 E99.26679
G1 X-12.094 Y-57.731 E99.32918
G1 X-11.671 Y-57.977 E99.3536
G1 X-11.423 Y-58.083 E99.36705
G1 X-10.24 Y-58.522 E99.43001
G1 X-9.768 Y-58.654 E99.45446
G1 X-9.508 Y-58.693 E99.46757
G1 X-8.264 Y-58.823 E99.52998
G1 X-7.7 Y-58.828 E99.55811
G1 X-7.083 Y-58.776 E99.58901
G1 X-6.53 Y-58.677 E99.61703
G1 X-5.313 Y-58.338 E99.68006
G1 X-4.854 Y-58.169 E99.70446
G1 X-4.62 Y-58.047 E99.71763
G1 X52.052 Y-25.373 E102.98127
G1 X52.367 Y-25.164 E103.00013
G1 X53.366 Y-24.406 E103.06269
G1 X53.731 Y-24.079 E103.08714
G1 X53.901 Y-23.883 E103.10008
G1 X54.684 Y-22.898 E103.16286
G1 X54.957 Y-22.491 E103.18731
G1 X55.077 Y-22.251 E103.2007
G1 X55.585 Y-21.11 E103.26301
G1 X55.747 Y-20.648 E103.28743
G1 X55.802 Y-20.391 E103.30055
G1 X56.012 Y-19.151 E103.36329
G1 X56.054 Y-18.663 E103.38773
G1 X56.043 Y-18.398 E103.40096
G1 X55.938 Y-17.15 E103.46344
G1 X55.858 Y-16.668 E103.48782
G1 X55.744 Y-16.311 E103.50652
G1 X55.248 Y-15.039 E103.57463
G1 X55.239 Y-15.003 E103.57648
G1 X55.196 Y-14.908 E103.58168
G1 X55.175 Y-14.853 E103.58462
G1 X55.172 Y-14.854 E103.58478
G0 F7800 X54.816 Y-15.035
G1 F1800 X54.756 Y-14.864 E103.59382
G1 X54.64 Y-14.64 E103.60641
G1 X14.478 Y54.901 E107.61285
G1 X14.197 Y55.298 E107.63712
G1 X13.375 Y56.252 E107.69994
G1 X12.892 Y56.688 E107.73241
G1 X11.866 Y57.403 E107.7948
G1 X11.284 Y57.708 E107.82758
G1 X10.101 Y58.147 E107.89053
G1 X9.466 Y58.295 E107.92306
G1 X8.222 Y58.425 E107.98546
G1 X7.569 Y58.411 E108.01805
G1 X6.328 Y58.226 E108.08065
G1 X5.705 Y58.051 E108.11293
G1 X4.552 Y57.567 E108.17532
G1 X4.257 Y57.421 E108.19174
G1 X-52.388 Y24.67 E111.45613
G1 X-52.909 Y24.274 E111.48878
G1 X-53.803 Y23.396 E111.55129
G1 X-54.206 Y22.886 E111.58372
G1 X-54.851 Y21.819 E111.64592
G1 X-55.115 Y21.226 E111.67831
G1 X-55.478 Y20.025 E111.7409
G1 X-55.587 Y19.381 E111.77349
G1 X-55.639 Y18.131 E111.83591
G1 X-55.584 Y17.483 E111.86835
G1 X-55.323 Y16.253 E111.93108
G1 X-55.144 Y15.71 E111.95961
G1 X-54.753 Y14.857 E112.00642
G1 X-54.64 Y14.64 E112.01863
G1 X-14.478 Y-54.901 E116.02507
G1 X-14.197 Y-55.298 E116.04934
G1 X-13.375 Y-56.252 E116.11217
G1 X-12.892 Y-56.688 E116.14463
G1 X-11.866 Y-57.403 E116.20702
G1 X-11.284 Y-57.708 E116.2398
G1 X-10.101 Y-58.147 E116.30275
G1 X-9.466 Y-58.295 E116.33528
G1 X-8.222 Y-58.425 E116.39769
G1 X-7.734 Y-58.43 E116.42203
G1 X-7.117 Y-58.378 E116.45292
G1 X-6.637 Y-58.292 E116.47725
G1 X-5.42 Y-57.953 E116.54028
G1 X-4.819 Y-57.7 E116.57281
G1 X51.853 Y-25.026 E119.83645
G1 X52.126 Y-24.845 E119.85279
G1 X53.125 Y-24.087 E119.91536
G1 X53.588 Y-23.634 E119.94767
G1 X54.371 Y-22.649 E120.01045
G1 X54.711 Y-22.089 E120.04313
G1 X55.219 Y-20.948 E120.10545
G1 X55.407 Y-20.324 E120.13796
G1 X55.617 Y-19.084 E120.2007
