;FLAVOR:RepRap
;TIME:5341
;Generated with Cura_SteamEngine 2.3.0
M104 S200
M109 S200
G21 ;metric values
G90 ;absolute positioning
M82 ;set extruder to absolute mode
M107 ;start with the fan off
G28 ;Home all axes (max endstops)
G1 Z15.0 F9000 ;move the platform down 15mm
G92 E0 ;zero the extruded length
G1 F200 E3 ;extrude 3mm of feed stock
G92 E0 ;zero the extruded length again
G1 F9000
;Put printing message on LCD screen
M117 Printing...
;LAYER_COUNT:97
;LAYER:0
M107
G1 F1500 E-6.5
G0 F7800 X-9.572 Y-13.956 Z.3
;TYPE:SKIRT
G1 F1500 E0
G1 F1800 X49.495 Y20.146 E3.40274
G1 X49.898 Y20.424 E3.42716
G1 X50.249 Y20.765 E3.45158
G1 X50.541 Y21.158 E3.476
G1 X50.765 Y21.593 E3.50041
G1 X50.916 Y22.059 E3.52485
G1 X50.988 Y22.543 E3.54927
G1 X50.981 Y23.032 E3.57367
G1 X50.895 Y23.514 E3.59809
G1 X50.731 Y23.975 E3.6225
G1 X50.593 Y24.244 E3.63759
G1 X46.293 Y31.692 E4.06665
G1 X46.015 Y32.095 E4.09108
G1 X45.674 Y32.446 E4.11549
G1 X45.281 Y32.738 E4.13992
G1 X44.846 Y32.962 E4.16433
G1 X44.38 Y33.113 E4.18877
G1 X43.896 Y33.185 E4.21318
G1 X43.407 Y33.178 E4.23758
G1 X42.925 Y33.092 E4.262
G1 X42.464 Y32.928 E4.28642
G1 X42.195 Y32.79 E4.3015
G1 X-16.873 Y-1.313 E7.70431
G1 X-17.055 Y-1.146 E7.71663
G1 X-17.37 Y-.895 E7.73672
G1 X-19.217 Y.389 E7.84895
G1 X-19.538 Y.584 E7.86769
G1 X-21.544 Y1.634 E7.98065
G1 X-21.89 Y1.788 E7.99954
G1 X-24.005 Y2.574 E8.11211
G1 X-24.364 Y2.682 E8.13081
G1 X-26.569 Y3.2 E8.24382
G1 X-26.943 Y3.264 E8.26275
G1 X-29.192 Y3.499 E8.37556
G1 X-29.566 Y3.514 E8.39424
G1 X-31.823 Y3.467 E8.50686
G1 X-32.2 Y3.436 E8.52573
G1 X-34.437 Y3.105 E8.63855
G1 X-34.802 Y3.027 E8.65717
G1 X-36.984 Y2.42 E8.77017
G1 X-37.343 Y2.295 E8.78913
G1 X-39.424 Y1.42 E8.90176
G1 X-39.762 Y1.252 E8.92059
G1 X-41.717 Y.122 E9.03325
G1 X-42.029 Y-.085 E9.05193
G1 X-43.83 Y-1.451 E9.1647
G1 X-44.117 Y-1.699 E9.18362
G1 X-45.734 Y-3.284 E9.29659
G1 X-45.985 Y-3.562 E9.31527
G1 X-47.388 Y-5.332 E9.42796
G1 X-47.603 Y-5.641 E9.44674
G1 X-48.775 Y-7.575 E9.55956
G1 X-48.95 Y-7.91 E9.57842
G1 X-49.871 Y-9.979 E9.6914
G1 X-50.002 Y-10.332 E9.71019
G1 X-50.654 Y-12.491 E9.82271
G1 X-50.74 Y-12.86 E9.84161
G1 X-51.115 Y-15.087 E9.95428
G1 X-51.154 Y-15.459 E9.97294
G1 X-51.249 Y-17.721 E10.08589
G1 X-51.242 Y-18.097 E10.10465
G1 X-51.054 Y-20.341 E10.217
G1 X-50.998 Y-20.715 E10.23587
G1 X-50.526 Y-22.933 E10.349
G1 X-50.425 Y-23.295 E10.36775
G1 X-49.682 Y-25.431 E10.48058
G1 X-49.536 Y-25.779 E10.49941
G1 X-48.535 Y-27.796 E10.61175
G1 X-48.347 Y-28.122 E10.63052
G1 X-47.089 Y-30.016 E10.74396
G1 X-46.86 Y-30.317 E10.76283
G1 X-45.39 Y-32.019 E10.87503
G1 X-45.128 Y-32.287 E10.89372
G1 X-43.44 Y-33.808 E11.00708
G1 X-43.144 Y-34.043 E11.02594
G1 X-41.296 Y-35.327 E11.13821
G1 X-40.974 Y-35.521 E11.15696
G1 X-38.968 Y-36.57 E11.2699
G1 X-38.624 Y-36.724 E11.2887
G1 X-36.509 Y-37.511 E11.40129
G1 X-36.149 Y-37.62 E11.42005
G1 X-33.943 Y-38.138 E11.5331
G1 X-33.569 Y-38.201 E11.55203
G1 X-31.32 Y-38.436 E11.66484
G1 X-30.946 Y-38.451 E11.68351
G1 X-28.689 Y-38.404 E11.79614
G1 X-28.313 Y-38.373 E11.81496
G1 X-26.077 Y-38.043 E11.92773
G1 X-25.709 Y-37.965 E11.94649
G1 X-23.527 Y-37.356 E12.05951
G1 X-23.172 Y-37.232 E12.07827
G1 X-21.093 Y-36.359 E12.19077
G1 X-20.753 Y-36.191 E12.20969
G1 X-18.795 Y-35.06 E12.3225
G1 X-18.482 Y-34.851 E12.34128
G1 X-16.682 Y-33.484 E12.45404
G1 X-16.397 Y-33.238 E12.47282
G1 X-14.782 Y-31.656 E12.58561
G1 X-14.53 Y-31.376 E12.60441
G1 X-13.125 Y-29.603 E12.71727
G1 X-12.911 Y-29.296 E12.73594
G1 X-11.74 Y-27.365 E12.84861
G1 X-11.565 Y-27.03 E12.86746
G1 X-10.643 Y-24.961 E12.98047
G1 X-10.511 Y-24.606 E12.99937
G1 X-9.86 Y-22.448 E13.11182
G1 X-9.774 Y-22.081 E13.13063
G1 X-9.398 Y-19.853 E13.24336
G1 X-9.359 Y-19.481 E13.26202
G1 X-9.263 Y-17.217 E13.37507
G1 X-9.27 Y-16.84 E13.39388
G1 X-9.458 Y-14.596 E13.50623
G1 X-9.519 Y-14.196 E13.52641
G1 X-9.572 Y-13.956 E13.53868
G0 F7800 X-10.027 Y-13.757
G1 F1800 X49.295 Y20.492 E16.9561
G1 X49.668 Y20.754 E16.97884
G1 X49.99 Y21.076 E17.00156
G1 X50.25 Y21.45 E17.02428
G1 X50.442 Y21.864 E17.04705
G1 X50.558 Y22.304 E17.06975
G1 X50.595 Y22.759 E17.09253
G1 X50.552 Y23.212 E17.11523
G1 X50.431 Y23.651 E17.13795
G1 X50.247 Y24.044 E17.1596
G1 X45.947 Y31.492 E17.58866
G1 X45.685 Y31.865 E17.6114
G1 X45.363 Y32.187 E17.63412
G1 X44.989 Y32.447 E17.65684
G1 X44.575 Y32.639 E17.67961
G1 X44.135 Y32.755 E17.70231
G1 X43.68 Y32.792 E17.72509
G1 X43.227 Y32.749 E17.74779
G1 X42.788 Y32.628 E17.77051
G1 X42.395 Y32.444 E17.79216
G1 X-16.928 Y-1.806 E21.20965
G1 X-17.326 Y-1.441 E21.23659
G1 X-17.598 Y-1.223 E21.25398
G1 X-19.445 Y.061 E21.36621
G1 X-19.723 Y.23 E21.38244
G1 X-21.729 Y1.28 E21.4954
G1 X-22.029 Y1.413 E21.51177
G1 X-24.144 Y2.199 E21.62434
G1 X-24.455 Y2.293 E21.64055
G1 X-26.66 Y2.811 E21.75355
G1 X-26.985 Y2.866 E21.77
G1 X-29.234 Y3.101 E21.88281
G1 X-29.558 Y3.114 E21.89899
G1 X-31.815 Y3.067 E22.01161
G1 X-32.142 Y3.04 E22.02798
G1 X-34.379 Y2.709 E22.1408
G1 X-34.695 Y2.642 E22.15692
G1 X-36.877 Y2.035 E22.26991
G1 X-37.188 Y1.927 E22.28634
G1 X-39.269 Y1.052 E22.39896
G1 X-39.562 Y.906 E22.4153
G1 X-41.517 Y-.224 E22.52795
G1 X-41.787 Y-.403 E22.54411
G1 X-43.588 Y-1.769 E22.65689
G1 X-43.837 Y-1.984 E22.6733
G1 X-45.454 Y-3.569 E22.78627
G1 X-45.672 Y-3.811 E22.80252
G1 X-47.075 Y-5.581 E22.9152
G1 X-47.261 Y-5.849 E22.93147
G1 X-48.433 Y-7.783 E23.04429
G1 X-48.584 Y-8.073 E23.06061
G1 X-49.505 Y-10.142 E23.17359
G1 X-49.619 Y-10.447 E23.18984
G1 X-50.271 Y-12.606 E23.30236
G1 X-50.346 Y-12.926 E23.31875
G1 X-50.721 Y-15.153 E23.43142
G1 X-50.755 Y-15.476 E23.44763
G1 X-50.85 Y-17.738 E23.56058
G1 X-50.843 Y-18.064 E23.57685
G1 X-50.655 Y-20.308 E23.68919
G1 X-50.607 Y-20.632 E23.70553
G1 X-50.135 Y-22.85 E23.81867
G1 X-50.048 Y-23.163 E23.83487
G1 X-49.305 Y-25.299 E23.9477
G1 X-49.178 Y-25.601 E23.96405
G1 X-48.177 Y-27.618 E24.07639
G1 X-48.014 Y-27.901 E24.09268
G1 X-46.756 Y-29.795 E24.20612
G1 X-46.558 Y-30.055 E24.22242
G1 X-45.088 Y-31.757 E24.33462
G1 X-44.86 Y-31.99 E24.35089
G1 X-43.172 Y-33.511 E24.46424
G1 X-42.916 Y-33.714 E24.48054
G1 X-41.068 Y-34.998 E24.59281
G1 X-40.789 Y-35.167 E24.60909
G1 X-38.783 Y-36.216 E24.72202
G1 X-38.485 Y-36.349 E24.7383
G1 X-36.37 Y-37.136 E24.85089
G1 X-36.057 Y-37.23 E24.86719
G1 X-33.851 Y-37.748 E24.98025
G1 X-33.527 Y-37.803 E24.99664
G1 X-31.278 Y-38.038 E25.10946
G1 X-30.954 Y-38.051 E25.12563
G1 X-28.697 Y-38.004 E25.23826
G1 X-28.371 Y-37.977 E25.25458
G1 X-26.135 Y-37.647 E25.36734
G1 X-25.816 Y-37.579 E25.38361
G1 X-23.634 Y-36.97 E25.49664
G1 X-23.326 Y-36.863 E25.5129
G1 X-21.247 Y-35.99 E25.6254
G1 X-20.954 Y-35.844 E25.64173
G1 X-18.996 Y-34.713 E25.75454
G1 X-18.724 Y-34.533 E25.77081
G1 X-16.924 Y-33.166 E25.88358
G1 X-16.677 Y-32.952 E25.89988
G1 X-15.062 Y-31.37 E26.01267
G1 X-14.843 Y-31.128 E26.02895
G1 X-13.438 Y-29.355 E26.14182
G1 X-13.253 Y-29.088 E26.15802
G1 X-12.082 Y-27.157 E26.27069
G1 X-11.93 Y-26.867 E26.28702
G1 X-11.008 Y-24.798 E26.40003
G1 X-10.894 Y-24.491 E26.41637
G1 X-10.243 Y-22.333 E26.52883
G1 X-10.168 Y-22.015 E26.54513
G1 X-9.792 Y-19.787 E26.65785
G1 X-9.758 Y-19.464 E26.67406
G1 X-9.662 Y-17.2 E26.78711
G1 X-9.669 Y-16.873 E26.80343
G1 X-9.857 Y-14.629 E26.91577
G1 X-9.91 Y-14.283 E26.93324
G1 X-10.027 Y-13.757 E26.96012
G0 F7800 X-10.48 Y-13.556
G1 F1800 X49.095 Y20.839 E30.39212
G1 X49.436 Y21.082 E30.41301
G1 X49.725 Y21.385 E30.4339
G1 X49.952 Y21.738 E30.45483
G1 X50.107 Y22.127 E30.47573
G1 X50.185 Y22.539 E30.49665
G1 X50.185 Y22.958 E30.51755
G1 X50.104 Y23.369 E30.53845
G1 X49.9 Y23.844 E30.56424
G1 X45.6 Y31.292 E30.9933
G1 X45.357 Y31.633 E31.01419
G1 X45.054 Y31.922 E31.03508
G1 X44.701 Y32.149 E31.05602
G1 X44.312 Y32.304 E31.07691
G1 X43.9 Y32.382 E31.09783
G1 X43.481 Y32.382 E31.11874
G1 X43.07 Y32.301 E31.13964
G1 X42.595 Y32.097 E31.16543
G1 X-16.981 Y-2.299 E34.59749
G1 X-17.596 Y-1.736 E34.63909
G1 X-17.826 Y-1.552 E34.65378
G1 X-19.673 Y-.268 E34.76601
G1 X-19.909 Y-.125 E34.77978
G1 X-21.915 Y.925 E34.89274
G1 X-22.169 Y1.038 E34.90661
G1 X-24.284 Y1.824 E35.01917
G1 X-24.547 Y1.904 E35.03289
G1 X-26.752 Y2.422 E35.14589
G1 X-27.026 Y2.468 E35.15975
G1 X-29.275 Y2.703 E35.27257
G1 X-29.55 Y2.715 E35.2863
G1 X-31.807 Y2.668 E35.39893
G1 X-32.083 Y2.644 E35.41275
G1 X-34.32 Y2.313 E35.52557
G1 X-34.588 Y2.257 E35.53923
G1 X-36.77 Y1.65 E35.65222
G1 X-37.033 Y1.558 E35.66612
G1 X-39.114 Y.683 E35.77875
G1 X-39.362 Y.56 E35.79256
G1 X-41.317 Y-.57 E35.90521
G1 X-41.545 Y-.722 E35.91889
G1 X-43.346 Y-2.088 E36.03166
G1 X-43.557 Y-2.27 E36.04556
G1 X-45.174 Y-3.855 E36.15853
G1 X-45.358 Y-4.059 E36.17223
G1 X-46.761 Y-5.829 E36.28491
G1 X-46.918 Y-6.056 E36.29868
G1 X-48.09 Y-7.99 E36.41151
G1 X-48.219 Y-8.235 E36.42532
G1 X-49.14 Y-10.304 E36.53831
G1 X-49.236 Y-10.563 E36.55209
G1 X-49.888 Y-12.722 E36.66461
G1 X-49.951 Y-12.993 E36.67849
G1 X-50.326 Y-15.22 E36.79116
G1 X-50.355 Y-15.493 E36.80485
G1 X-50.45 Y-17.755 E36.9178
G1 X-50.444 Y-18.031 E36.93158
G1 X-50.256 Y-20.275 E37.04392
G1 X-50.216 Y-20.549 E37.05774
G1 X-49.744 Y-22.767 E37.17087
G1 X-49.67 Y-23.032 E37.1846
G1 X-48.927 Y-25.168 E37.29743
G1 X-48.82 Y-25.423 E37.31122
G1 X-47.819 Y-27.44 E37.42356
G1 X-47.681 Y-27.679 E37.43733
G1 X-46.423 Y-29.573 E37.55077
G1 X-46.255 Y-29.794 E37.56462
G1 X-44.785 Y-31.496 E37.67682
G1 X-44.593 Y-31.692 E37.69051
G1 X-42.905 Y-33.213 E37.80387
G1 X-42.687 Y-33.386 E37.81775
G1 X-40.839 Y-34.67 E37.93002
G1 X-40.603 Y-34.813 E37.94378
G1 X-38.597 Y-35.862 E38.05672
G1 X-38.345 Y-35.974 E38.07048
G1 X-36.23 Y-36.761 E38.18307
G1 X-35.966 Y-36.841 E38.19683
G1 X-33.76 Y-37.359 E38.30988
G1 X-33.486 Y-37.405 E38.32374
G1 X-31.237 Y-37.64 E38.43655
G1 X-30.962 Y-37.652 E38.45029
G1 X-28.705 Y-37.605 E38.56291
G1 X-28.43 Y-37.581 E38.57669
G1 X-26.194 Y-37.251 E38.68945
G1 X-25.924 Y-37.194 E38.70322
G1 X-23.742 Y-36.585 E38.81624
G1 X-23.481 Y-36.494 E38.83003
G1 X-21.402 Y-35.621 E38.94252
G1 X-21.154 Y-35.498 E38.95633
G1 X-19.196 Y-34.367 E39.06914
G1 X-18.965 Y-34.214 E39.08297
G1 X-17.165 Y-32.847 E39.19573
G1 X-16.957 Y-32.667 E39.20945
G1 X-15.342 Y-31.085 E39.32224
G1 X-15.157 Y-30.879 E39.33606
G1 X-13.752 Y-29.106 E39.44892
G1 X-13.595 Y-28.881 E39.46261
G1 X-12.424 Y-26.95 E39.57527
G1 X-12.295 Y-26.704 E39.58913
G1 X-11.373 Y-24.635 E39.70214
G1 X-11.277 Y-24.375 E39.71597
G1 X-10.626 Y-22.217 E39.82842
G1 X-10.563 Y-21.948 E39.84221
G1 X-10.187 Y-19.72 E39.95493
G1 X-10.158 Y-19.447 E39.96863
G1 X-10.062 Y-17.183 E40.08168
G1 X-10.068 Y-16.906 E40.09551
G1 X-10.256 Y-14.662 E40.20785
G1 X-10.3 Y-14.369 E40.22263
G1 X-10.48 Y-13.556 E40.26418
G0 F7800 X-10.935 Y-13.357
G1 F1800 X48.895 Y21.185 E43.71086
G1 X49.201 Y21.408 E43.72975
G1 X49.454 Y21.69 E43.74865
G1 X49.643 Y22.019 E43.76758
G1 X49.758 Y22.38 E43.78648
G1 X49.795 Y22.757 E43.80538
G1 X49.752 Y23.134 E43.82431
G1 X49.554 Y23.644 E43.8516
G1 X45.254 Y31.092 E44.28067
G1 X45.031 Y31.398 E44.29956
G1 X44.749 Y31.651 E44.31846
G1 X44.42 Y31.84 E44.33739
G1 X44.059 Y31.955 E44.35629
G1 X43.682 Y31.992 E44.37519
G1 X43.305 Y31.949 E44.39412
G1 X42.795 Y31.751 E44.42141
G1 X-17.035 Y-2.792 E47.86812
G1 X-17.866 Y-2.031 E47.92433
G1 X-18.055 Y-1.88 E47.9364
G1 X-19.902 Y-.596 E48.04863
G1 X-20.094 Y-.479 E48.05985
G1 X-22.1 Y.571 E48.17281
G1 X-22.308 Y.663 E48.18415
G1 X-24.423 Y1.449 E48.29672
G1 X-24.638 Y1.514 E48.30793
G1 X-26.843 Y2.032 E48.42093
G1 X-27.068 Y2.07 E48.43232
G1 X-29.317 Y2.305 E48.54513
G1 X-29.541 Y2.315 E48.55632
G1 X-31.798 Y2.268 E48.66894
G1 X-32.024 Y2.249 E48.68026
G1 X-34.261 Y1.918 E48.79308
G1 X-34.48 Y1.871 E48.80425
G1 X-36.662 Y1.264 E48.91725
G1 X-36.878 Y1.189 E48.92865
G1 X-38.959 Y.314 E49.04128
G1 X-39.162 Y.213 E49.05259
G1 X-41.117 Y-.917 E49.16525
G1 X-41.304 Y-1.041 E49.17644
G1 X-43.105 Y-2.407 E49.28922
G1 X-43.277 Y-2.556 E49.30057
G1 X-44.894 Y-4.141 E49.41353
G1 X-45.045 Y-4.308 E49.42477
G1 X-46.448 Y-6.078 E49.53745
G1 X-46.576 Y-6.263 E49.54867
G1 X-47.748 Y-8.197 E49.66149
G1 X-47.853 Y-8.398 E49.67281
G1 X-48.774 Y-10.467 E49.7858
G1 X-48.853 Y-10.679 E49.79708
G1 X-49.505 Y-12.838 E49.9096
G1 X-49.557 Y-13.059 E49.92093
G1 X-49.932 Y-15.286 E50.0336
G1 X-49.955 Y-15.509 E50.04478
G1 X-50.05 Y-17.771 E50.15773
G1 X-50.046 Y-17.997 E50.16901
G1 X-49.858 Y-20.241 E50.28135
G1 X-49.825 Y-20.466 E50.2927
G1 X-49.353 Y-22.684 E50.40583
G1 X-49.292 Y-22.9 E50.41703
G1 X-48.549 Y-25.036 E50.52986
G1 X-48.461 Y-25.245 E50.54117
G1 X-47.46 Y-27.262 E50.65351
G1 X-47.347 Y-27.458 E50.6648
G1 X-46.089 Y-29.352 E50.77824
G1 X-45.952 Y-29.533 E50.78956
G1 X-44.482 Y-31.235 E50.90176
G1 X-44.325 Y-31.395 E50.91295
G1 X-42.637 Y-32.916 E51.02631
G1 X-42.459 Y-33.057 E51.03763
G1 X-40.611 Y-34.341 E51.1499
G1 X-40.418 Y-34.458 E51.16116
G1 X-38.412 Y-35.507 E51.2741
G1 X-38.206 Y-35.599 E51.28535
G1 X-36.091 Y-36.386 E51.39794
G1 X-35.874 Y-36.451 E51.40924
G1 X-33.668 Y-36.969 E51.52229
G1 X-33.444 Y-37.007 E51.53363
G1 X-31.195 Y-37.242 E51.64644
G1 X-30.971 Y-37.252 E51.65763
G1 X-28.714 Y-37.205 E51.77026
G1 X-28.488 Y-37.186 E51.78157
G1 X-26.252 Y-36.856 E51.89433
G1 X-26.031 Y-36.809 E51.90561
G1 X-23.849 Y-36.2 E52.01863
G1 X-23.636 Y-36.126 E52.02988
G1 X-21.557 Y-35.253 E52.14237
G1 X-21.354 Y-35.152 E52.15368
G1 X-19.396 Y-34.021 E52.26649
G1 X-19.207 Y-33.895 E52.27783
G1 X-17.407 Y-32.528 E52.39059
G1 X-17.236 Y-32.381 E52.40184
G1 X-15.621 Y-30.799 E52.51463
G1 X-15.47 Y-30.631 E52.5259
G1 X-14.065 Y-28.858 E52.63876
G1 X-13.937 Y-28.673 E52.64998
G1 X-12.766 Y-26.742 E52.76265
G1 X-12.661 Y-26.542 E52.77392
G1 X-11.739 Y-24.473 E52.88693
G1 X-11.66 Y-24.26 E52.89826
G1 X-11.009 Y-22.102 E53.01072
G1 X-10.957 Y-21.882 E53.022
G1 X-10.581 Y-19.654 E53.13472
G1 X-10.558 Y-19.43 E53.14596
G1 X-10.462 Y-17.166 E53.25901
G1 X-10.466 Y-16.94 E53.27029
G1 X-10.654 Y-14.696 E53.38263
G1 X-10.691 Y-14.456 E53.39475
G1 X-10.935 Y-13.357 E53.45091
G0 F7800 X-11.389 Y-13.157
G1 F1800 X48.695 Y21.532 E56.91223
G1 X48.962 Y21.732 E56.92888
G1 X49.175 Y21.99 E56.94557
G1 X49.32 Y22.291 E56.96224
G1 X49.389 Y22.618 E56.97891
G1 X49.38 Y22.951 E56.99553
G1 X49.291 Y23.274 E57.01225
G1 X49.207 Y23.444 E57.02171
G1 X44.907 Y30.892 E57.45077
G1 X44.707 Y31.159 E57.46741
G1 X44.449 Y31.372 E57.4841
G1 X44.148 Y31.517 E57.50077
G1 X43.821 Y31.586 E57.51745
G1 X43.488 Y31.577 E57.53407
G1 X43.165 Y31.488 E57.55078
G1 X42.995 Y31.404 E57.56024
G1 X-17.089 Y-3.286 E61.02159
G1 X-18.136 Y-2.326 E61.09246
G1 X-18.283 Y-2.208 E61.10186
G1 X-20.13 Y-.924 E61.21409
G1 X-20.28 Y-.834 E61.22281
G1 X-22.286 Y.216 E61.33577
G1 X-22.447 Y.288 E61.34457
G1 X-24.562 Y1.074 E61.45714
G1 X-24.73 Y1.125 E61.4659
G1 X-26.935 Y1.643 E61.5789
G1 X-27.11 Y1.672 E61.58775
G1 X-29.359 Y1.907 E61.70057
G1 X-29.533 Y1.915 E61.70926
G1 X-31.79 Y1.868 E61.82188
G1 X-31.966 Y1.853 E61.8307
G1 X-34.203 Y1.522 E61.94352
G1 X-34.373 Y1.486 E61.95219
G1 X-36.555 Y.879 E62.06518
G1 X-36.723 Y.821 E62.07405
G1 X-38.804 Y-.054 E62.18667
G1 X-38.962 Y-.133 E62.19549
G1 X-40.917 Y-1.263 E62.30814
G1 X-41.062 Y-1.36 E62.31685
G1 X-42.863 Y-2.726 E62.42962
G1 X-42.997 Y-2.841 E62.43843
G1 X-44.614 Y-4.426 E62.55139
G1 X-44.731 Y-4.556 E62.56012
G1 X-46.134 Y-6.326 E62.6728
G1 X-46.234 Y-6.47 E62.68155
G1 X-47.406 Y-8.404 E62.79437
G1 X-47.488 Y-8.561 E62.80321
G1 X-48.409 Y-10.63 E62.91619
G1 X-48.47 Y-10.794 E62.92492
G1 X-49.122 Y-12.953 E63.03744
G1 X-49.163 Y-13.126 E63.04631
G1 X-49.538 Y-15.353 E63.15898
G1 X-49.556 Y-15.526 E63.16766
G1 X-49.651 Y-17.788 E63.28061
G1 X-49.647 Y-17.964 E63.28939
G1 X-49.459 Y-20.208 E63.40174
G1 X-49.433 Y-20.382 E63.41052
G1 X-48.961 Y-22.6 E63.52365
G1 X-48.914 Y-22.769 E63.5324
G1 X-48.171 Y-24.905 E63.64523
G1 X-48.103 Y-25.067 E63.654
G1 X-47.102 Y-27.084 E63.76633
G1 X-47.014 Y-27.237 E63.77514
G1 X-45.756 Y-29.131 E63.88858
G1 X-45.65 Y-29.271 E63.89734
G1 X-44.18 Y-30.973 E64.00954
G1 X-44.057 Y-31.098 E64.01829
G1 X-42.369 Y-32.619 E64.13165
G1 X-42.231 Y-32.729 E64.14045
G1 X-40.383 Y-34.013 E64.25272
G1 X-40.233 Y-34.104 E64.26147
G1 X-38.227 Y-35.153 E64.37441
