;FLAVOR:RepRap
;TIME:11178
;Generated with Cura_SteamEngine 2.3.0
M104 S200
M109 S200
G21 ;metric values
G90 ;absolute positioning
M82 ;set extruder to absolute mode
M107 ;start with the fan off
G28 ;Home all axes (max endstops)
G1 Z15.0 F9000 ;move the platform down 15mm
G92 E0 ;zero the extruded length
G1 F200 E3 ;extrude 3mm of feed stock
G92 E0 ;zero the extruded length again
G1 F9000
;Put printing message on LCD screen
M117 Printing...
;LAYER_COUNT:71
;LAYER:0
M107
G1 F1500 E-6.5
G0 F7800 X8.114 Y-3.978 Z.3
;TYPE:SKIRT
G1 F1500 E0
G1 F1800 X.611 Y9.016 E0.74858
G1 X24.89 Y29.389 E2.32982
G1 X25.238 Y29.733 E2.35423
G1 X25.526 Y30.129 E2.37866
G1 X25.745 Y30.567 E2.40309
G1 X25.89 Y31.034 E2.42749
G1 X25.957 Y31.519 E2.45191
G1 X25.945 Y32.009 E2.47637
G1 X25.853 Y32.489 E2.50075
G1 X25.684 Y32.949 E2.5252
G1 X25.442 Y33.375 E2.54964
G1 X25.26 Y33.616 E2.56471
G1 X22.496 Y36.909 E2.7792
G1 X22.697 Y37.311 E2.80162
G1 X22.842 Y37.779 E2.82607
G1 X22.909 Y38.263 E2.85045
G1 X22.897 Y38.753 E2.8749
G1 X22.805 Y39.233 E2.89928
G1 X22.636 Y39.693 E2.92373
G1 X22.394 Y40.119 E2.94817
G1 X22.212 Y40.36 E2.96324
G1 X18.355 Y44.956 E3.26258
G1 X18.011 Y45.304 E3.28699
G1 X17.94 Y45.356 E3.29138
G1 X17.814 Y45.577 E3.30408
G1 X17.632 Y45.818 E3.31914
G1 X13.775 Y50.414 E3.61848
G1 X13.431 Y50.762 E3.6429
G1 X13.035 Y51.049 E3.66729
G1 X12.597 Y51.268 E3.69173
G1 X12.129 Y51.413 E3.71617
G1 X11.645 Y51.48 E3.74055
G1 X11.155 Y51.468 E3.765
G1 X10.674 Y51.376 E3.78943
G1 X10.432 Y51.287 E3.8023
G1 X7.663 Y54.586 E4.01718
G1 X7.319 Y54.934 E4.04159
G1 X6.923 Y55.221 E4.06599
G1 X6.485 Y55.44 E4.09042
G1 X6.017 Y55.585 E4.11486
G1 X5.533 Y55.652 E4.13924
G1 X5.043 Y55.64 E4.16369
G1 X4.562 Y55.548 E4.18813
G1 X4.103 Y55.379 E4.21253
G1 X3.677 Y55.137 E4.23697
G1 X3.437 Y54.955 E4.252
G1 X2.671 Y54.312 E4.30189
G1 X.02 Y57.472 E4.50768
G1 X-.324 Y57.82 E4.53209
G1 X-.72 Y58.108 E4.55652
G1 X-1.158 Y58.327 E4.58095
G1 X-1.625 Y58.472 E4.60535
G1 X-2.11 Y58.539 E4.62977
G1 X-2.599 Y58.527 E4.65418
G1 X-3.08 Y58.435 E4.67861
G1 X-3.54 Y58.266 E4.70306
G1 X-3.965 Y58.024 E4.72746
G1 X-4.206 Y57.842 E4.74253
G1 X-22.517 Y42.477 E5.93507
G1 X-22.787 Y42.558 E5.94914
G1 X-23.155 Y42.643 E5.96798
G1 X-24.208 Y42.82 E6.02125
G1 X-24.576 Y42.859 E6.03971
G1 X-25.647 Y42.905 E6.0932
G1 X-26.031 Y42.897 E6.11236
G1 X-27.087 Y42.807 E6.16523
G1 X-27.453 Y42.753 E6.18369
G1 X-28.503 Y42.531 E6.23723
G1 X-28.872 Y42.428 E6.25635
G1 X-29.882 Y42.075 E6.30972
G1 X-30.223 Y41.931 E6.32819
G1 X-31.178 Y41.458 E6.38136
G1 X-31.347 Y41.368 E6.39091
G1 X-57.326 Y26.369 E7.88752
G1 X-57.729 Y26.091 E7.91194
G1 X-58.08 Y25.75 E7.93636
G1 X-58.372 Y25.357 E7.96078
G1 X-58.596 Y24.922 E7.9852
G1 X-58.747 Y24.456 E8.00963
G1 X-58.819 Y23.972 E8.03405
G1 X-58.812 Y23.483 E8.05845
G1 X-58.726 Y23.001 E8.08287
G1 X-58.562 Y22.54 E8.10728
G1 X-58.424 Y22.271 E8.12237
G1 X-9.924 Y-61.733 E12.9617
G1 X-9.646 Y-62.136 E12.98612
G1 X-9.305 Y-62.487 E13.01054
G1 X-8.912 Y-62.779 E13.03496
G1 X-8.477 Y-63.003 E13.05937
G1 X-8.011 Y-63.154 E13.08381
G1 X-7.527 Y-63.226 E13.10823
G1 X-7.038 Y-63.219 E13.13262
G1 X-6.556 Y-63.133 E13.15705
G1 X-6.095 Y-62.969 E13.18146
G1 X-5.826 Y-62.831 E13.19655
G1 X20.147 Y-47.834 E14.69284
G1 X20.306 Y-47.736 E14.70216
G1 X21.207 Y-47.138 E14.75611
G1 X21.51 Y-46.907 E14.77512
G1 X22.309 Y-46.216 E14.82782
G1 X22.575 Y-45.956 E14.84638
G1 X23.297 Y-45.155 E14.90018
G1 X23.533 Y-44.858 E14.9191
G1 X24.136 Y-43.99 E14.97183
G1 X24.33 Y-43.67 E14.9905
G1 X24.827 Y-42.721 E15.04395
G1 X24.981 Y-42.375 E15.06284
G1 X25.352 Y-41.378 E15.11592
G1 X25.461 Y-41.017 E15.13473
G1 X25.526 Y-40.74 E15.14892
G1 X47.99 Y-32.565 E16.34156
G1 X48.435 Y-32.361 E16.36599
G1 X48.84 Y-32.087 E16.39038
G1 X49.196 Y-31.75 E16.41484
G1 X49.492 Y-31.361 E16.43923
G1 X49.721 Y-30.928 E16.46366
G1 X49.877 Y-30.464 E16.48809
G1 X49.955 Y-29.981 E16.51249
G1 X49.953 Y-29.491 E16.53694
G1 X49.872 Y-29.009 E16.56132
G1 X49.783 Y-28.72 E16.57641
G1 X48.372 Y-24.843 E16.78225
G1 X49.311 Y-24.501 E16.8321
G1 X49.756 Y-24.297 E16.85653
G1 X50.161 Y-24.023 E16.88092
G1 X50.517 Y-23.687 E16.90535
G1 X50.813 Y-23.297 E16.92977
G1 X51.042 Y-22.864 E16.95421
G1 X51.198 Y-22.4 E16.97863
G1 X51.276 Y-21.917 E17.00304
G1 X51.274 Y-21.428 E17.02744
G1 X51.193 Y-20.945 E17.05187
G1 X51.104 Y-20.657 E17.06691
G1 X49.634 Y-16.616 E17.28144
G1 X49.96 Y-16.308 E17.30382
G1 X50.256 Y-15.918 E17.32824
G1 X50.485 Y-15.485 E17.35268
G1 X50.641 Y-15.021 E17.3771
G1 X50.719 Y-14.538 E17.40151
G1 X50.717 Y-14.049 E17.42591
G1 X50.636 Y-13.566 E17.45034
G1 X50.547 Y-13.278 E17.46538
G1 X48.496 Y-7.639 E17.76474
G1 X48.292 Y-7.194 E17.78917
G1 X48.24 Y-7.117 E17.7938
G1 X48.199 Y-6.871 E17.80624
G1 X48.11 Y-6.583 E17.82128
G1 X46.059 Y-.944 E18.12064
G1 X45.855 Y-.499 E18.14507
G1 X45.581 Y-.093 E18.1695
G1 X45.245 Y.263 E18.19393
G1 X44.855 Y.559 E18.21835
G1 X44.423 Y.788 E18.24275
G1 X43.959 Y.944 E18.26717
G1 X43.475 Y1.022 E18.29163
G1 X43.215 Y1.021 E18.3046
G1 X41.743 Y5.067 E18.5194
G1 X41.539 Y5.511 E18.54377
G1 X41.265 Y5.917 E18.56821
G1 X40.929 Y6.273 E18.59263
G1 X40.539 Y6.569 E18.61706
G1 X40.107 Y6.798 E18.64145
G1 X39.642 Y6.954 E18.66592
G1 X39.159 Y7.032 E18.69033
G1 X38.67 Y7.03 E18.71473
G1 X38.187 Y6.949 E18.73916
G1 X37.898 Y6.86 E18.75425
G1 X8.114 Y-3.978 E20.3355
G0 F7800 X7.936 Y-4.469
G1 F1800 X.097 Y9.107 E21.11761
G1 X24.633 Y29.695 E22.71556
G1 X24.955 Y30.018 E22.73832
G1 X25.216 Y30.391 E22.76103
G1 X25.408 Y30.805 E22.7838
G1 X25.524 Y31.245 E22.8065
G1 X25.562 Y31.699 E22.82923
G1 X25.52 Y32.153 E22.85198
G1 X25.399 Y32.592 E22.87469
G1 X25.204 Y33.004 E22.89744
G1 X24.954 Y33.358 E22.91906
G1 X21.994 Y36.886 E23.14881
G1 X22.168 Y37.135 E23.16397
G1 X22.36 Y37.549 E23.18674
G1 X22.476 Y37.989 E23.20944
G1 X22.514 Y38.443 E23.23217
G1 X22.472 Y38.897 E23.25491
G1 X22.351 Y39.336 E23.27763
G1 X22.156 Y39.748 E23.30037
G1 X21.906 Y40.102 E23.322
G1 X18.049 Y44.698 E23.62134
G1 X17.726 Y45.02 E23.64409
G1 X17.633 Y45.085 E23.64975
G1 X17.576 Y45.206 E23.65642
G1 X17.326 Y45.56 E23.67804
G1 X13.469 Y50.156 E23.97738
G1 X13.146 Y50.478 E24.00014
G1 X12.773 Y50.739 E24.02285
G1 X12.359 Y50.931 E24.04562
G1 X11.919 Y51.047 E24.06832
G1 X11.465 Y51.085 E24.09105
G1 X11.011 Y51.043 E24.1138
G1 X10.572 Y50.922 E24.13651
G1 X10.317 Y50.801 E24.1506
G1 X7.357 Y54.328 E24.38032
G1 X7.034 Y54.65 E24.40307
G1 X6.661 Y54.911 E24.42578
G1 X6.247 Y55.103 E24.44855
G1 X5.807 Y55.219 E24.47125
G1 X5.353 Y55.257 E24.49398
G1 X4.899 Y55.215 E24.51673
G1 X4.46 Y55.094 E24.53945
G1 X4.048 Y54.899 E24.56219
G1 X3.694 Y54.649 E24.58381
G1 X2.622 Y53.749 E24.65364
G1 X-.286 Y57.215 E24.87936
G1 X-.608 Y57.537 E24.90208
G1 X-.982 Y57.798 E24.92483
G1 X-1.395 Y57.99 E24.94755
G1 X-1.836 Y58.106 E24.9703
G1 X-2.29 Y58.144 E24.99303
G1 X-2.744 Y58.102 E25.01578
G1 X-3.183 Y57.981 E25.0385
G1 X-3.595 Y57.786 E25.06124
G1 X-3.949 Y57.536 E25.08286
G1 X-22.426 Y42.032 E26.28621
G1 X-22.902 Y42.175 E26.31101
G1 X-23.221 Y42.249 E26.32735
G1 X-24.274 Y42.426 E26.38062
G1 X-24.593 Y42.46 E26.39662
G1 X-25.664 Y42.506 E26.4501
G1 X-25.997 Y42.499 E26.46672
G1 X-27.053 Y42.409 E26.5196
G1 X-27.37 Y42.362 E26.53558
G1 X-28.42 Y42.14 E26.58913
G1 X-28.74 Y42.05 E26.60571
G1 X-29.75 Y41.697 E26.65909
G1 X-30.046 Y41.573 E26.6751
G1 X-31.001 Y41.1 E26.72827
G1 X-31.147 Y41.022 E26.73653
G1 X-57.126 Y26.023 E28.23313
G1 X-57.499 Y25.761 E28.25587
G1 X-57.821 Y25.439 E28.27859
G1 X-58.081 Y25.065 E28.30132
G1 X-58.273 Y24.651 E28.32408
G1 X-58.389 Y24.211 E28.34679
G1 X-58.426 Y23.756 E28.36956
G1 X-58.383 Y23.303 E28.39226
G1 X-58.262 Y22.863 E28.41503
G1 X-58.078 Y22.471 E28.43663
G1 X-9.578 Y-61.533 E33.27596
G1 X-9.316 Y-61.906 E33.2987
G1 X-8.994 Y-62.228 E33.32142
G1 X-8.62 Y-62.488 E33.34415
G1 X-8.206 Y-62.68 E33.36692
G1 X-7.766 Y-62.796 E33.38962
G1 X-7.311 Y-62.833 E33.41239
G1 X-6.858 Y-62.79 E33.43509
G1 X-6.418 Y-62.669 E33.45786
G1 X-6.026 Y-62.485 E33.47947
G1 X19.947 Y-47.488 E34.97576
G1 X20.085 Y-47.402 E34.98387
G1 X20.986 Y-46.804 E35.03782
G1 X21.249 Y-46.605 E35.05428
G1 X22.048 Y-45.914 E35.10698
G1 X22.278 Y-45.688 E35.12307
G1 X23 Y-44.887 E35.17687
G1 X23.204 Y-44.629 E35.19328
G1 X23.807 Y-43.761 E35.24601
G1 X23.975 Y-43.484 E35.26217
G1 X24.472 Y-42.535 E35.31561
G1 X24.606 Y-42.236 E35.33196
G1 X24.977 Y-41.239 E35.38503
G1 X25.071 Y-40.926 E35.40134
G1 X25.185 Y-40.438 E35.42634
G1 X47.853 Y-32.189 E36.62981
G1 X48.266 Y-31.996 E36.65255
G1 X48.639 Y-31.735 E36.67526
G1 X48.96 Y-31.412 E36.69798
G1 X49.22 Y-31.038 E36.7207
G1 X49.411 Y-30.624 E36.74345
G1 X49.527 Y-30.183 E36.7662
G1 X49.564 Y-29.729 E36.78893
G1 X49.521 Y-29.275 E36.81168
G1 X49.407 Y-28.857 E36.83329
G1 X47.859 Y-24.603 E37.05914
G1 X49.174 Y-24.125 E37.12895
G1 X49.587 Y-23.933 E37.15167
G1 X49.96 Y-23.671 E37.17441
G1 X50.281 Y-23.348 E37.19713
G1 X50.541 Y-22.974 E37.21985
G1 X50.732 Y-22.56 E37.2426
G1 X50.848 Y-22.119 E37.26535
G1 X50.885 Y-21.665 E37.28808
G1 X50.842 Y-21.212 E37.31078
G1 X50.728 Y-20.793 E37.33244
G1 X49.154 Y-16.467 E37.56211
G1 X49.403 Y-16.292 E37.57729
G1 X49.724 Y-15.969 E37.60001
G1 X49.984 Y-15.595 E37.62274
G1 X50.175 Y-15.181 E37.64548
G1 X50.291 Y-14.74 E37.66823
G1 X50.328 Y-14.286 E37.69096
G1 X50.285 Y-13.833 E37.71366
G1 X50.171 Y-13.414 E37.73532
G1 X48.12 Y-7.775 E38.03469
G1 X47.928 Y-7.362 E38.05741
G1 X47.86 Y-7.265 E38.06332
G1 X47.848 Y-7.138 E38.06968
G1 X47.734 Y-6.719 E38.09135
G1 X45.683 Y-1.08 E38.39071
G1 X45.491 Y-.667 E38.41343
G1 X45.229 Y-.294 E38.43617
G1 X44.906 Y.027 E38.45889
G1 X44.532 Y.287 E38.48162
G1 X44.118 Y.478 E38.50436
G1 X43.678 Y.594 E38.52706
G1 X43.224 Y.631 E38.54979
G1 X42.941 Y.604 E38.56397
G1 X41.367 Y4.93 E38.79364
G1 X41.175 Y5.343 E38.81636
G1 X40.913 Y5.716 E38.8391
G1 X40.59 Y6.037 E38.86182
G1 X40.216 Y6.297 E38.88455
G1 X39.802 Y6.488 E38.90729
G1 X39.362 Y6.604 E38.92999
G1 X38.907 Y6.641 E38.95277
G1 X38.454 Y6.598 E38.97547
G1 X38.035 Y6.484 E38.99714
G1 X7.936 Y-4.469 E40.59512
G0 F7800 X7.757 Y-4.96
G1 F1800 X-.418 Y9.198 E41.41076
G1 X24.376 Y30.002 E43.02549
G1 X24.67 Y30.3 E43.04638
G1 X24.902 Y30.649 E43.06729
G1 X25.063 Y31.036 E43.0882
G1 X25.149 Y31.446 E43.1091
G1 X25.155 Y31.865 E43.13001
G1 X25.081 Y32.278 E43.15094
G1 X24.931 Y32.669 E43.17183
G1 X24.647 Y33.101 E43.19762
G1 X21.469 Y36.888 E43.44427
G1 X21.622 Y37.044 E43.45517
G1 X21.854 Y37.393 E43.47608
G1 X22.016 Y37.78 E43.49701
G1 X22.101 Y38.19 E43.5179
G1 X22.107 Y38.609 E43.53881
G1 X22.033 Y39.022 E43.55974
G1 X21.883 Y39.413 E43.58063
G1 X21.599 Y39.845 E43.60643
G1 X17.742 Y44.441 E43.90577
G1 X17.443 Y44.735 E43.92669
G1 X17.325 Y44.813 E43.93374
G1 X17.303 Y44.871 E43.93684
G1 X17.019 Y45.303 E43.96263
G1 X13.162 Y49.899 E44.26197
G1 X12.863 Y50.193 E44.28289
G1 X12.514 Y50.425 E44.3038
G1 X12.128 Y50.587 E44.32468
G1 X11.718 Y50.672 E44.34557
G1 X11.299 Y50.678 E44.36648
G1 X10.886 Y50.604 E44.38741
G1 X10.495 Y50.454 E44.40831
G1 X10.231 Y50.28 E44.42408
G1 X7.05 Y54.071 E44.67098
G1 X6.751 Y54.365 E44.6919
G1 X6.402 Y54.597 E44.7128
G1 X6.016 Y54.759 E44.73369
G1 X5.606 Y54.844 E44.75458
G1 X5.187 Y54.85 E44.77549
G1 X4.774 Y54.776 E44.79642
G1 X4.383 Y54.626 E44.81731
G1 X3.951 Y54.342 E44.8431
G1 X2.572 Y53.185 E44.93291
G1 X-.593 Y56.958 E45.17861
G1 X-.891 Y57.252 E45.19949
G1 X-1.24 Y57.484 E45.2204
G1 X-1.627 Y57.645 E45.24131
G1 X-2.037 Y57.731 E45.26221
G1 X-2.456 Y57.737 E45.28312
G1 X-2.869 Y57.663 E45.30405
G1 X-3.26 Y57.513 E45.32494
G1 X-3.692 Y57.229 E45.35073
G1 X-22.334 Y41.586 E46.56485
G1 X-23.018 Y41.792 E46.60049
G1 X-23.287 Y41.855 E46.61427
G1 X-24.34 Y42.032 E46.66754
G1 X-24.611 Y42.06 E46.68114
G1 X-25.682 Y42.106 E46.73462
G1 X-25.963 Y42.1 E46.74864
G1 X-27.019 Y42.01 E46.80151
G1 X-27.287 Y41.97 E46.81503
G1 X-28.337 Y41.748 E46.86858
G1 X-28.608 Y41.673 E46.8826
G1 X-29.618 Y41.32 E46.93598
G1 X-29.868 Y41.214 E46.94953
G1 X-30.823 Y40.741 E47.0027
G1 X-30.947 Y40.675 E47.00971
G1 X-56.926 Y25.676 E48.50631
G1 X-57.267 Y25.433 E48.5272
G1 X-57.556 Y25.13 E48.54809
G1 X-57.783 Y24.777 E48.56903
G1 X-57.938 Y24.388 E48.58992
G1 X-58.016 Y23.976 E48.61084
G1 X-58.016 Y23.557 E48.63175
G1 X-57.935 Y23.146 E48.65264
G1 X-57.731 Y22.671 E48.67844
G1 X-9.231 Y-61.333 E53.51777
G1 X-8.988 Y-61.674 E53.53866
G1 X-8.685 Y-61.963 E53.55955
G1 X-8.332 Y-62.19 E53.58048
G1 X-7.943 Y-62.345 E53.60138
G1 X-7.531 Y-62.423 E53.6223
G1 X-7.112 Y-62.423 E53.6432
G1 X-6.701 Y-62.342 E53.6641
G1 X-6.226 Y-62.138 E53.68989
G1 X19.747 Y-47.141 E55.18619
G1 X19.864 Y-47.069 E55.19304
G1 X20.765 Y-46.471 E55.24699
G1 X20.987 Y-46.302 E55.26091
G1 X21.786 Y-45.611 E55.31361
G1 X21.981 Y-45.42 E55.32723
G1 X22.703 Y-44.619 E55.38103
G1 X22.876 Y-44.401 E55.39491
G1 X23.479 Y-43.533 E55.44764
G1 X23.621 Y-43.299 E55.4613
G1 X24.118 Y-42.35 E55.51474
G1 X24.231 Y-42.096 E55.52861
G1 X24.602 Y-41.099 E55.58169
G1 X24.682 Y-40.835 E55.59545
G1 X24.846 Y-40.136 E55.63127
G1 X47.716 Y-31.813 E56.84547
G1 X48.095 Y-31.633 E56.8664
G1 X48.432 Y-31.385 E56.88727
G1 X48.716 Y-31.076 E56.90821
G1 X48.937 Y-30.72 E56.92912
G1 X49.085 Y-30.328 E56.95002
G1 X49.157 Y-29.916 E56.97089
G1 X49.15 Y-29.497 E56.9918
G1 X49.031 Y-28.994 E57.01758
G1 X47.346 Y-24.364 E57.2634
G1 X49.037 Y-23.749 E57.35317
G1 X49.416 Y-23.569 E57.3741
G1 X49.753 Y-23.321 E57.39497
G1 X50.037 Y-23.013 E57.41588
G1 X50.258 Y-22.656 E57.43682
G1 X50.406 Y-22.265 E57.45768
G1 X50.478 Y-21.852 E57.4786
G1 X50.471 Y-21.433 E57.4995
G1 X50.352 Y-20.93 E57.52529
G1 X48.662 Y-16.284 E57.77194
G1 X48.859 Y-16.19 E57.78283
G1 X49.196 Y-15.942 E57.8037
G1 X49.48 Y-15.634 E57.82461
G1 X49.701 Y-15.277 E57.84555
G1 X49.849 Y-14.886 E57.86641
G1 X49.921 Y-14.473 E57.88733
G1 X49.914 Y-14.054 E57.90823
G1 X49.795 Y-13.551 E57.93402
G1 X47.744 Y-7.912 E58.23338
G1 X47.564 Y-7.534 E58.25427
G1 X47.478 Y-7.417 E58.26151
G1 X47.477 Y-7.359 E58.26441
G1 X47.358 Y-6.856 E58.2902
G1 X45.307 Y-1.217 E58.58956
G1 X45.127 Y-.839 E58.61044
G1 X44.879 Y-.501 E58.63136
G1 X44.571 Y-.217 E58.65226
G1 X44.215 Y.003 E58.67314
G1 X43.823 Y.152 E58.69406
G1 X43.41 Y.224 E58.71498
G1 X42.991 Y.217 E58.73588
G1 X42.682 Y.144 E58.75172
G1 X40.991 Y4.793 E58.99853
G1 X40.811 Y5.171 E59.01942
G1 X40.563 Y5.509 E59.04033
G1 X40.255 Y5.793 E59.06124
G1 X39.898 Y6.013 E59.08216
G1 X39.507 Y6.162 E59.10303
G1 X39.094 Y6.234 E59.12395
G1 X38.675 Y6.227 E59.14485
G1 X38.172 Y6.108 E59.17064
G1 X7.757 Y-4.96 E60.7854
G0 F7800 X7.579 Y-5.45
G1 F1800 X-.932 Y9.288 E61.63448
G1 X24.119 Y30.308 E63.26597
G1 X24.382 Y30.581 E63.28488
G1 X24.582 Y30.903 E63.30379
G1 X24.71 Y31.259 E63.32267
G1 X24.761 Y31.635 E63.3416
G1 X24.732 Y32.013 E63.36051
G1 X24.625 Y32.376 E63.37939
G1 X24.341 Y32.844 E63.4067
G1 X20.918 Y36.923 E63.67237
G1 X21.071 Y37.052 E63.68235
G1 X21.334 Y37.325 E63.70126
G1 X21.534 Y37.647 E63.72017
G1 X21.662 Y38.003 E63.73905
G1 X21.713 Y38.379 E63.75798
G1 X21.684 Y38.757 E63.77689
G1 X21.577 Y39.12 E63.79577
G1 X21.293 Y39.588 E63.82308
G1 X17.436 Y44.184 E64.12242
G1 X17.163 Y44.447 E64.14134
G1 X17.007 Y44.544 E64.1505
G1 X16.997 Y44.578 E64.15227
G1 X16.713 Y45.046 E64.17958
G1 X12.856 Y49.642 E64.47892
G1 X12.583 Y49.905 E64.49783
G1 X12.261 Y50.105 E64.51674
G1 X11.905 Y50.233 E64.53562
G1 X11.529 Y50.284 E64.55455
G1 X11.151 Y50.255 E64.57346
G1 X10.788 Y50.148 E64.59234
G1 X10.32 Y49.864 E64.61965
G1 X10.167 Y49.735 E64.62964
G1 X6.744 Y53.814 E64.8953
G1 X6.471 Y54.077 E64.91421
G1 X6.149 Y54.277 E64.93312
G1 X5.793 Y54.405 E64.952
G1 X5.417 Y54.456 E64.97093
G1 X5.039 Y54.427 E64.98984
G1 X4.676 Y54.32 E65.00872
G1 X4.208 Y54.036 E65.03603
G1 X2.523 Y52.622 E65.14578
G1 X-.899 Y56.701 E65.41141
G1 X-1.172 Y56.964 E65.43032
G1 X-1.494 Y57.164 E65.44923
G1 X-1.85 Y57.292 E65.46811
G1 X-2.226 Y57.343 E65.48704
G1 X-2.604 Y57.314 E65.50595
G1 X-2.967 Y57.207 E65.52483
G1 X-3.435 Y56.923 E65.55214
G1 X-22.243 Y41.141 E66.77706
G1 X-23.133 Y41.409 E66.82343
G1 X-23.354 Y41.46 E66.83475
G1 X-24.407 Y41.637 E66.88802
G1 X-24.628 Y41.66 E66.8991
