;FLAVOR:RepRap
;TIME:157
;Generated with Cura_SteamEngine 2.3.0
M104 S200
M109 S200
G21 ;metric values
G90 ;absolute positioning
M82 ;set extruder to absolute mode
M107 ;start with the fan off
G28 ;Home all axes (max endstops)
G1 Z15.0 F9000 ;move the platform down 15mm
G92 E0 ;zero the extruded length
G1 F200 E3 ;extrude 3mm of feed stock
G92 E0 ;zero the extruded length again
G1 F9000
;Put printing message on LCD screen
M117 Printing...
;LAYER_COUNT:10
;LAYER:0
M107
G1 F1500 E-6.5
G0 F7800 X-7.274 Y7.816 Z.3
;TYPE:SKIRT
G1 F1500 E0
G1 F1800 X-8.252 Y6.777 E0.07119
G1 X-8.655 Y6.29 E0.10272
G1 X-8.992 Y5.759 E0.1341
G1 X-9.681 Y4.506 E0.20544
G1 X-9.95 Y3.934 E0.23698
G1 X-10.143 Y3.339 E0.26818
G1 X-10.497 Y1.959 E0.33926
G1 X-10.615 Y1.338 E0.3708
G1 X-10.654 Y.717 E0.40184
G1 X-10.654 Y-.717 E0.47338
G1 X-10.614 Y-1.348 E0.50493
G1 X-10.497 Y-1.959 E0.53596
G1 X-10.143 Y-3.339 E0.60704
G1 X-9.948 Y-3.941 E0.63861
G1 X-9.681 Y-4.506 E0.66979
G1 X-8.992 Y-5.759 E0.74113
G1 X-8.653 Y-6.293 E0.77268
G1 X-8.252 Y-6.777 E0.80404
G1 X-7.274 Y-7.816 E0.87523
G1 X-6.812 Y-8.248 E0.90679
G1 X-6.317 Y-8.608 E0.93732
G1 X-5.113 Y-9.374 E1.00852
G1 X-4.559 Y-9.679 E1.04007
G1 X-3.979 Y-9.909 E1.0712
G1 X-2.614 Y-10.354 E1.14282
G1 X-2.002 Y-10.511 E1.17434
G1 X-1.372 Y-10.59 E1.20602
G1 X.052 Y-10.678 E1.2772
G1 X.684 Y-10.678 E1.30873
G1 X1.296 Y-10.6 E1.33951
G1 X2.697 Y-10.333 E1.41067
G1 X3.309 Y-10.175 E1.4422
G1 X3.893 Y-9.944 E1.47353
G1 X5.181 Y-9.337 E1.54457
G1 X5.734 Y-9.032 E1.57608
G1 X6.232 Y-8.67 E1.60679
G1 X7.339 Y-7.756 E1.67841
G1 X7.8 Y-7.323 E1.70997
G1 X8.201 Y-6.839 E1.74132
G1 X9.041 Y-5.683 E1.81262
G1 X9.379 Y-5.149 E1.84414
G1 X9.647 Y-4.58 E1.87552
G1 X10.171 Y-3.253 E1.9467
G1 X10.365 Y-2.652 E1.97821
G1 X10.481 Y-2.041 E2.00924
G1 X10.659 Y-.625 E2.08044
G1 X10.698 Y.006 E2.11198
G1 X10.659 Y.622 E2.14277
G1 X10.481 Y2.04 E2.21407
G1 X10.363 Y2.661 E2.24561
G1 X10.171 Y3.253 E2.27666
G1 X9.647 Y4.58 E2.34784
G1 X9.378 Y5.152 E2.37937
G1 X9.041 Y5.683 E2.41075
G1 X8.201 Y6.839 E2.48204
G1 X7.798 Y7.326 E2.51358
G1 X7.339 Y7.756 E2.54496
G1 X6.232 Y8.67 E2.61658
G1 X5.72 Y9.04 E2.64809
G1 X5.181 Y9.337 E2.67879
G1 X3.893 Y9.944 E2.74983
G1 X3.305 Y10.177 E2.78139
G1 X2.697 Y10.333 E2.8127
G1 X1.296 Y10.6 E2.88386
G1 X.669 Y10.678 E2.91538
G1 X.052 Y10.678 E2.94616
G1 X-1.372 Y10.59 E3.01734
G1 X-2 Y10.512 E3.04891
G1 X-2.614 Y10.354 E3.08054
G1 X-3.979 Y9.909 E3.15217
G1 X-4.566 Y9.675 E3.1837
G1 X-5.113 Y9.374 E3.21485
G1 X-6.317 Y8.608 E3.28604
G1 X-6.828 Y8.235 E3.3176
G1 X-7.274 Y7.816 E3.34813
G0 F7800 X-6.983 Y7.542
G1 F1800 X-7.961 Y6.503 E3.41932
G1 X-8.346 Y6.035 E3.44955
G1 X-8.642 Y5.566 E3.47722
G1 X-9.331 Y4.313 E3.54856
G1 X-9.587 Y3.764 E3.57878
G1 X-9.756 Y3.24 E3.60625
G1 X-10.11 Y1.86 E3.67733
G1 X-10.221 Y1.264 E3.70758
G1 X-10.254 Y.717 E3.73492
G1 X-10.254 Y-.717 E3.80646
G1 X-10.214 Y-1.322 E3.83671
G1 X-10.11 Y-1.86 E3.86405
G1 X-9.756 Y-3.24 E3.93512
G1 X-9.567 Y-3.816 E3.96537
G1 X-9.331 Y-4.313 E3.99282
G1 X-8.642 Y-5.566 E4.06416
G1 X-8.315 Y-6.077 E4.09442
G1 X-7.961 Y-6.503 E4.12206
G1 X-6.983 Y-7.542 E4.19324
G1 X-6.539 Y-7.955 E4.2235
G1 X-6.102 Y-8.27 E4.25037
G1 X-4.898 Y-9.036 E4.32157
G1 X-4.366 Y-9.327 E4.35182
G1 X-3.855 Y-9.528 E4.37921
G1 X-2.49 Y-9.973 E4.45084
G1 X-1.902 Y-10.123 E4.48112
G1 X-1.348 Y-10.191 E4.50896
G1 X.076 Y-10.279 E4.58014
G1 X.683 Y-10.277 E4.61043
G1 X1.221 Y-10.207 E4.63749
G1 X2.622 Y-9.94 E4.70865
G1 X3.209 Y-9.787 E4.73891
G1 X3.722 Y-9.582 E4.76647
G1 X5.01 Y-8.975 E4.83751
G1 X5.54 Y-8.681 E4.86775
G1 X5.978 Y-8.361 E4.89481
G1 X7.085 Y-7.447 E4.96643
G1 X7.526 Y-7.031 E4.99668
G1 X7.877 Y-6.604 E5.02425
G1 X8.717 Y-5.448 E5.09555
G1 X9.041 Y-4.935 E5.12582
G1 X9.275 Y-4.433 E5.15345
G1 X9.799 Y-3.106 E5.22463
G1 X9.984 Y-2.529 E5.25486
G1 X10.084 Y-1.991 E5.28216
G1 X10.262 Y-.575 E5.35336
G1 X10.298 Y.031 E5.38365
G1 X10.262 Y.572 E5.4107
G1 X10.084 Y1.99 E5.48199
G1 X9.969 Y2.585 E5.51223
G1 X9.799 Y3.106 E5.53957
G1 X9.275 Y4.433 E5.61075
G1 X9.015 Y4.982 E5.64106
G1 X8.717 Y5.448 E5.66865
G1 X7.877 Y6.604 E5.73994
G1 X7.489 Y7.07 E5.7702
G1 X7.085 Y7.447 E5.79776
G1 X5.978 Y8.361 E5.86938
G1 X5.486 Y8.716 E5.89965
G1 X5.01 Y8.975 E5.92669
G1 X3.722 Y9.582 E5.99773
G1 X3.158 Y9.804 E6.02796
G1 X2.622 Y9.94 E6.05555
G1 X1.221 Y10.207 E6.12671
G1 X.619 Y10.281 E6.15697
G1 X.076 Y10.279 E6.18406
G1 X-1.348 Y10.191 E6.25524
G1 X-1.949 Y10.114 E6.28547
G1 X-2.49 Y9.973 E6.31336
G1 X-3.855 Y9.528 E6.38499
G1 X-4.418 Y9.303 E6.41523
G1 X-4.898 Y9.036 E6.44264
G1 X-6.102 Y8.27 E6.51383
G1 X-6.591 Y7.912 E6.54407
G1 X-6.983 Y7.542 E6.57096
G0 F7800 X-6.691 Y7.268
G1 F1800 X-7.669 Y6.229 E6.64215
G1 X-8.036 Y5.781 E6.67104
G1 X-8.291 Y5.374 E6.695
G1 X-8.98 Y4.121 E6.76634
G1 X-9.224 Y3.595 E6.79527
G1 X-9.368 Y3.141 E6.81903
G1 X-9.722 Y1.761 E6.89011
G1 X-9.827 Y1.191 E6.91903
G1 X-9.854 Y.717 E6.94271
G1 X-9.854 Y-.717 E7.01425
G1 X-9.814 Y-1.295 E7.04316
G1 X-9.722 Y-1.761 E7.06686
G1 X-9.368 Y-3.141 E7.13794
G1 X-9.186 Y-3.69 E7.16679
G1 X-8.98 Y-4.121 E7.19062
G1 X-8.291 Y-5.374 E7.26196
G1 X-7.978 Y-5.861 E7.29085
G1 X-7.669 Y-6.229 E7.31482
G1 X-6.691 Y-7.268 E7.38601
G1 X-6.266 Y-7.661 E7.41489
G1 X-5.887 Y-7.933 E7.43816
G1 X-4.683 Y-8.699 E7.50935
G1 X-4.174 Y-8.975 E7.53824
G1 X-3.731 Y-9.148 E7.56197
G1 X-2.366 Y-9.593 E7.6336
G1 X-1.804 Y-9.734 E7.6625
G1 X-1.323 Y-9.792 E7.68667
G1 X.101 Y-9.88 E7.75785
G1 X.68 Y-9.876 E7.78674
G1 X1.146 Y-9.814 E7.81019
G1 X2.547 Y-9.547 E7.88135
G1 X3.108 Y-9.399 E7.91029
G1 X3.551 Y-9.22 E7.93413
G1 X4.839 Y-8.613 E8.00517
G1 X5.345 Y-8.331 E8.03407
G1 X5.723 Y-8.053 E8.05748
G1 X6.83 Y-7.139 E8.1291
G1 X7.25 Y-6.74 E8.158
G1 X7.554 Y-6.369 E8.18193
G1 X8.394 Y-5.213 E8.25322
G1 X8.701 Y-4.722 E8.28211
G1 X8.902 Y-4.287 E8.30602
G1 X9.426 Y-2.96 E8.3772
G1 X9.602 Y-2.407 E8.40615
G1 X9.687 Y-1.941 E8.42978
G1 X9.865 Y-.525 E8.50098
G1 X9.898 Y.054 E8.52992
G1 X9.865 Y.522 E8.55332
G1 X9.687 Y1.94 E8.62462
G1 X9.576 Y2.509 E8.65354
G1 X9.426 Y2.96 E8.67726
G1 X8.902 Y4.287 E8.74844
G1 X8.653 Y4.809 E8.77729
G1 X8.394 Y5.213 E8.80123
G1 X7.554 Y6.369 E8.87252
G1 X7.182 Y6.813 E8.90142
G1 X6.83 Y7.139 E8.92536
G1 X5.723 Y8.053 E8.99698
G1 X5.252 Y8.39 E9.02587
G1 X4.839 Y8.613 E9.04929
G1 X3.551 Y9.22 E9.12033
G1 X3.012 Y9.43 E9.14918
G1 X2.547 Y9.547 E9.17311
G1 X1.146 Y9.814 E9.24426
G1 X.571 Y9.883 E9.27315
G1 X.101 Y9.88 E9.2966
G1 X-1.323 Y9.792 E9.36778
G1 X-1.897 Y9.716 E9.39667
G1 X-2.366 Y9.593 E9.42086
G1 X-3.731 Y9.148 E9.49249
G1 X-4.268 Y8.931 E9.52138
G1 X-4.683 Y8.699 E9.5451
G1 X-5.887 Y7.933 E9.6163
G1 X-6.354 Y7.589 E9.64523
G1 X-6.691 Y7.268 E9.66845
G0 F7800 X-6.4 Y6.994
G1 F1800 X-7.378 Y5.955 E9.73964
G1 X-7.726 Y5.527 E9.76716
G1 X-7.941 Y5.181 E9.78748
G1 X-8.63 Y3.928 E9.85882
G1 X-8.86 Y3.427 E9.88633
G1 X-8.981 Y3.041 E9.90651
G1 X-9.335 Y1.661 E9.97759
G1 X-9.433 Y1.119 E10.00507
G1 X-9.454 Y.717 E10.02515
G1 X-9.454 Y-.717 E10.09669
G1 X-9.414 Y-1.267 E10.1242
G1 X-9.335 Y-1.661 E10.14425
G1 X-8.981 Y-3.041 E10.21533
G1 X-8.806 Y-3.564 E10.24284
G1 X-8.63 Y-3.928 E10.26302
G1 X-7.941 Y-5.181 E10.33436
G1 X-7.641 Y-5.643 E10.36184
G1 X-7.378 Y-5.955 E10.3822
G1 X-6.4 Y-6.994 E10.45338
G1 X-5.994 Y-7.366 E10.48086
G1 X-5.673 Y-7.595 E10.50053
G1 X-4.469 Y-8.361 E10.57172
G1 X-3.984 Y-8.622 E10.5992
G1 X-3.607 Y-8.768 E10.61937
G1 X-2.242 Y-9.213 E10.691
G1 X-1.707 Y-9.345 E10.71849
G1 X-1.298 Y-9.393 E10.73903
G1 X.126 Y-9.481 E10.81021
G1 X.677 Y-9.475 E10.8377
G1 X1.071 Y-9.421 E10.85755
G1 X2.472 Y-9.154 E10.9287
G1 X3.005 Y-9.012 E10.95622
G1 X3.381 Y-8.858 E10.97649
G1 X4.669 Y-8.251 E11.04753
G1 X5.149 Y-7.981 E11.075
G1 X5.468 Y-7.744 E11.09483
G1 X6.575 Y-6.83 E11.16645
G1 X6.974 Y-6.45 E11.19394
G1 X7.23 Y-6.134 E11.21423
G1 X8.07 Y-4.978 E11.28552
G1 X8.361 Y-4.51 E11.31301
G1 X8.53 Y-4.14 E11.33331
G1 X9.054 Y-2.813 E11.40449
G1 X9.219 Y-2.287 E11.43199
G1 X9.29 Y-1.891 E11.45206
G1 X9.468 Y-.475 E11.52326
G1 X9.497 Y.075 E11.55074
G1 X9.468 Y.472 E11.5706
G1 X9.29 Y1.89 E11.6419
G1 X9.182 Y2.431 E11.66942
G1 X9.054 Y2.813 E11.68952
G1 X8.53 Y4.14 E11.7607
G1 X8.291 Y4.636 E11.78817
G1 X8.07 Y4.978 E11.80848
G1 X7.23 Y6.134 E11.87977
G1 X6.875 Y6.555 E11.90725
G1 X6.575 Y6.83 E11.92755
G1 X5.468 Y7.744 E11.99917
G1 X5.019 Y8.063 E12.02665
G1 X4.669 Y8.251 E12.04647
G1 X3.381 Y8.858 E12.11751
G1 X2.867 Y9.057 E12.14501
G1 X2.472 Y9.154 E12.1653
G1 X1.071 Y9.421 E12.23645
G1 X.524 Y9.484 E12.26393
G1 X.126 Y9.481 E12.28378
G1 X-1.298 Y9.393 E12.35496
G1 X-1.844 Y9.319 E12.38245
G1 X-2.242 Y9.213 E12.403
G1 X-3.607 Y8.768 E12.47463
G1 X-4.117 Y8.56 E12.50211
G1 X-4.469 Y8.361 E12.52228
G1 X-5.673 Y7.595 E12.59347
G1 X-6.115 Y7.266 E12.62096
G1 X-6.4 Y6.994 E12.64062
G0 F7800 X-6.109 Y6.719
G1 F1800 X-7.087 Y5.68 E12.7118
G1 X-7.414 Y5.275 E12.73777
G1 X-7.59 Y4.988 E12.75457
G1 X-8.279 Y3.735 E12.82591
G1 X-8.495 Y3.261 E12.8519
G1 X-8.593 Y2.942 E12.86855
G1 X-8.947 Y1.562 E12.93963
G1 X-9.038 Y1.049 E12.96562
G1 X-9.054 Y.717 E12.9822
G1 X-9.054 Y-.717 E13.05374
G1 X-9.014 Y-1.237 E13.07976
G1 X-8.947 Y-1.562 E13.09632
G1 X-8.593 Y-2.942 E13.1674
G1 X-8.426 Y-3.435 E13.19336
G1 X-8.279 Y-3.735 E13.21003
G1 X-7.59 Y-4.988 E13.28137
G1 X-7.305 Y-5.424 E13.30736
G1 X-7.087 Y-5.68 E13.32413
G1 X-6.109 Y-6.719 E13.39532
G1 X-5.724 Y-7.07 E13.42131
G1 X-5.458 Y-7.258 E13.43756
G1 X-4.254 Y-8.024 E13.50876
G1 X-3.794 Y-8.269 E13.53476
G1 X-3.483 Y-8.388 E13.55137
G1 X-2.118 Y-8.833 E13.623
G1 X-1.611 Y-8.956 E13.64903
G1 X-1.274 Y-8.994 E13.66595
G1 X.15 Y-9.082 E13.73713
G1 X.671 Y-9.074 E13.76312
G1 X.997 Y-9.028 E13.77955
G1 X2.398 Y-8.761 E13.8507
G1 X2.9 Y-8.624 E13.87666
G1 X3.21 Y-8.497 E13.89338
G1 X4.498 Y-7.89 E13.96441
G1 X4.951 Y-7.632 E13.99042
G1 X5.214 Y-7.436 E14.00679
G1 X6.321 Y-6.522 E14.07841
G1 X6.696 Y-6.16 E14.10441
G1 X6.907 Y-5.899 E14.12116
G1 X7.747 Y-4.743 E14.19245
G1 X8.02 Y-4.299 E14.21845
G1 X8.158 Y-3.993 E14.2352
G1 X8.682 Y-2.666 E14.30638
G1 X8.836 Y-2.168 E14.33238
G1 X8.893 Y-1.841 E14.34894
G1 X9.071 Y-.425 E14.42014
G1 X9.097 Y.095 E14.44612
G1 X9.072 Y.422 E14.46248
G1 X8.894 Y1.84 E14.53378
G1 X8.789 Y2.351 E14.55981
G1 X8.682 Y2.666 E14.5764
G1 X8.158 Y3.993 E14.64758
G1 X7.93 Y4.461 E14.67355
G1 X7.747 Y4.743 E14.69033
G1 X6.907 Y5.899 E14.76162
G1 X6.569 Y6.296 E14.78763
G1 X6.321 Y6.522 E14.80437
G1 X5.214 Y7.436 E14.87599
G1 X4.788 Y7.736 E14.90198
G1 X4.498 Y7.89 E14.91837
G1 X3.21 Y8.497 E14.9894
G1 X2.723 Y8.682 E15.01539
G1 X2.398 Y8.761 E15.03208
G1 X.997 Y9.028 E15.10323
G1 X.479 Y9.086 E15.12924
G1 X.15 Y9.082 E15.14565
G1 X-1.274 Y8.994 E15.21683
G1 X-1.79 Y8.922 E15.24283
G1 X-2.118 Y8.833 E15.25978
G1 X-3.483 Y8.388 E15.33141
G1 X-3.964 Y8.189 E15.35738
G1 X-4.254 Y8.024 E15.37403
G1 X-5.458 Y7.258 E15.44522
G1 X-5.875 Y6.945 E15.47123
G1 X-6.109 Y6.719 E15.48746
G0 F7800 X-5.817 Y6.445
G1 F1800 X-6.795 Y5.406 E15.55865
G1 X-7.101 Y5.024 E15.58307
G1 X-7.24 Y4.796 E15.59639
G1 X-7.929 Y3.543 E15.66773
G1 X-8.129 Y3.096 E15.69216
G1 X-8.206 Y2.842 E15.7054
G1 X-8.56 Y1.462 E15.77648
G1 X-8.642 Y.98 E15.80087
G1 X-8.654 Y.717 E15.81401
G1 X-8.654 Y-.717 E15.88555
G1 X-8.614 Y-1.205 E15.90998
G1 X-8.56 Y-1.462 E15.92308
G1 X-8.206 Y-2.842 E15.99416
G1 X-8.046 Y-3.305 E16.0186
G1 X-7.929 Y-3.543 E16.03183
G1 X-7.24 Y-4.796 E16.10317
G1 X-6.97 Y-5.204 E16.12758
G1 X-6.795 Y-5.406 E16.14091
G1 X-5.817 Y-6.445 E16.2121
G1 X-5.454 Y-6.773 E16.23651
G1 X-5.243 Y-6.92 E16.24934
G1 X-4.039 Y-7.686 E16.32053
G1 X-3.606 Y-7.914 E16.34495
G1 X-3.359 Y-8.007 E16.35811
G1 X-1.994 Y-8.452 E16.42974
G1 X-1.518 Y-8.566 E16.45416
G1 X-1.249 Y-8.594 E16.46765
G1 X.175 Y-8.682 E16.53883
G1 X.664 Y-8.673 E16.56323
G1 X.922 Y-8.635 E16.57624
G1 X2.323 Y-8.368 E16.6474
G1 X2.794 Y-8.237 E16.67179
G1 X3.04 Y-8.135 E16.68507
G1 X4.328 Y-7.528 E16.75611
G1 X4.752 Y-7.284 E16.78052
G1 X4.959 Y-7.127 E16.79348
G1 X6.066 Y-6.213 E16.8651
G1 X6.417 Y-5.872 E16.88951
G1 X6.583 Y-5.664 E16.90279
G1 X7.423 Y-4.508 E16.97408
G1 X7.677 Y-4.089 E16.99853
G1 X7.786 Y-3.846 E17.01181
G1 X8.31 Y-2.519 E17.08299
G1 X8.452 Y-2.05 E17.10744
G1 X8.497 Y-1.791 E17.12056
G1 X8.675 Y-.375 E17.19176
G1 X8.696 Y.114 E17.21617
G1 X8.675 Y.373 E17.22914
G1 X8.497 Y1.791 E17.30044
G1 X8.396 Y2.27 E17.32486
G1 X8.31 Y2.519 E17.338
G1 X7.786 Y3.846 E17.40918
G1 X7.57 Y4.285 E17.43359
G1 X7.423 Y4.508 E17.44692
G1 X6.583 Y5.664 E17.51821
G1 X6.264 Y6.035 E17.54262
G1 X6.066 Y6.213 E17.5559
G1 X4.959 Y7.127 E17.62752
G1 X4.557 Y7.407 E17.65196
G1 X4.328 Y7.528 E17.66489
G1 X3.04 Y8.135 E17.73592
G1 X2.582 Y8.307 E17.76033
G1 X2.323 Y8.368 E17.77361
G1 X.922 Y8.635 E17.84476
G1 X.435 Y8.687 E17.86919
G1 X.175 Y8.682 E17.88217
G1 X-1.249 Y8.594 E17.95335
G1 X-1.734 Y8.524 E17.9778
G1 X-1.994 Y8.452 E17.99126
G1 X-3.359 Y8.007 E18.06288
G1 X-3.81 Y7.818 E18.08728
G1 X-4.039 Y7.686 E18.10047
G1 X-5.243 Y6.92 E18.17166
G1 X-5.634 Y6.625 E18.1961
G1 X-5.817 Y6.445 E18.2089
G0 F7800 X-5.526 Y6.171
G1 F1800 X-6.504 Y5.132 E18.28009
G1 X-6.889 Y4.603 E18.31273
G1 X-7.578 Y3.35 E18.38407
G1 X-7.818 Y2.743 E18.41664
G1 X-8.172 Y1.363 E18.48771
G1 X-8.254 Y.717 E18.5202
G1 X-8.254 Y-.717 E18.59174
G1 X-8.172 Y-1.363 E18.62423
G1 X-7.818 Y-2.743 E18.69531
G1 X-7.578 Y-3.35 E18.72787
G1 X-6.889 Y-4.603 E18.79921
G1 X-6.504 Y-5.132 E18.83186
G1 X-5.526 Y-6.171 E18.90304
G1 X-5.029 Y-6.583 E18.93525
G1 X-3.825 Y-7.349 E19.00644
G1 X-3.235 Y-7.627 E19.03898
G1 X-1.87 Y-8.072 E19.11061
G1 X-1.224 Y-8.195 E19.14342
G1 X.2 Y-8.283 E19.2146
G1 X.847 Y-8.242 E19.24694
G1 X2.248 Y-7.975 E19.3181
G1 X2.869 Y-7.773 E19.35068
G1 X4.157 Y-7.166 E19.42171
G1 X4.704 Y-6.819 E19.45403
G1 X5.811 Y-5.905 E19.52565
G1 X6.259 Y-5.428 E19.5583
G1 X7.099 Y-4.272 E19.62959
G1 X7.414 Y-3.699 E19.66221
G1 X7.938 Y-2.372 E19.73339
G1 X8.1 Y-1.741 E19.76589
G1 X8.278 Y-.325 E19.83709
G1 X8.278 Y.323 E19.86942
G1 X8.1 Y1.741 E19.94072
G1 X7.938 Y2.372 E19.97322
G1 X7.414 Y3.699 E20.0444
G1 X7.099 Y4.272 E20.07702
G1 X6.259 Y5.428 E20.14832
G1 X5.811 Y5.905 E20.18096
G1 X4.704 Y6.819 E20.25258
G1 X4.157 Y7.166 E20.2849
G1 X2.869 Y7.773 E20.35594
G1 X2.248 Y7.975 E20.38852
G1 X.847 Y8.242 E20.45967
G1 X.2 Y8.283 E20.49202
G1 X-1.224 Y8.195 E20.5632
G1 X-1.87 Y8.072 E20.596
G1 X-3.235 Y7.627 E20.66763
G1 X-3.825 Y7.349 E20.70017
G1 X-5.029 Y6.583 E20.77137
G1 X-5.526 Y6.171 E20.80357
G0 F7800 X-5.235 Y5.897
G1 F1800 X-6.213 Y4.858 E20.87476
G1 X-6.539 Y4.41 E20.9024
G1 X-7.228 Y3.157 E20.97374
G1 X-7.431 Y2.644 E21.00127
G1 X-7.785 Y1.264 E21.07234
G1 X-7.854 Y.717 E21.09985
G1 X-7.854 Y-.717 E21.17139
G1 X-7.785 Y-1.264 E21.1989
G1 X-7.431 Y-2.644 E21.26998
G1 X-7.228 Y-3.157 E21.2975
G1 X-6.539 Y-4.41 E21.36884
G1 X-6.213 Y-4.858 E21.39648
G1 X-5.235 Y-5.897 E21.46767
G1 X-4.814 Y-6.245 E21.49492
G1 X-3.61 Y-7.011 E21.56612
G1 X-3.111 Y-7.247 E21.59366
G1 X-1.746 Y-7.692 E21.66528
G1 X-1.2 Y-7.796 E21.69301
G1 X.224 Y-7.884 E21.76419
G1 X.772 Y-7.849 E21.79159
G1 X2.173 Y-7.582 E21.86274
G1 X2.699 Y-7.411 E21.89034
G1 X3.987 Y-6.804 E21.96137
G1 X4.45 Y-6.51 E21.98874
G1 X5.557 Y-5.596 E22.06036
G1 X5.936 Y-5.193 E22.08796
G1 X6.776 Y-4.037 E22.15925
G1 X7.042 Y-3.552 E22.18684
G1 X7.566 Y-2.225 E22.25802
G1 X7.703 Y-1.691 E22.28553
G1 X7.881 Y-.275 E22.35673
G1 X7.881 Y.273 E22.38407
G1 X7.703 Y1.691 E22.45537
G1 X7.566 Y2.225 E22.48287
G1 X7.042 Y3.552 E22.55405
G1 X6.776 Y4.037 E22.58165
G1 X5.936 Y5.193 E22.65294
G1 X5.557 Y5.596 E22.68054
G1 X4.45 Y6.51 E22.75216
G1 X3.987 Y6.804 E22.77952
G1 X2.699 Y7.411 E22.85056
G1 X2.173 Y7.582 E22.87815
G1 X.772 Y7.849 E22.94931
G1 X.224 Y7.884 E22.9767
G1 X-1.2 Y7.796 E23.04788
G1 X-1.746 Y7.692 E23.07561
G1 X-3.111 Y7.247 E23.14724
G1 X-3.61 Y7.011 E23.17478
G1 X-4.814 Y6.245 E23.24597
G1 X-5.235 Y5.897 E23.27322
G0 F7800 X-4.944 Y5.623
G1 F1800 X-5.922 Y4.584 E23.34441
G1 X-6.188 Y4.217 E23.36702
G1 X-6.877 Y2.964 E23.43836
G1 X-7.044 Y2.544 E23.46091
G1 X-7.398 Y1.164 E23.53199
G1 X-7.454 Y.717 E23.55447
G1 X-7.454 Y-.717 E23.62601
G1 X-7.398 Y-1.164 E23.64848
G1 X-7.044 Y-2.544 E23.71956
G1 X-6.877 Y-2.964 E23.74211
