;FLAVOR:RepRap
;TIME:1305
;Generated with Cura_SteamEngine 2.3.0
M104 S200
M109 S200
G21 ;metric values
G90 ;absolute positioning
M82 ;set extruder to absolute mode
M107 ;start with the fan off
G28 ;Home all axes (max endstops)
G1 Z15.0 F9000 ;move the platform down 15mm
G92 E0 ;zero the extruded length
G1 F200 E3 ;extrude 3mm of feed stock
G92 E0 ;zero the extruded length again
G1 F9000
;Put printing message on LCD screen
M117 Printing...
;LAYER_COUNT:17
;LAYER:0
M107
G1 F1500 E-6.5
G0 F7800 X-.03 Y25.53 Z.3
;TYPE:SKIRT
G1 F1500 E0
G1 F1800 X-.161 Y25.737 E0.01222
G1 X-.693 Y26.506 E0.05887
G1 X-1.154 Y27.029 E0.09366
G1 X-2.09 Y27.871 E0.15647
G1 X-2.479 Y28.168 E0.18088
G1 X-2.703 Y28.298 E0.1938
G1 X-3.809 Y28.878 E0.25611
G1 X-4.259 Y29.069 E0.2805
G1 X-4.518 Y29.142 E0.29392
G1 X-5.74 Y29.428 E0.35654
G1 X-6.224 Y29.5 E0.38095
G1 X-6.484 Y29.506 E0.39393
G1 X-7.732 Y29.481 E0.4562
G1 X-8.219 Y29.432 E0.48062
G1 X-8.477 Y29.372 E0.49384
G1 X-9.694 Y29.033 E0.55686
G1 X-10.153 Y28.864 E0.58127
G1 X-10.382 Y28.745 E0.59414
G1 X-23.499 Y21.217 E1.34867
G1 X-23.903 Y20.939 E1.37313
G1 X-24.255 Y20.6 E1.39751
G1 X-24.548 Y20.208 E1.42193
G1 X-24.773 Y19.773 E1.44636
G1 X-24.925 Y19.308 E1.47077
G1 X-24.999 Y18.824 E1.4952
G1 X-24.993 Y18.335 E1.5196
G1 X-24.907 Y17.853 E1.54402
G1 X-24.745 Y17.391 E1.56845
G1 X-24.604 Y17.115 E1.58391
G1 X2.52 Y-29.865 E4.29035
G1 X2.798 Y-30.268 E4.31477
G1 X3.139 Y-30.619 E4.33919
G1 X3.532 Y-30.911 E4.36361
G1 X3.967 Y-31.135 E4.38802
G1 X4.433 Y-31.286 E4.41246
G1 X4.917 Y-31.358 E4.43688
G1 X5.406 Y-31.351 E4.46128
G1 X5.888 Y-31.265 E4.4857
G1 X6.349 Y-31.101 E4.51011
G1 X6.618 Y-30.963 E4.5252
G1 X19.17 Y-23.716 E5.2483
G1 X19.481 Y-23.51 E5.26691
G1 X20.481 Y-22.753 E5.32948
G1 X20.846 Y-22.427 E5.3539
G1 X21.02 Y-22.226 E5.36716
G1 X21.8 Y-21.243 E5.42977
G1 X22.072 Y-20.836 E5.45419
G1 X22.189 Y-20.602 E5.46724
G1 X22.7 Y-19.458 E5.52975
G1 X22.863 Y-18.996 E5.55419
G1 X22.919 Y-18.735 E5.56751
G1 X23.129 Y-17.496 E5.63021
G1 X23.171 Y-17.009 E5.65459
G1 X23.16 Y-16.743 E5.66787
G1 X23.055 Y-15.495 E5.73036
G1 X22.975 Y-15.013 E5.75473
G1 X22.901 Y-14.765 E5.76765
G1 X22.491 Y-13.581 E5.83016
G1 X22.254 Y-13.063 E5.85858
G1 X-.03 Y25.53 E8.08191
G0 F7800 X-.376 Y25.33
G1 F1800 X-.49 Y25.509 E8.0925
G1 X-1.022 Y26.278 E8.13915
G1 X-1.421 Y26.732 E8.1693
G1 X-2.357 Y27.574 E8.23211
G1 X-2.888 Y27.944 E8.2644
G1 X-3.994 Y28.524 E8.32671
G1 X-4.61 Y28.753 E8.3595
G1 X-5.832 Y29.039 E8.42211
G1 X-6.476 Y29.106 E8.45441
G1 X-7.724 Y29.081 E8.51669
G1 X-8.37 Y28.987 E8.54926
G1 X-9.587 Y28.648 E8.61228
G1 X-10.183 Y28.398 E8.64453
G1 X-23.3 Y20.87 E9.39905
G1 X-23.674 Y20.609 E9.42181
G1 X-23.997 Y20.288 E9.44453
G1 X-24.258 Y19.914 E9.46728
G1 X-24.45 Y19.501 E9.49
G1 X-24.567 Y19.061 E9.51272
G1 X-24.606 Y18.607 E9.53545
G1 X-24.565 Y18.153 E9.55819
G1 X-24.445 Y17.714 E9.5809
G1 X-24.258 Y17.315 E9.60288
G1 X2.866 Y-29.665 E12.30932
G1 X3.128 Y-30.038 E12.33206
G1 X3.45 Y-30.36 E12.35478
G1 X3.824 Y-30.62 E12.3775
G1 X4.238 Y-30.812 E12.40027
G1 X4.678 Y-30.928 E12.42297
G1 X5.133 Y-30.965 E12.44575
G1 X5.586 Y-30.922 E12.46845
G1 X6.026 Y-30.801 E12.49122
G1 X6.418 Y-30.617 E12.51282
G1 X18.97 Y-23.37 E13.23592
G1 X19.239 Y-23.191 E13.25204
G1 X20.239 Y-22.434 E13.31461
G1 X20.707 Y-21.977 E13.34725
G1 X21.487 Y-20.994 E13.40985
G1 X21.824 Y-20.438 E13.44229
G1 X22.335 Y-19.294 E13.5048
G1 X22.524 Y-18.668 E13.53742
G1 X22.734 Y-17.429 E13.60012
G1 X22.762 Y-16.777 E13.63268
G1 X22.657 Y-15.529 E13.69516
G1 X22.523 Y-14.896 E13.72744
G1 X22.113 Y-13.712 E13.78995
G1 X21.908 Y-13.263 E13.81458
G1 X-.376 Y25.33 E16.03791
G0 F7800 X-.723 Y25.13
G1 F1800 X-.819 Y25.282 E16.04688
G1 X-1.351 Y26.051 E16.09353
G1 X-1.689 Y26.435 E16.11905
G1 X-2.625 Y27.277 E16.18186
G1 X-3.074 Y27.589 E16.20914
G1 X-4.18 Y28.169 E16.27145
G1 X-4.701 Y28.363 E16.29918
G1 X-5.923 Y28.649 E16.3618
G1 X-6.468 Y28.707 E16.38914
G1 X-7.716 Y28.682 E16.45142
G1 X-8.262 Y28.601 E16.47895
G1 X-9.479 Y28.262 E16.54198
G1 X-9.984 Y28.051 E16.56929
G1 X-23.101 Y20.523 E17.32381
G1 X-23.443 Y20.281 E17.34471
G1 X-23.733 Y19.978 E17.36564
G1 X-23.96 Y19.626 E17.38654
G1 X-24.116 Y19.237 E17.40744
G1 X-24.196 Y18.826 E17.42833
G1 X-24.196 Y18.407 E17.44924
G1 X-24.117 Y17.995 E17.47017
G1 X-23.911 Y17.515 E17.49623
G1 X3.213 Y-29.465 E20.20266
G1 X3.456 Y-29.806 E20.22355
G1 X3.759 Y-30.095 E20.24445
G1 X4.112 Y-30.322 E20.26538
G1 X4.501 Y-30.477 E20.28627
G1 X4.913 Y-30.555 E20.30719
G1 X5.332 Y-30.555 E20.3281
G1 X5.743 Y-30.474 E20.349
G1 X6.218 Y-30.27 E20.37479
G1 X18.77 Y-23.023 E21.09789
G1 X18.998 Y-22.872 E21.11153
G1 X19.998 Y-22.115 E21.17411
G1 X20.393 Y-21.728 E21.20169
G1 X21.173 Y-20.745 E21.2643
G1 X21.459 Y-20.275 E21.29175
G1 X21.97 Y-19.131 E21.35426
G1 X22.13 Y-18.602 E21.38183
G1 X22.34 Y-17.363 E21.44453
G1 X22.363 Y-16.811 E21.47209
G1 X22.258 Y-15.563 E21.53457
G1 X22.145 Y-15.027 E21.5619
G1 X21.735 Y-13.843 E21.62441
G1 X21.561 Y-13.463 E21.64526
G1 X-.723 Y25.13 E23.8686
G0 F7800 X-1.148 Y25.054
G1 F1800 X-1.68 Y25.823 E23.91525
G1 X-1.956 Y26.137 E23.93611
G1 X-2.892 Y26.979 E23.99892
G1 X-3.26 Y27.235 E24.02128
G1 X-4.366 Y27.815 E24.08359
G1 X-4.792 Y27.974 E24.10627
G1 X-6.014 Y28.26 E24.16889
G1 X-6.46 Y28.307 E24.19126
G1 X-7.708 Y28.282 E24.25354
G1 X-8.155 Y28.216 E24.27608
G1 X-9.372 Y27.877 E24.33911
G1 X-9.785 Y27.704 E24.36145
G1 X-22.902 Y20.176 E25.11597
G1 X-23.209 Y19.954 E25.13487
G1 X-23.463 Y19.672 E25.15381
G1 X-23.652 Y19.344 E25.17269
G1 X-23.768 Y18.983 E25.19161
G1 X-23.806 Y18.606 E25.21051
G1 X-23.764 Y18.23 E25.22939
G1 X-23.565 Y17.715 E25.25693
G1 X3.559 Y-29.265 E27.96337
G1 X3.782 Y-29.571 E27.98226
G1 X4.064 Y-29.824 E28.00116
G1 X4.393 Y-30.013 E28.02009
G1 X4.754 Y-30.128 E28.039
G1 X5.131 Y-30.165 E28.05789
G1 X5.508 Y-30.122 E28.07682
G1 X6.018 Y-29.924 E28.10412
G1 X18.57 Y-22.677 E28.82722
G1 X18.756 Y-22.553 E28.83837
G1 X19.756 Y-21.796 E28.90095
G1 X20.08 Y-21.48 E28.92353
G1 X20.86 Y-20.497 E28.98613
G1 X21.093 Y-20.112 E29.00858
G1 X21.604 Y-18.968 E29.07109
G1 X21.736 Y-18.535 E29.09368
G1 X21.946 Y-17.296 E29.15637
G1 X21.965 Y-16.844 E29.17894
G1 X21.86 Y-15.596 E29.24142
G1 X21.767 Y-15.158 E29.26376
G1 X21.357 Y-13.974 E29.32627
G1 X21.215 Y-13.663 E29.34333
G1 X-1.069 Y24.93 E31.56666
G1 X-1.148 Y25.054 E31.574
G0 F7800 X-1.416 Y24.73
G1 F1800 X-1.477 Y24.827 E31.57972
G1 X-2.009 Y25.596 E31.62637
G1 X-2.224 Y25.84 E31.64259
G1 X-3.16 Y26.682 E31.7054
G1 X-3.446 Y26.881 E31.72279
G1 X-4.552 Y27.461 E31.78509
G1 X-4.883 Y27.584 E31.80271
G1 X-6.105 Y27.87 E31.86532
G1 X-6.452 Y27.907 E31.88273
G1 X-7.7 Y27.882 E31.94501
G1 X-8.048 Y27.831 E31.96256
G1 X-9.265 Y27.492 E32.02558
G1 X-9.586 Y27.357 E32.04296
G1 X-22.703 Y19.829 E32.79748
G1 X-22.971 Y19.63 E32.81413
G1 X-23.184 Y19.372 E32.83083
G1 X-23.329 Y19.072 E32.84745
G1 X-23.4 Y18.745 E32.86414
G1 X-23.391 Y18.411 E32.88081
G1 X-23.303 Y18.089 E32.89747
G1 X-23.218 Y17.915 E32.90713
G1 X3.906 Y-29.065 E35.61357
G1 X4.106 Y-29.332 E35.63021
G1 X4.364 Y-29.545 E35.6469
G1 X4.665 Y-29.69 E35.66357
G1 X4.992 Y-29.759 E35.68024
G1 X5.325 Y-29.75 E35.69686
G1 X5.648 Y-29.661 E35.71358
G1 X5.818 Y-29.577 E35.72304
G1 X18.37 Y-22.33 E36.44614
G1 X18.515 Y-22.234 E36.45481
G1 X19.515 Y-21.477 E36.51739
G1 X19.767 Y-21.231 E36.53496
G1 X20.547 Y-20.248 E36.59756
G1 X20.728 Y-19.949 E36.615
G1 X21.239 Y-18.805 E36.67751
G1 X21.341 Y-18.468 E36.69508
G1 X21.551 Y-17.229 E36.75777
G1 X21.566 Y-16.878 E36.7753
G1 X21.461 Y-15.63 E36.83778
G1 X21.389 Y-15.289 E36.85517
G1 X20.979 Y-14.105 E36.91768
G1 X20.868 Y-13.863 E36.93096
G1 X-1.416 Y24.73 E39.1543
G0 F7800 X-1.806 Y24.599
G1 F1800 X-2.338 Y25.368 E39.20095
G1 X-2.491 Y25.542 E39.21251
G1 X-3.427 Y26.384 E39.27532
G1 X-3.632 Y26.527 E39.28779
G1 X-4.738 Y27.107 E39.35009
G1 X-4.974 Y27.195 E39.36266
G1 X-6.196 Y27.481 E39.42527
G1 X-6.444 Y27.507 E39.43771
G1 X-7.692 Y27.482 E39.49999
G1 X-7.94 Y27.445 E39.5125
G1 X-9.157 Y27.106 E39.57553
G1 X-9.387 Y27.01 E39.58796
G1 X-22.504 Y19.482 E40.34249
G1 X-22.726 Y19.309 E40.35653
G1 X-22.891 Y19.08 E40.37061
G1 X-22.986 Y18.814 E40.3847
G1 X-23.003 Y18.533 E40.39875
G1 X-22.94 Y18.257 E40.41287
G1 X-22.872 Y18.115 E40.42072
G1 X4.252 Y-28.865 E43.12716
G1 X4.426 Y-29.087 E43.14123
G1 X4.655 Y-29.252 E43.15532
G1 X4.921 Y-29.345 E43.16937
G1 X5.203 Y-29.361 E43.18347
G1 X5.478 Y-29.298 E43.19754
G1 X5.618 Y-29.231 E43.20528
G1 X18.17 Y-21.984 E43.92839
G1 X18.274 Y-21.915 E43.93461
G1 X19.274 Y-21.158 E43.99719
G1 X19.453 Y-20.983 E44.00967
G1 X20.233 Y-20 E44.07228
G1 X20.363 Y-19.786 E44.08477
G1 X20.874 Y-18.642 E44.14728
G1 X20.947 Y-18.401 E44.15984
G1 X21.157 Y-17.162 E44.22254
G1 X21.167 Y-16.911 E44.23507
G1 X21.062 Y-15.663 E44.29756
G1 X21.011 Y-15.42 E44.30994
G1 X20.601 Y-14.236 E44.37245
G1 X20.522 Y-14.063 E44.38194
G1 X-1.762 Y24.53 E46.60528
G1 X-1.806 Y24.599 E46.60936
G0 F7800 X-2.135 Y24.371
G1 F1800 X-2.667 Y25.14 E46.65601
G1 X-2.759 Y25.245 E46.66297
G1 X-3.695 Y26.087 E46.72579
G1 X-3.817 Y26.172 E46.7332
G1 X-4.923 Y26.752 E46.79551
G1 X-5.065 Y26.805 E46.80307
G1 X-6.287 Y27.091 E46.86568
G1 X-6.436 Y27.107 E46.87316
G1 X-7.684 Y27.082 E46.93544
G1 X-7.833 Y27.06 E46.94295
G1 X-9.05 Y26.721 E47.00598
G1 X-9.188 Y26.663 E47.01345
G1 X-22.305 Y19.135 E47.76797
G1 X-22.471 Y18.994 E47.77884
G1 X-22.576 Y18.803 E47.78971
G1 X-22.605 Y18.587 E47.80058
G1 X-22.526 Y18.315 E47.81472
G1 X4.598 Y-28.665 E50.52115
G1 X4.74 Y-28.831 E50.53205
G1 X4.932 Y-28.935 E50.54295
G1 X5.148 Y-28.964 E50.55382
G1 X5.418 Y-28.885 E50.56785
G1 X17.97 Y-21.638 E51.29095
G1 X18.032 Y-21.596 E51.29469
G1 X19.032 Y-20.839 E51.35726
G1 X19.14 Y-20.734 E51.36478
G1 X19.92 Y-19.751 E51.42738
G1 X19.998 Y-19.623 E51.43486
G1 X20.509 Y-18.479 E51.49737
G1 X20.553 Y-18.334 E51.50493
G1 X20.763 Y-17.095 E51.56763
G1 X20.769 Y-16.945 E51.57512
G1 X20.664 Y-15.697 E51.6376
G1 X20.633 Y-15.551 E51.64505
G1 X20.223 Y-14.367 E51.70756
G1 X20.176 Y-14.263 E51.71325
G1 X-2.108 Y24.33 E53.93658
G1 X-2.135 Y24.371 E53.93903
G0 F7800 X-2.464 Y24.144
G1 F1800 X-2.996 Y24.913 E53.98568
G1 X-3.026 Y24.948 E53.98798
G1 X-3.962 Y25.79 E54.0508
G1 X-4.003 Y25.818 E54.05327
G1 X-5.109 Y26.398 E54.11558
G1 X-5.156 Y26.416 E54.11809
G1 X-6.378 Y26.702 E54.1807
G1 X-6.428 Y26.707 E54.18321
G1 X-7.676 Y26.682 E54.24548
G1 X-7.726 Y26.675 E54.248
G1 X-8.943 Y26.336 E54.31103
G1 X-8.989 Y26.316 E54.31353
G1 X-22.106 Y18.788 E55.06806
G1 X-22.189 Y18.696 E55.07424
G1 X-22.179 Y18.515 E55.08328
G1 X4.945 Y-28.465 E57.78972
G1 X5.038 Y-28.548 E57.79594
G1 X5.218 Y-28.538 E57.80493
G1 X17.77 Y-21.291 E58.52804
G1 X17.791 Y-21.277 E58.5293
G1 X18.791 Y-20.52 E58.59187
G1 X18.827 Y-20.485 E58.59437
G1 X19.607 Y-19.502 E58.65698
G1 X19.633 Y-19.46 E58.65944
G1 X20.144 Y-18.316 E58.72195
G1 X20.158 Y-18.267 E58.72449
G1 X20.368 Y-17.028 E58.78719
G1 X20.37 Y-16.978 E58.78969
G1 X20.265 Y-15.73 E58.85217
G1 X20.255 Y-15.682 E58.85462
G1 X19.845 Y-14.498 E58.91713
G1 X19.829 Y-14.463 E58.91905
G1 X-2.455 Y24.13 E61.14238
G1 X-2.464 Y24.144 E61.14321
G1 F1500 E54.64321
G0 F7800 X-3.189 Y23.727
G0 X-2.88 Y23.124
G0 X-2.852 Y23.219
;TYPE:WALL-INNER
G1 F1500 E61.14321
G1 F1800 X-3.284 Y23.969 E61.18639
G1 X-3.614 Y24.405 E61.21367
G1 X-4.006 Y24.805 E61.24161
G1 X-4.44 Y25.148 E61.26921
G1 X-4.911 Y25.433 E61.29668
G1 X-5.412 Y25.657 E61.32406
G1 X-5.952 Y25.819 E61.35218
G1 X-6.48 Y25.909 E61.3789
G1 X-7.043 Y25.933 E61.40702
G1 X-7.591 Y25.887 E61.43445
G1 X-8.131 Y25.772 E61.462
G1 X-8.656 Y25.589 E61.48974
G1 X-9.168 Y25.334 E61.51827
G1 X-21.014 Y18.495 E62.20069
G1 X-21.187 Y18.396 E62.21064
G1 X-21.087 Y18.223 E62.21708
G1 X5.238 Y-27.373 E64.84378
G1 X5.337 Y-27.546 E64.85373
G1 X5.51 Y-27.446 E64.86017
G1 X17.354 Y-20.608 E65.54247
G1 X17.834 Y-20.29 E65.5712
G1 X18.257 Y-19.924 E65.59911
G1 X18.626 Y-19.514 E65.62663
G1 X18.938 Y-19.065 E65.6539
G1 X19.194 Y-18.577 E65.6814
G1 X19.387 Y-18.058 E65.70902
G1 X19.512 Y-17.523 E65.73643
G1 X19.57 Y-16.968 E65.76427
G1 X19.559 Y-16.42 E65.79162
G1 X19.477 Y-15.867 E65.81951
G1 X19.33 Y-15.339 E65.84685
G1 X19.114 Y-14.825 E65.87467
G1 X-2.842 Y23.224 E68.06632
G1 X-2.852 Y23.219 E68.06687
G0 F7800 X-2.702 Y23.76
;TYPE:WALL-OUTER
G1 F1800 X-2.951 Y24.191 E68.09171
G1 X-3.313 Y24.669 E68.12162
G1 X-3.737 Y25.102 E68.15186
G1 X-4.209 Y25.476 E68.1819
G1 X-4.725 Y25.788 E68.21198
G1 X-5.273 Y26.033 E68.24193
G1 X-5.859 Y26.209 E68.27246
G1 X-6.444 Y26.308 E68.30206
G1 X-7.052 Y26.334 E68.33242
G1 X-7.644 Y26.284 E68.36206
G1 X-8.241 Y26.157 E68.39251
G1 X-8.81 Y25.959 E68.42257
G1 X-9.355 Y25.688 E68.45293
G1 X-21.56 Y18.642 E69.15603
G1 X-21.733 Y18.542 E69.166
G1 X-21.633 Y18.369 E69.17243
G1 X5.191 Y-28.092 E71.84896
G1 X17.565 Y-20.948 E72.56181
G1 X18.082 Y-20.605 E72.59276
G1 X18.531 Y-20.217 E72.62237
G1 X18.94 Y-19.762 E72.65289
G1 X19.28 Y-19.273 E72.6826
G1 X19.561 Y-18.736 E72.71284
G1 X19.769 Y-18.177 E72.7426
G1 X19.908 Y-17.584 E72.77298
G1 X19.971 Y-16.986 E72.80298
G1 X19.958 Y-16.384 E72.83302
G1 X19.87 Y-15.79 E72.86298
G1 X19.707 Y-15.203 E72.89338
G1 X19.475 Y-14.651 E72.92325
G1 X-2.693 Y23.765 E75.13604
G1 X-2.702 Y23.76 E75.13655
G0 F7800 X-3.172 Y23.415
;TYPE:SKIN
G1 F1800 X-16.298 Y10.288 E76.0627
G0 X-16.368 Y10.218
G0 F7800 X-16.091 Y9.929
G1 F1800 X-2.965 Y23.055 E76.98881
G0 X-2.895 Y23.125
G0 F7800 X-2.75 Y22.705
G1 F1800 X-15.884 Y9.571 E77.91548
G0 X-15.954 Y9.501
G0 F7800 X-15.677 Y9.212
G1 F1800 X-2.543 Y22.346 E78.84216
G0 X-2.473 Y22.416
G0 F7800 X-2.336 Y21.988
G1 F1800 X-15.47 Y8.854 E79.76883
G0 X-15.54 Y8.784
G0 F7800 X-15.262 Y8.495
G1 F1800 X-2.129 Y21.628 E80.69544
G0 X-2.059 Y21.698
G0 F7800 X-1.922 Y21.27
G1 F1800 X-15.056 Y8.136 E81.62211
G0 X-15.126 Y8.066
G0 F7800 X-14.849 Y7.778
G1 F1800 X-1.715 Y20.911 E82.54875
G0 X-1.645 Y20.981
G0 F7800 X-1.508 Y20.553
G1 F1800 X-14.642 Y7.419 E83.47543
G0 X-14.712 Y7.349
G0 F7800 X-14.434 Y7.061
G1 F1800 X-1.301 Y20.194 E84.40203
G0 X-1.231 Y20.264
G0 F7800 X-1.094 Y19.835
G1 F1800 X-14.227 Y6.702 E85.32863
G0 X-14.297 Y6.632
G0 F7800 X-14.021 Y6.343
G1 F1800 X-.887 Y19.477 E86.25531
G0 X-.817 Y19.547
G0 F7800 X-.68 Y19.118
G1 F1800 X-13.814 Y5.984 E87.18198
G0 X-13.884 Y5.914
G0 F7800 X-13.606 Y5.626
G1 F1800 X-.473 Y18.759 E88.10859
G0 X-.403 Y18.829
G0 F7800 X-.266 Y18.401
G1 F1800 X-13.399 Y5.267 E89.03523
G0 X-13.469 Y5.197
G0 F7800 X-13.192 Y4.909
G1 F1800 X-.059 Y18.042 E89.96183
G0 X.011 Y18.112
G0 F7800 X.147 Y17.683
G1 F1800 X-12.986 Y4.55 E90.88843
G0 X-13.056 Y4.48
G0 F7800 X-12.778 Y4.191
G1 F1800 X.354 Y17.324 E91.815
G0 X.424 Y17.394
G0 F7800 X.561 Y16.966
G1 F1800 X-12.571 Y3.833 E92.74157
G0 X-12.641 Y3.763
G0 F7800 X-12.364 Y3.474
G1 F1800 X.768 Y16.607 E93.66814
G0 X.838 Y16.677
G0 F7800 X.975 Y16.248
G1 F1800 X-12.157 Y3.116 E94.59467
G0 X-12.227 Y3.046
G0 F7800 X-11.95 Y2.757
G1 F1800 X1.182 Y15.89 E95.52124
G0 X1.252 Y15.96
G0 F7800 X1.389 Y15.531
G1 F1800 X-11.743 Y2.398 E96.44781
G0 X-11.813 Y2.328
G0 F7800 X-11.536 Y2.04
G1 F1800 X1.595 Y15.172 E97.37431
G0 X1.665 Y15.242
G0 F7800 X1.803 Y14.813
G1 F1800 X-11.329 Y1.681 E98.30084
G0 X-11.399 Y1.611
G0 F7800 X-11.122 Y1.322
G1 F1800 X2.01 Y14.455 E99.22741
G0 X2.08 Y14.525
G0 F7800 X2.217 Y14.096
G1 F1800 X-10.914 Y.964 E100.15391
G0 X-10.984 Y.894
G0 F7800 X-10.708 Y.605
G1 F1800 X2.423 Y13.737 E101.08041
G0 X2.493 Y13.807
G0 F7800 X2.631 Y13.379
G1 F1800 X-10.501 Y.246 E102.00698
G0 X-10.571 Y.176
G0 F7800 X-10.294 Y-.111
G1 F1800 X2.838 Y13.02 E102.93348
G0 X2.908 Y13.09
G0 F7800 X3.045 Y12.662
G1 F1800 X-10.086 Y-.47 E103.85997
G0 X-10.156 Y-.54
G0 F7800 X-9.879 Y-.828
G1 F1800 X3.251 Y12.302 E104.78637
G0 X3.321 Y12.372
G0 F7800 X3.459 Y11.944
G1 F1800 X-9.672 Y-1.187 E105.71283
G0 X-9.742 Y-1.257
G0 F7800 X-9.466 Y-1.546
G1 F1800 X3.666 Y11.585 E106.63933
G0 X3.736 Y11.655
G0 F7800 X3.872 Y11.226
G1 F1800 X-9.258 Y-1.904 E107.56572
G0 X-9.328 Y-1.974
G0 F7800 X-9.051 Y-2.263
G1 F1800 X4.08 Y10.868 E108.49218
G0 X4.15 Y10.938
G0 F7800 X4.287 Y10.509
G1 F1800 X-8.844 Y-2.621 E109.41861
