;FLAVOR:RepRap
;TIME:4649
;Generated with Cura_SteamEngine 2.3.0
M104 S200
M109 S200
G21 ;metric values
G90 ;absolute positioning
M82 ;set extruder to absolute mode
M107 ;start with the fan off
G28 ;Home all axes (max endstops)
G1 Z15.0 F9000 ;move the platform down 15mm
G92 E0 ;zero the extruded length
G1 F200 E3 ;extrude 3mm of feed stock
G92 E0 ;zero the extruded length again
G1 F9000
;Put printing message on LCD screen
M117 Printing...
;LAYER_COUNT:17
;LAYER:0
M107
G1 F1500 E-6.5
G0 F7800 X-27.343 Y-40.034 Z.3
;TYPE:SKIRT
G1 F1500 E0
G1 F1800 X48.427 Y3.723 E4.36526
G1 X48.637 Y3.856 E4.37766
G1 X49.407 Y4.39 E4.42441
G1 X49.928 Y4.849 E4.45905
G1 X50.768 Y5.783 E4.52172
G1 X51.064 Y6.172 E4.5461
G1 X51.194 Y6.396 E4.55903
G1 X51.775 Y7.504 E4.62144
G1 X51.966 Y7.954 E4.64583
G1 X52.039 Y8.213 E4.65926
G1 X52.324 Y9.431 E4.72166
G1 X52.396 Y9.916 E4.74613
G1 X52.402 Y10.175 E4.75905
G1 X52.377 Y11.425 E4.82143
G1 X52.328 Y11.912 E4.84585
G1 X52.268 Y12.169 E4.85901
G1 X51.93 Y13.384 E4.92193
G1 X51.761 Y13.843 E4.94633
G1 X51.64 Y14.076 E4.95943
G1 X38.365 Y37.149 E6.28748
G1 X38.155 Y37.466 E6.30645
G1 X37.397 Y38.465 E6.36901
G1 X37.07 Y38.83 E6.39346
G1 X36.874 Y39 E6.4064
G1 X35.892 Y39.781 E6.469
G1 X35.486 Y40.053 E6.49338
G1 X35.242 Y40.175 E6.50699
G1 X34.091 Y40.686 E6.56982
G1 X33.629 Y40.847 E6.59423
G1 X33.375 Y40.902 E6.60719
G1 X32.14 Y41.111 E6.66969
G1 X31.652 Y41.153 E6.69412
G1 X31.389 Y41.143 E6.70725
G1 X30.143 Y41.039 E6.76963
G1 X29.661 Y40.958 E6.79402
G1 X29.406 Y40.882 E6.80729
G1 X28.22 Y40.469 E6.86995
G1 X27.707 Y40.234 E6.8981
G1 X-48.611 Y-3.828 E11.29464
G1 X-49.071 Y-4.155 E11.32279
G1 X-50.022 Y-4.976 E11.38547
G1 X-50.366 Y-5.325 E11.40992
G1 X-50.526 Y-5.535 E11.42309
G1 X-51.241 Y-6.564 E11.48561
G1 X-51.486 Y-6.988 E11.51004
G1 X-51.588 Y-7.228 E11.52305
G1 X-52.024 Y-8.398 E11.58534
G1 X-52.157 Y-8.87 E11.60981
G1 X-52.197 Y-9.134 E11.62313
G1 X-52.328 Y-10.386 E11.68593
G1 X-52.339 Y-10.875 E11.71033
G1 X-52.312 Y-11.137 E11.72347
G1 X-52.129 Y-12.373 E11.78581
G1 X-52.018 Y-12.85 E11.81024
G1 X-51.926 Y-13.098 E11.82344
G1 X-51.437 Y-14.26 E11.88634
G1 X-51.27 Y-14.596 E11.90506
G1 X-45.616 Y-24.39 E12.46926
G1 X-44.952 Y-25.727 E12.54373
G1 X-44.765 Y-26.051 E12.5624
G1 X-43.928 Y-27.313 E12.63795
G1 X-37.916 Y-37.645 E13.23433
G1 X-37.636 Y-38.046 E13.25873
G1 X-37.465 Y-38.237 E13.27152
G1 X-36.588 Y-39.131 E13.334
G1 X-36.217 Y-39.451 E13.35844
G1 X-35.999 Y-39.597 E13.37153
G1 X-34.935 Y-40.241 E13.43358
G1 X-34.497 Y-40.459 E13.45799
G1 X-34.25 Y-40.546 E13.47105
G1 X-33.046 Y-40.91 E13.53381
G1 X-32.568 Y-41.013 E13.5582
G1 X-32.303 Y-41.035 E13.57147
G1 X-31.052 Y-41.087 E13.63394
G1 X-30.562 Y-41.068 E13.6584
G1 X-30.305 Y-41.025 E13.6714
G1 X-29.074 Y-40.764 E13.73418
G1 X-28.441 Y-40.554 E13.76745
G1 X-27.588 Y-40.161 E13.81431
G1 X-27.343 Y-40.034 E13.82808
G0 F7800 X-27.543 Y-39.688
G1 F1800 X48.227 Y4.069 E18.19333
G1 X48.409 Y4.184 E18.20407
G1 X49.179 Y4.718 E18.25082
G1 X49.63 Y5.116 E18.28083
G1 X50.47 Y6.05 E18.3435
G1 X50.84 Y6.582 E18.37583
G1 X51.421 Y7.69 E18.43825
G1 X51.65 Y8.305 E18.47099
G1 X51.935 Y9.523 E18.5334
G1 X52.002 Y10.167 E18.5657
G1 X51.977 Y11.417 E18.62807
G1 X51.883 Y12.062 E18.66059
G1 X51.545 Y13.277 E18.72351
G1 X51.294 Y13.877 E18.75596
G1 X38.019 Y36.95 E20.084
G1 X37.836 Y37.225 E20.10048
G1 X37.078 Y38.224 E20.16305
G1 X36.625 Y38.687 E20.19536
G1 X35.643 Y39.468 E20.25796
G1 X35.08 Y39.809 E20.2908
G1 X33.929 Y40.32 E20.35363
G1 X33.308 Y40.508 E20.386
G1 X32.073 Y40.717 E20.44849
G1 X31.423 Y40.744 E20.48095
G1 X30.177 Y40.64 E20.54332
G1 X29.538 Y40.504 E20.57592
G1 X28.352 Y40.091 E20.63857
G1 X27.907 Y39.888 E20.66298
G1 X-48.411 Y-4.174 E25.05952
G1 X-48.81 Y-4.458 E25.08395
G1 X-49.761 Y-5.279 E25.14663
G1 X-50.197 Y-5.763 E25.17913
G1 X-50.912 Y-6.792 E25.24164
G1 X-51.213 Y-7.368 E25.27407
G1 X-51.649 Y-8.538 E25.33636
G1 X-51.799 Y-9.175 E25.36901
G1 X-51.93 Y-10.427 E25.43181
G1 X-51.916 Y-11.079 E25.46435
G1 X-51.733 Y-12.315 E25.52668
G1 X-51.557 Y-12.942 E25.55917
G1 X-51.068 Y-14.104 E25.62207
G1 X-50.924 Y-14.396 E25.63831
G1 X-45.262 Y-24.203 E26.20328
G1 X-44.594 Y-25.549 E26.27824
G1 X-44.432 Y-25.83 E26.29443
G1 X-43.584 Y-27.108 E26.37095
G1 X-37.57 Y-37.444 E26.96755
G1 X-37.179 Y-37.957 E26.99973
G1 X-36.302 Y-38.851 E27.06221
G1 X-35.792 Y-39.254 E27.09464
G1 X-34.728 Y-39.898 E27.15669
G1 X-34.134 Y-40.163 E27.18914
G1 X-32.93 Y-40.527 E27.25189
G1 X-32.286 Y-40.636 E27.28447
G1 X-31.035 Y-40.688 E27.34694
G1 X-30.388 Y-40.633 E27.37934
G1 X-29.157 Y-40.372 E27.44212
G1 X-28.608 Y-40.19 E27.47097
G1 X-27.755 Y-39.797 E27.51783
G1 X-27.543 Y-39.688 E27.52972
G0 F7800 X-27.743 Y-39.341
G1 F1800 X48.027 Y4.416 E31.89498
G1 X48.181 Y4.513 E31.90406
G1 X48.951 Y5.047 E31.95081
G1 X49.333 Y5.384 E31.97622
G1 X50.173 Y6.318 E32.03889
G1 X50.485 Y6.767 E32.06617
G1 X51.066 Y7.875 E32.12859
G1 X51.26 Y8.396 E32.15632
G1 X51.545 Y9.614 E32.21873
G1 X51.603 Y10.159 E32.24607
G1 X51.578 Y11.409 E32.30845
G1 X51.498 Y11.955 E32.33598
G1 X51.16 Y13.17 E32.3989
G1 X50.947 Y13.677 E32.42633
G1 X37.672 Y36.75 E33.75438
G1 X37.518 Y36.983 E33.76831
G1 X36.76 Y37.982 E33.83088
G1 X36.376 Y38.374 E33.85825
G1 X35.394 Y39.155 E33.92085
G1 X34.918 Y39.444 E33.94863
G1 X33.767 Y39.955 E34.01146
G1 X33.241 Y40.113 E34.03886
G1 X32.006 Y40.322 E34.10135
G1 X31.456 Y40.345 E34.12881
G1 X30.21 Y40.241 E34.19119
G1 X29.67 Y40.127 E34.21873
G1 X28.484 Y39.714 E34.28138
G1 X28.107 Y39.541 E34.30208
G1 X-48.211 Y-4.521 E38.69862
G1 X-48.549 Y-4.761 E38.7193
G1 X-49.5 Y-5.582 E38.78198
G1 X-49.869 Y-5.992 E38.8095
G1 X-50.584 Y-7.021 E38.87201
G1 X-50.839 Y-7.508 E38.89944
G1 X-51.275 Y-8.678 E38.96173
G1 X-51.401 Y-9.217 E38.98935
G1 X-51.532 Y-10.469 E39.05215
G1 X-51.52 Y-11.02 E39.07965
G1 X-51.337 Y-12.256 E39.14198
G1 X-51.189 Y-12.787 E39.16948
G1 X-50.7 Y-13.949 E39.23238
G1 X-50.577 Y-14.196 E39.24615
G1 X-44.915 Y-24.004 E39.81115
G1 X-44.236 Y-25.371 E39.8873
G1 X-44.098 Y-25.609 E39.90103
G1 X-43.251 Y-26.887 E39.97752
G1 X-37.225 Y-37.242 E40.57524
G1 X-36.893 Y-37.677 E40.60254
G1 X-36.016 Y-38.571 E40.66502
G1 X-35.585 Y-38.912 E40.69244
G1 X-34.521 Y-39.556 E40.75449
G1 X-34.019 Y-39.78 E40.78192
G1 X-32.815 Y-40.144 E40.84467
G1 X-32.269 Y-40.236 E40.87229
G1 X-31.018 Y-40.288 E40.93476
G1 X-30.471 Y-40.242 E40.96215
G1 X-29.24 Y-39.981 E41.02493
G1 X-28.775 Y-39.827 E41.04936
G1 X-27.922 Y-39.434 E41.09622
G1 X-27.743 Y-39.341 E41.10628
G0 F7800 X-27.943 Y-38.995
G1 F1800 X47.827 Y4.762 E45.47154
G1 X47.953 Y4.842 E45.47898
G1 X48.723 Y5.376 E45.52573
G1 X49.035 Y5.651 E45.54648
G1 X49.875 Y6.585 E45.60915
G1 X50.131 Y6.953 E45.63152
G1 X50.712 Y8.061 E45.69394
G1 X50.871 Y8.487 E45.71662
G1 X51.156 Y9.705 E45.77903
G1 X51.203 Y10.151 E45.8014
G1 X51.178 Y11.401 E45.86378
G1 X51.112 Y11.847 E45.88627
G1 X50.774 Y13.062 E45.94919
G1 X50.6 Y13.478 E45.97169
G1 X37.325 Y36.551 E47.29973
G1 X37.199 Y36.741 E47.3111
G1 X36.441 Y37.74 E47.37367
G1 X36.127 Y38.061 E47.39607
G1 X35.145 Y38.842 E47.45867
G1 X34.755 Y39.078 E47.48141
G1 X33.604 Y39.589 E47.54424
G1 X33.174 Y39.719 E47.56665
G1 X31.939 Y39.928 E47.62914
G1 X31.489 Y39.947 E47.65161
G1 X30.243 Y39.843 E47.71399
G1 X29.801 Y39.749 E47.73654
G1 X28.615 Y39.336 E47.79919
G1 X28.307 Y39.195 E47.81609
G1 X-48.011 Y-4.867 E52.21263
G1 X-48.287 Y-5.063 E52.22952
G1 X-49.238 Y-5.884 E52.2922
G1 X-49.54 Y-6.22 E52.31474
G1 X-50.255 Y-7.249 E52.37725
G1 X-50.464 Y-7.647 E52.39968
G1 X-50.9 Y-8.817 E52.46197
G1 X-51.003 Y-9.259 E52.48461
G1 X-51.134 Y-10.511 E52.54742
G1 X-51.125 Y-10.962 E52.56992
G1 X-50.942 Y-12.198 E52.63226
G1 X-50.82 Y-12.632 E52.65475
G1 X-50.331 Y-13.794 E52.71765
G1 X-50.231 Y-13.996 E52.72889
G1 X-44.554 Y-23.83 E53.2954
G1 X-43.877 Y-25.193 E53.37132
G1 X-43.765 Y-25.388 E53.38254
G1 X-42.907 Y-26.682 E53.46
G1 X-36.879 Y-37.041 E54.05795
G1 X-36.608 Y-37.397 E54.08027
G1 X-35.731 Y-38.291 E54.14275
G1 X-35.378 Y-38.57 E54.1652
G1 X-34.314 Y-39.214 E54.22725
G1 X-33.903 Y-39.397 E54.24969
G1 X-32.699 Y-39.761 E54.31244
G1 X-32.253 Y-39.836 E54.33501
G1 X-31.002 Y-39.888 E54.39747
G1 X-30.554 Y-39.851 E54.4199
G1 X-29.323 Y-39.59 E54.48268
G1 X-28.943 Y-39.464 E54.50265
G1 X-28.09 Y-39.071 E54.54951
G1 X-27.943 Y-38.995 E54.55777
G0 F7800 X-28.143 Y-38.648
G1 F1800 X47.627 Y5.109 E58.92302
G1 X47.725 Y5.171 E58.92881
G1 X48.495 Y5.705 E58.97556
G1 X48.738 Y5.919 E58.99171
G1 X49.578 Y6.853 E59.05438
G1 X49.777 Y7.139 E59.07176
G1 X50.358 Y8.247 E59.13418
G1 X50.481 Y8.578 E59.1518
G1 X50.766 Y9.796 E59.21421
G1 X50.803 Y10.143 E59.23162
G1 X50.778 Y11.393 E59.29399
G1 X50.727 Y11.74 E59.31149
G1 X50.389 Y12.955 E59.37441
G1 X50.253 Y13.278 E59.39189
G1 X36.978 Y36.351 E60.71994
G1 X36.88 Y36.499 E60.72879
G1 X36.122 Y37.498 E60.79136
G1 X35.878 Y37.748 E60.80878
G1 X34.896 Y38.529 E60.87138
G1 X34.593 Y38.713 E60.88907
G1 X33.442 Y39.224 E60.9519
G1 X33.108 Y39.324 E60.96929
G1 X31.873 Y39.533 E61.03178
G1 X31.523 Y39.548 E61.04926
G1 X30.277 Y39.444 E61.11164
G1 X29.933 Y39.371 E61.12918
G1 X28.747 Y38.958 E61.19184
G1 X28.507 Y38.848 E61.20501
G1 X-47.811 Y-5.214 E65.60155
G1 X-48.026 Y-5.366 E65.61468
G1 X-48.977 Y-6.187 E65.67736
G1 X-49.212 Y-6.448 E65.69489
G1 X-49.927 Y-7.477 E65.7574
G1 X-50.089 Y-7.787 E65.77485
G1 X-50.525 Y-8.957 E65.83714
G1 X-50.605 Y-9.3 E65.85471
G1 X-50.736 Y-10.552 E65.91752
G1 X-50.729 Y-10.903 E65.93503
G1 X-50.546 Y-12.139 E65.99737
G1 X-50.451 Y-12.477 E66.01489
G1 X-49.962 Y-13.639 E66.07778
G1 X-49.884 Y-13.796 E66.08653
G1 X-44.21 Y-23.624 E66.6527
G1 X-43.519 Y-25.016 E66.73023
G1 X-43.432 Y-25.167 E66.73892
G1 X-42.562 Y-26.478 E66.81742
G1 X-36.533 Y-36.84 E67.41552
G1 X-36.322 Y-37.116 E67.43285
G1 X-35.445 Y-38.01 E67.49533
G1 X-35.171 Y-38.228 E67.5128
G1 X-34.107 Y-38.872 E67.57485
G1 X-33.787 Y-39.014 E67.59232
G1 X-32.583 Y-39.378 E67.65507
G1 X-32.236 Y-39.437 E67.67263
G1 X-30.985 Y-39.489 E67.7351
G1 X-30.637 Y-39.46 E67.75252
G1 X-29.406 Y-39.199 E67.8153
G1 X-29.11 Y-39.101 E67.83086
G1 X-28.257 Y-38.708 E67.87771
G1 X-28.143 Y-38.648 E67.88414
G0 F7800 X-28.425 Y-38.344
G1 F1800 X-28.343 Y-38.302 E67.88874
G1 X47.427 Y5.455 E72.25399
G1 X47.497 Y5.499 E72.25812
G1 X48.267 Y6.033 E72.30487
G1 X48.441 Y6.186 E72.31642
G1 X49.281 Y7.12 E72.3791
G1 X49.423 Y7.325 E72.39154
G1 X50.004 Y8.433 E72.45395
G1 X50.092 Y8.669 E72.46652
G1 X50.377 Y9.887 E72.52893
G1 X50.403 Y10.135 E72.54137
G1 X50.378 Y11.385 E72.60374
G1 X50.341 Y11.633 E72.61625
G1 X50.003 Y12.848 E72.67917
G1 X49.907 Y13.079 E72.69165
G1 X36.632 Y36.152 E74.0197
G1 X36.562 Y36.257 E74.02599
G1 X35.804 Y37.256 E74.08855
G1 X35.629 Y37.435 E74.10104
G1 X34.647 Y38.216 E74.16364
G1 X34.431 Y38.347 E74.17624
G1 X33.28 Y38.858 E74.23907
G1 X33.041 Y38.93 E74.25153
G1 X31.806 Y39.139 E74.31402
G1 X31.556 Y39.15 E74.3265
G1 X30.31 Y39.046 E74.38888
G1 X30.064 Y38.993 E74.40144
G1 X28.878 Y38.58 E74.46409
G1 X28.707 Y38.502 E74.47347
G1 X-47.611 Y-5.56 E78.87001
G1 X-47.764 Y-5.669 E78.87938
G1 X-48.715 Y-6.49 E78.94206
G1 X-48.883 Y-6.676 E78.95456
G1 X-49.598 Y-7.705 E79.01708
G1 X-49.714 Y-7.927 E79.02957
G1 X-50.15 Y-9.097 E79.09187
G1 X-50.208 Y-9.342 E79.10443
G1 X-50.339 Y-10.594 E79.16723
G1 X-50.333 Y-10.844 E79.17971
G1 X-50.15 Y-12.08 E79.24204
G1 X-50.083 Y-12.322 E79.25457
G1 X-49.594 Y-13.484 E79.31747
G1 X-49.538 Y-13.596 E79.32372
G1 X-43.856 Y-23.438 E79.89069
G1 X-43.161 Y-24.838 E79.96867
G1 X-43.098 Y-24.946 E79.97491
G1 X-42.226 Y-26.262 E80.05367
G1 X-36.187 Y-36.639 E80.65266
G1 X-36.037 Y-36.836 E80.66502
G1 X-35.16 Y-37.73 E80.7275
G1 X-34.964 Y-37.886 E80.73999
G1 X-33.9 Y-38.53 E80.80204
G1 X-33.671 Y-38.631 E80.81453
G1 X-32.467 Y-38.995 E80.87728
G1 X-32.22 Y-39.037 E80.88978
G1 X-30.969 Y-39.089 E80.95225
G1 X-30.72 Y-39.068 E80.96472
G1 X-29.489 Y-38.807 E81.0275
G1 X-29.278 Y-38.737 E81.03859
G1 X-28.425 Y-38.344 E81.08544
G0 F7800 X-28.592 Y-37.981
G1 F1800 X-28.543 Y-37.956 E81.08819
G1 X47.227 Y5.801 E85.45344
G1 X47.269 Y5.828 E85.45593
G1 X48.039 Y6.362 E85.50268
G1 X48.143 Y6.454 E85.50961
G1 X48.983 Y7.388 E85.57228
G1 X49.068 Y7.51 E85.5797
G1 X49.649 Y8.618 E85.64212
G1 X49.702 Y8.76 E85.64968
G1 X49.987 Y9.978 E85.71209
G1 X50.003 Y10.127 E85.71956
G1 X49.978 Y11.377 E85.78194
G1 X49.956 Y11.526 E85.78945
G1 X49.618 Y12.741 E85.85237
G1 X49.56 Y12.879 E85.85984
G1 X36.285 Y35.952 E87.18788
G1 X36.243 Y36.016 E87.1917
G1 X35.485 Y37.015 E87.25427
G1 X35.38 Y37.122 E87.26174
G1 X34.398 Y37.903 E87.32434
G1 X34.268 Y37.981 E87.33191
G1 X33.117 Y38.492 E87.39473
G1 X32.974 Y38.536 E87.4022
G1 X31.739 Y38.745 E87.46469
G1 X31.589 Y38.751 E87.47218
G1 X30.343 Y38.647 E87.53456
G1 X30.196 Y38.616 E87.54205
G1 X29.01 Y38.203 E87.60471
G1 X28.907 Y38.156 E87.61036
G1 X-47.411 Y-5.906 E92.0069
G1 X-47.503 Y-5.972 E92.01255
G1 X-48.454 Y-6.793 E92.07523
G1 X-48.555 Y-6.905 E92.08275
G1 X-49.27 Y-7.934 E92.14526
G1 X-49.339 Y-8.066 E92.15269
G1 X-49.775 Y-9.236 E92.21499
G1 X-49.81 Y-9.384 E92.22257
G1 X-49.941 Y-10.636 E92.28538
G1 X-49.938 Y-10.786 E92.29286
G1 X-49.755 Y-12.022 E92.3552
G1 X-49.714 Y-12.167 E92.36272
G1 X-49.225 Y-13.329 E92.42561
G1 X-49.192 Y-13.396 E92.42934
G1 X-43.495 Y-23.263 E92.99777
G1 X-42.802 Y-24.66 E93.07557
G1 X-42.765 Y-24.725 E93.0793
G1 X-41.89 Y-26.045 E93.15831
G1 X-35.842 Y-36.438 E93.75822
G1 X-35.751 Y-36.556 E93.76566
G1 X-34.874 Y-37.45 E93.82814
G1 X-34.757 Y-37.543 E93.83559
G1 X-33.693 Y-38.187 E93.89764
G1 X-33.556 Y-38.248 E93.90512
G1 X-32.352 Y-38.612 E93.96788
G1 X-32.203 Y-38.637 E93.97542
G1 X-30.952 Y-38.689 E94.03788
G1 X-30.803 Y-38.677 E94.04534
G1 X-29.572 Y-38.416 E94.10812
G1 X-29.445 Y-38.374 E94.11479
G1 X-28.592 Y-37.981 E94.16165
G0 F7800 X-28.743 Y-37.609
G1 F1800 X47.027 Y6.148 E98.5269
G1 X47.041 Y6.157 E98.52773
G1 X47.811 Y6.691 E98.57448
G1 X47.846 Y6.721 E98.57678
G1 X48.686 Y7.655 E98.63945
G1 X48.714 Y7.696 E98.64193
G1 X49.295 Y8.804 E98.70435
G1 X49.313 Y8.851 E98.70686
G1 X49.598 Y10.069 E98.76927
G1 X49.603 Y10.119 E98.77177
G1 X49.578 Y11.369 E98.83415
G1 X49.571 Y11.419 E98.83667
G1 X49.233 Y12.634 E98.89959
G1 X49.213 Y12.68 E98.90209
G1 X35.938 Y35.753 E100.23013
G1 X35.924 Y35.774 E100.23139
G1 X35.166 Y36.773 E100.29396
G1 X35.131 Y36.809 E100.29646
G1 X34.149 Y37.59 E100.35906
G1 X34.106 Y37.616 E100.36156
G1 X32.955 Y38.127 E100.42439
G1 X32.907 Y38.141 E100.42689
G1 X31.672 Y38.35 E100.48938
G1 X31.622 Y38.352 E100.49187
G1 X30.376 Y38.248 E100.55425
G1 X30.327 Y38.238 E100.55675
G1 X29.141 Y37.825 E100.6194
G1 X29.107 Y37.809 E100.62128
G1 X-47.211 Y-6.253 E105.01782
G1 X-47.242 Y-6.275 E105.01972
G1 X-48.193 Y-7.096 E105.0824
G1 X-48.226 Y-7.133 E105.08487
G1 X-48.941 Y-8.162 E105.14738
G1 X-48.964 Y-8.206 E105.14986
G1 X-49.4 Y-9.376 E105.21215
G1 X-49.412 Y-9.425 E105.21467
G1 X-49.543 Y-10.677 E105.27747
G1 X-49.542 Y-10.727 E105.27997
G1 X-49.359 Y-11.963 E105.3423
G1 X-49.345 Y-12.012 E105.34485
G1 X-48.856 Y-13.174 E105.40774
G1 X-48.845 Y-13.196 E105.40897
G1 X-43.148 Y-23.064 E105.97744
G1 X-42.444 Y-24.482 E106.05642
G1 X-42.432 Y-24.504 E106.05767
G1 X-41.544 Y-25.843 E106.13783
G1 X-35.496 Y-36.237 E106.73779
G1 X-35.466 Y-36.276 E106.74024
G1 X-34.589 Y-37.17 E106.80272
G1 X-34.55 Y-37.201 E106.80521
G1 X-33.486 Y-37.845 E106.86726
G1 X-33.44 Y-37.865 E106.86976
G1 X-32.236 Y-38.229 E106.93251
G1 X-32.186 Y-38.238 E106.93505
G1 X-30.935 Y-38.29 E106.99752
G1 X-30.886 Y-38.286 E106.99997
G1 X-29.655 Y-38.025 E107.06275
G1 X-29.612 Y-38.011 E107.065
G1 X-28.759 Y-37.618 E107.11186
G1 X-28.743 Y-37.609 E107.11278
G0 F7800 X-29.14 Y-36.915
;TYPE:WALL-INNER
G1 F1800 X46.12 Y6.535 E111.44834
G1 X46.115 Y6.545 E111.4489
G1 X46.865 Y6.977 E111.49208
G1 X47.301 Y7.307 E111.51936
G1 X47.701 Y7.699 E111.5473
G1 X48.045 Y8.133 E111.57493
G1 X48.328 Y8.601 E111.60221
G1 X48.554 Y9.106 E111.62982
G1 X48.715 Y9.644 E111.65783
G1 X48.805 Y10.173 E111.6846
G1 X48.829 Y10.736 E111.71272
G1 X48.783 Y11.284 E111.74015
G1 X48.668 Y11.824 E111.7677
G1 X48.485 Y12.35 E111.79548
