;FLAVOR:RepRap
;TIME:17551
;Generated with Cura_SteamEngine 2.3.0
M104 S200
M109 S200
G21 ;metric values
G90 ;absolute positioning
M82 ;set extruder to absolute mode
M107 ;start with the fan off
G28 ;Home all axes (max endstops)
G1 Z15.0 F9000 ;move the platform down 15mm
G92 E0 ;zero the extruded length
G1 F200 E3 ;extrude 3mm of feed stock
G92 E0 ;zero the extruded length again
G1 F9000
;Put printing message on LCD screen
M117 Printing...
;LAYER_COUNT:175
;LAYER:0
M107
G1 F1500 E-6.5
G0 F7800 X21.729 Y-38.815 Z.3
;TYPE:SKIRT
G1 F1500 E0
G1 F1800 X21.835 Y-39.02 E0.01151
G1 X22.206 Y-39.658 E0.04833
G1 X22.485 Y-40.06 E0.07275
G1 X22.827 Y-40.411 E0.0972
G1 X23.221 Y-40.701 E0.1216
G1 X23.656 Y-40.924 E0.14599
G1 X24.123 Y-41.073 E0.17045
G1 X24.607 Y-41.144 E0.19485
G1 X25.096 Y-41.135 E0.21925
G1 X25.578 Y-41.047 E0.2437
G1 X26.039 Y-40.882 E0.26813
G1 X26.299 Y-40.748 E0.28272
G1 X27.541 Y-40.031 E0.35427
G1 X27.943 Y-39.753 E0.37865
G1 X28.295 Y-39.412 E0.4031
G1 X28.416 Y-39.249 E0.41323
G1 X37.203 Y-34.174 E0.91948
G1 X37.429 Y-34.146 E0.93084
G1 X37.899 Y-34.008 E0.95528
G1 X38.333 Y-33.799 E0.97931
G1 X39.226 Y-33.278 E1.03089
G1 X39.627 Y-32.998 E1.05529
G1 X39.977 Y-32.656 E1.0797
G1 X40.267 Y-32.262 E1.10411
G1 X40.49 Y-31.826 E1.12854
G1 X40.638 Y-31.359 E1.15298
G1 X40.641 Y-31.337 E1.15409
G1 X40.846 Y-31.404 E1.16485
G1 X41.329 Y-31.478 E1.18923
G1 X41.819 Y-31.473 E1.21368
G1 X42.301 Y-31.389 E1.23809
G1 X42.763 Y-31.227 E1.26251
G1 X43.051 Y-31.08 E1.27864
G1 X45.155 Y-29.858 E1.40003
G1 X45.557 Y-29.579 E1.42445
G1 X45.908 Y-29.237 E1.4489
G1 X46.198 Y-28.844 E1.47326
G1 X46.421 Y-28.408 E1.4977
G1 X46.57 Y-27.942 E1.5221
G1 X46.642 Y-27.458 E1.54652
G1 X46.633 Y-26.968 E1.57097
G1 X46.546 Y-26.487 E1.59535
G1 X46.381 Y-26.026 E1.61978
G1 X46.246 Y-25.763 E1.63453
G1 X45.878 Y-25.126 E1.67123
G1 X45.745 Y-24.934 E1.68288
G1 X52.471 Y-21.046 E2.07048
G1 X52.581 Y-21.257 E2.08235
G1 X52.947 Y-21.891 E2.11887
G1 X53.225 Y-22.293 E2.14325
G1 X53.566 Y-22.645 E2.16771
G1 X53.959 Y-22.937 E2.19213
G1 X54.394 Y-23.161 E2.21654
G1 X54.86 Y-23.312 E2.24098
G1 X55.344 Y-23.384 E2.26539
G1 X55.833 Y-23.377 E2.28979
G1 X56.315 Y-23.291 E2.31422
G1 X56.776 Y-23.127 E2.33863
G1 X57.046 Y-22.989 E2.35376
G1 X59.371 Y-21.646 E2.48771
G1 X59.773 Y-21.367 E2.51213
G1 X60.125 Y-21.027 E2.53654
G1 X60.417 Y-20.634 E2.56097
G1 X60.641 Y-20.199 E2.58538
G1 X60.791 Y-19.733 E2.6098
G1 X60.863 Y-19.249 E2.63422
G1 X60.856 Y-18.759 E2.65866
G1 X60.769 Y-18.277 E2.6831
G1 X60.605 Y-17.816 E2.70751
G1 X60.459 Y-17.533 E2.7234
G1 X60.074 Y-16.875 E2.76143
G1 X59.914 Y-16.647 E2.77533
G1 X61.157 Y-15.93 E2.84692
G1 X61.56 Y-15.651 E2.87137
G1 X61.912 Y-15.311 E2.89579
G1 X62.204 Y-14.918 E2.92022
G1 X62.428 Y-14.483 E2.94463
G1 X62.578 Y-14.017 E2.96905
G1 X62.651 Y-13.533 E2.99347
G1 X62.644 Y-13.044 E3.01787
G1 X62.558 Y-12.562 E3.0423
G1 X62.394 Y-12.101 E3.06671
G1 X62.256 Y-11.831 E3.08184
G1 X20.882 Y59.83 E7.21011
G1 X20.604 Y60.233 E7.23454
G1 X20.263 Y60.584 E7.25895
G1 X19.87 Y60.876 E7.28338
G1 X19.435 Y61.1 E7.30779
G1 X18.969 Y61.251 E7.33223
G1 X18.485 Y61.323 E7.35664
G1 X17.996 Y61.316 E7.38104
G1 X17.514 Y61.23 E7.40547
G1 X17.053 Y61.066 E7.42988
G1 X16.784 Y60.928 E7.44496
G1 X15.553 Y60.218 E7.51586
G1 X15.411 Y60.499 E7.53157
G1 X15.022 Y61.163 E7.56996
G1 X14.74 Y61.564 E7.59442
G1 X14.398 Y61.914 E7.61883
G1 X14.003 Y62.203 E7.64325
G1 X13.567 Y62.425 E7.66766
G1 X13.1 Y62.572 E7.69209
G1 X12.615 Y62.641 E7.71653
G1 X12.126 Y62.631 E7.74093
G1 X11.645 Y62.542 E7.76533
G1 X11.184 Y62.375 E7.78979
G1 X10.933 Y62.245 E7.8039
G1 X8.608 Y60.903 E7.93783
G1 X8.206 Y60.625 E7.96221
G1 X7.854 Y60.285 E7.98663
G1 X7.562 Y59.892 E8.01105
G1 X7.338 Y59.456 E8.03551
G1 X7.187 Y58.991 E8.0599
G1 X7.115 Y58.507 E8.08431
G1 X7.122 Y58.017 E8.10876
G1 X7.208 Y57.535 E8.13319
G1 X7.372 Y57.074 E8.1576
G1 X7.546 Y56.744 E8.17621
G1 X7.931 Y56.112 E8.21313
G1 X8.009 Y56.005 E8.21974
G1 X-52.47 Y21.046 E11.70486
G1 X-52.585 Y21.266 E11.71725
G1 X-52.952 Y21.897 E11.75366
G1 X-53.232 Y22.299 E11.77811
G1 X-53.573 Y22.65 E11.80252
G1 X-53.967 Y22.94 E11.82693
G1 X-54.403 Y23.163 E11.85136
G1 X-54.869 Y23.312 E11.87577
G1 X-55.353 Y23.383 E11.90017
G1 X-55.843 Y23.374 E11.92462
G1 X-56.324 Y23.286 E11.94902
G1 X-56.785 Y23.121 E11.97345
G1 X-57.043 Y22.988 E11.98793
G1 X-59.374 Y21.645 E12.12214
G1 X-59.776 Y21.367 E12.14653
G1 X-60.129 Y21.027 E12.17098
G1 X-60.421 Y20.635 E12.19537
G1 X-60.645 Y20.2 E12.21978
G1 X-60.796 Y19.734 E12.24422
G1 X-60.869 Y19.25 E12.26864
G1 X-60.862 Y18.76 E12.29308
G1 X-60.776 Y18.279 E12.31746
G1 X-60.613 Y17.817 E12.3419
G1 X-60.446 Y17.498 E12.35987
G1 X-60.052 Y16.844 E12.39796
G1 X-59.911 Y16.649 E12.40996
G1 X-61.157 Y15.93 E12.48174
G1 X-61.56 Y15.651 E12.50619
G1 X-61.912 Y15.311 E12.53061
G1 X-62.204 Y14.918 E12.55503
G1 X-62.428 Y14.483 E12.57944
G1 X-62.578 Y14.017 E12.60387
G1 X-62.651 Y13.533 E12.62829
G1 X-62.644 Y13.044 E12.65268
G1 X-62.558 Y12.562 E12.67711
G1 X-62.394 Y12.101 E12.70152
G1 X-62.256 Y11.831 E12.71665
G1 X-20.882 Y-59.83 E16.84493
G1 X-20.604 Y-60.233 E16.86935
G1 X-20.263 Y-60.584 E16.89377
G1 X-19.87 Y-60.876 E16.91819
G1 X-19.435 Y-61.1 E16.9426
G1 X-18.969 Y-61.251 E16.96704
G1 X-18.485 Y-61.323 E16.99146
G1 X-17.996 Y-61.316 E17.01586
G1 X-17.514 Y-61.23 E17.04028
G1 X-17.053 Y-61.066 E17.06469
G1 X-16.784 Y-60.928 E17.07978
G1 X-15.561 Y-60.222 E17.15023
G1 X-15.415 Y-60.507 E17.1662
G1 X-15.03 Y-61.162 E17.20411
G1 X-14.749 Y-61.563 E17.22854
G1 X-14.406 Y-61.912 E17.25295
G1 X-14.01 Y-62.201 E17.27741
G1 X-13.574 Y-62.421 E17.30177
G1 X-13.107 Y-62.568 E17.3262
G1 X-12.622 Y-62.637 E17.35064
G1 X-12.133 Y-62.626 E17.37504
G1 X-11.651 Y-62.535 E17.39952
G1 X-11.191 Y-62.368 E17.42393
G1 X-10.948 Y-62.243 E17.43756
G1 X-8.618 Y-60.903 E17.57166
G1 X-8.215 Y-60.625 E17.59609
G1 X-7.863 Y-60.285 E17.6205
G1 X-7.57 Y-59.893 E17.64492
G1 X-7.346 Y-59.458 E17.66933
G1 X-7.194 Y-58.992 E17.69378
G1 X-7.121 Y-58.508 E17.7182
G1 X-7.127 Y-58.019 E17.7426
G1 X-7.213 Y-57.537 E17.76703
G1 X-7.376 Y-57.075 E17.79147
G1 X-7.516 Y-56.803 E17.80673
G1 X-7.883 Y-56.167 E17.84337
G1 X-7.999 Y-55.999 E17.85355
G1 X-4.898 Y-54.207 E18.03224
G1 X-4.805 Y-54.389 E18.04243
G1 X-4.436 Y-55.028 E18.07925
G1 X-4.157 Y-55.431 E18.1037
G1 X-3.817 Y-55.783 E18.12812
G1 X-3.424 Y-56.074 E18.15251
G1 X-2.989 Y-56.298 E18.17692
G1 X-2.523 Y-56.449 E18.20136
G1 X-2.039 Y-56.521 E18.22577
G1 X-1.55 Y-56.514 E18.25017
G1 X-1.068 Y-56.427 E18.27461
G1 X-.607 Y-56.264 E18.299
G1 X-.337 Y-56.126 E18.31413
G1 X6.954 Y-51.913 E18.73424
G1 X7.356 Y-51.634 E18.75865
G1 X7.708 Y-51.293 E18.7831
G1 X8 Y-50.9 E18.80753
G1 X8.224 Y-50.465 E18.83194
G1 X8.374 Y-49.999 E18.85637
G1 X8.446 Y-49.515 E18.88078
G1 X8.439 Y-49.026 E18.90518
G1 X8.352 Y-48.544 E18.92961
G1 X8.188 Y-48.083 E18.95402
G1 X8.042 Y-47.8 E18.96991
G1 X7.671 Y-47.166 E19.00656
G1 X7.559 Y-47.006 E19.0163
G1 X9.959 Y-45.619 E19.1546
G1 X10.065 Y-45.824 E19.16611
G1 X10.436 Y-46.458 E19.20276
G1 X10.717 Y-46.859 E19.22719
G1 X11.059 Y-47.209 E19.2516
G1 X11.454 Y-47.499 E19.27605
G1 X11.89 Y-47.72 E19.30044
G1 X12.357 Y-47.868 E19.32488
G1 X12.841 Y-47.937 E19.34927
G1 X13.331 Y-47.927 E19.37372
G1 X13.812 Y-47.838 E19.39812
G1 X14.272 Y-47.671 E19.42254
G1 X14.524 Y-47.542 E19.43666
G1 X19.616 Y-44.605 E19.72993
G1 X20.019 Y-44.326 E19.75439
G1 X20.371 Y-43.986 E19.7788
G1 X20.663 Y-43.593 E19.80323
G1 X20.887 Y-43.158 E19.82764
G1 X21.037 Y-42.693 E19.85201
G1 X21.11 Y-42.209 E19.87643
G1 X21.103 Y-41.719 E19.90088
G1 X21.017 Y-41.237 E19.92531
G1 X20.853 Y-40.776 E19.94972
G1 X20.714 Y-40.504 E19.96496
G1 X20.345 Y-39.866 E20.00173
G1 X20.221 Y-39.687 E20.01259
G1 X21.729 Y-38.815 E20.0995
G0 F7800 X21.94 Y-38.232
G1 F1800 X21.992 Y-38.42 E20.10923
G1 X22.18 Y-38.819 E20.13124
G1 X22.551 Y-39.457 E20.16806
G1 X22.814 Y-39.829 E20.19079
G1 X23.138 Y-40.15 E20.21354
G1 X23.512 Y-40.409 E20.23624
G1 X23.927 Y-40.599 E20.25901
G1 X24.367 Y-40.714 E20.2817
G1 X24.822 Y-40.75 E20.30447
G1 X25.275 Y-40.706 E20.32718
G1 X25.714 Y-40.584 E20.34991
G1 X26.099 Y-40.402 E20.37115
G1 X27.341 Y-39.685 E20.4427
G1 X27.714 Y-39.423 E20.46544
G1 X28.036 Y-39.101 E20.48816
G1 X28.147 Y-38.941 E20.49788
G1 X37.068 Y-33.789 E21.01184
G1 X37.41 Y-33.74 E21.02907
G1 X37.843 Y-33.599 E21.05179
G1 X38.131 Y-33.454 E21.06788
G1 X39.024 Y-32.933 E21.11946
G1 X39.396 Y-32.67 E21.14219
G1 X39.716 Y-32.345 E21.16494
G1 X39.975 Y-31.97 E21.18768
G1 X40.164 Y-31.556 E21.21039
G1 X40.279 Y-31.115 E21.23312
G1 X40.306 Y-30.767 E21.25054
G1 X40.653 Y-30.929 E21.26964
G1 X41.093 Y-31.047 E21.29237
G1 X41.547 Y-31.086 E21.3151
G1 X42.001 Y-31.046 E21.33784
G1 X42.441 Y-30.926 E21.36059
G1 X42.85 Y-30.734 E21.38314
G1 X44.954 Y-29.512 E21.50453
G1 X45.326 Y-29.25 E21.52723
G1 X45.647 Y-28.926 E21.54998
G1 X45.907 Y-28.552 E21.5727
G1 X46.097 Y-28.138 E21.59543
G1 X46.212 Y-27.697 E21.61817
G1 X46.248 Y-27.243 E21.64089
G1 X46.204 Y-26.789 E21.66365
G1 X46.082 Y-26.35 E21.68638
G1 X45.899 Y-25.963 E21.70773
G1 X45.531 Y-25.326 E21.74444
G1 X45.27 Y-24.953 E21.76715
G1 X45.139 Y-24.822 E21.77639
G1 X52.686 Y-20.46 E22.21128
G1 X52.753 Y-20.692 E22.22333
G1 X52.927 Y-21.057 E22.2435
G1 X53.293 Y-21.691 E22.28002
G1 X53.555 Y-22.064 E22.30276
G1 X53.877 Y-22.386 E22.32548
G1 X54.251 Y-22.646 E22.34821
G1 X54.665 Y-22.837 E22.37095
G1 X55.105 Y-22.954 E22.39367
G1 X55.559 Y-22.991 E22.41639
G1 X56.013 Y-22.949 E22.43914
G1 X56.452 Y-22.828 E22.46186
G1 X56.845 Y-22.642 E22.48355
G1 X59.17 Y-21.299 E22.61751
G1 X59.544 Y-21.038 E22.64026
G1 X59.865 Y-20.715 E22.66298
G1 X60.126 Y-20.341 E22.68573
G1 X60.317 Y-19.928 E22.70843
G1 X60.433 Y-19.487 E22.73118
G1 X60.47 Y-19.033 E22.75391
G1 X60.427 Y-18.579 E22.77666
G1 X60.306 Y-18.14 E22.79938
G1 X60.114 Y-17.735 E22.82174
G1 X59.729 Y-17.077 E22.85977
G1 X59.465 Y-16.705 E22.88253
G1 X59.298 Y-16.54 E22.89424
G1 X60.957 Y-15.583 E22.9898
G1 X61.331 Y-15.322 E23.01255
G1 X61.652 Y-14.999 E23.03527
G1 X61.913 Y-14.625 E23.05802
G1 X62.104 Y-14.212 E23.08072
G1 X62.22 Y-13.771 E23.10347
G1 X62.258 Y-13.317 E23.1262
G1 X62.216 Y-12.864 E23.1489
G1 X62.095 Y-12.424 E23.17167
G1 X61.91 Y-12.031 E23.19334
G1 X20.536 Y59.63 E27.32161
G1 X20.274 Y60.003 E27.34435
G1 X19.952 Y60.325 E27.36707
G1 X19.578 Y60.585 E27.3898
G1 X19.164 Y60.777 E27.41257
G1 X18.723 Y60.893 E27.43532
G1 X18.269 Y60.93 E27.45804
G1 X17.816 Y60.887 E27.48074
G1 X17.376 Y60.766 E27.50351
G1 X16.984 Y60.582 E27.52511
G1 X15.331 Y59.628 E27.62033
G1 X15.269 Y59.863 E27.63246
G1 X15.065 Y60.297 E27.65638
G1 X14.676 Y60.961 E27.69477
G1 X14.412 Y61.333 E27.71753
G1 X14.088 Y61.652 E27.74022
G1 X13.712 Y61.91 E27.76297
G1 X13.298 Y62.099 E27.78567
G1 X12.856 Y62.212 E27.80843
G1 X12.402 Y62.247 E27.83115
G1 X11.949 Y62.201 E27.85387
G1 X11.51 Y62.078 E27.87661
G1 X11.133 Y61.899 E27.89743
G1 X8.808 Y60.557 E28.03136
G1 X8.435 Y60.295 E28.0541
G1 X8.113 Y59.973 E28.07682
G1 X7.853 Y59.599 E28.09955
G1 X7.662 Y59.185 E28.12229
G1 X7.545 Y58.745 E28.14501
G1 X7.508 Y58.291 E28.16773
G1 X7.55 Y57.837 E28.19048
G1 X7.671 Y57.398 E28.2132
G1 X7.888 Y56.952 E28.23794
G1 X8.273 Y56.32 E28.27487
G1 X8.543 Y55.954 E28.29756
G1 X8.61 Y55.89 E28.30218
G1 X-52.685 Y20.46 E31.83431
G1 X-52.752 Y20.694 E31.84645
G1 X-52.93 Y21.065 E31.86698
G1 X-53.297 Y21.696 E31.9034
G1 X-53.56 Y22.068 E31.92613
G1 X-53.884 Y22.389 E31.94888
G1 X-54.259 Y22.648 E31.97162
G1 X-54.673 Y22.838 E31.99434
G1 X-55.114 Y22.953 E32.01708
G1 X-55.568 Y22.989 E32.0398
G1 X-56.021 Y22.945 E32.06251
G1 X-56.46 Y22.823 E32.08524
G1 X-56.843 Y22.642 E32.10638
G1 X-59.174 Y21.299 E32.24059
G1 X-59.547 Y21.038 E32.2633
G1 X-59.869 Y20.715 E32.28606
G1 X-60.13 Y20.342 E32.30877
G1 X-60.322 Y19.928 E32.33154
G1 X-60.438 Y19.488 E32.35424
G1 X-60.476 Y19.034 E32.37697
G1 X-60.434 Y18.58 E32.39972
G1 X-60.313 Y18.141 E32.42243
G1 X-60.103 Y17.704 E32.44662
G1 X-59.709 Y17.05 E32.48471
G1 X-59.441 Y16.682 E32.50743
G1 X-59.295 Y16.542 E32.51752
G1 X-60.957 Y15.583 E32.61325
G1 X-61.33 Y15.322 E32.63596
G1 X-61.652 Y14.999 E32.65872
G1 X-61.913 Y14.626 E32.68143
G1 X-62.104 Y14.212 E32.70417
G1 X-62.22 Y13.772 E32.72688
G1 X-62.258 Y13.317 E32.74966
G1 X-62.216 Y12.864 E32.77235
G1 X-62.095 Y12.424 E32.79512
G1 X-61.91 Y12.031 E32.81679
G1 X-20.536 Y-59.63 E36.94507
G1 X-20.274 Y-60.003 E36.96781
G1 X-19.952 Y-60.325 E36.99053
G1 X-19.578 Y-60.585 E37.01325
G1 X-19.164 Y-60.777 E37.03602
G1 X-18.723 Y-60.893 E37.05877
G1 X-18.269 Y-60.93 E37.08149
G1 X-17.816 Y-60.887 E37.1042
G1 X-17.376 Y-60.766 E37.12696
G1 X-16.984 Y-60.582 E37.14857
G1 X-15.338 Y-59.631 E37.24341
G1 X-15.275 Y-59.867 E37.25559
G1 X-15.07 Y-60.305 E37.27972
G1 X-14.685 Y-60.96 E37.31763
G1 X-14.421 Y-61.331 E37.34034
G1 X-14.096 Y-61.65 E37.36306
G1 X-13.72 Y-61.907 E37.38578
G1 X-13.305 Y-62.095 E37.40851
G1 X-12.864 Y-62.208 E37.43123
G1 X-12.409 Y-62.242 E37.45399
G1 X-11.956 Y-62.196 E37.47671
G1 X-11.518 Y-62.071 E37.49943
G1 X-11.148 Y-61.896 E37.51985
G1 X-8.818 Y-60.556 E37.65395
G1 X-8.444 Y-60.295 E37.6767
G1 X-8.122 Y-59.973 E37.69942
G1 X-7.861 Y-59.599 E37.72217
G1 X-7.669 Y-59.186 E37.7449
G1 X-7.552 Y-58.746 E37.76761
G1 X-7.514 Y-58.292 E37.79034
G1 X-7.556 Y-57.838 E37.81309
G1 X-7.676 Y-57.399 E37.83579
G1 X-7.862 Y-57.003 E37.85762
G1 X-8.229 Y-56.367 E37.89425
G1 X-8.49 Y-55.993 E37.91701
G1 X-8.599 Y-55.884 E37.9247
G1 X-4.691 Y-53.625 E38.1499
G1 X-4.644 Y-53.796 E38.15875
G1 X-4.459 Y-54.189 E38.18042
G1 X-4.09 Y-54.828 E38.21723
G1 X-3.828 Y-55.201 E38.23997
G1 X-3.505 Y-55.523 E38.26272
G1 X-3.131 Y-55.783 E38.28545
G1 X-2.718 Y-55.975 E38.30817
G1 X-2.277 Y-56.091 E38.33092
G1 X-1.823 Y-56.128 E38.35365
G1 X-1.37 Y-56.085 E38.37635
G1 X-.93 Y-55.964 E38.39912
G1 X-.537 Y-55.779 E38.42079
G1 X6.754 Y-51.566 E38.8409
G1 X7.127 Y-51.305 E38.86361
G1 X7.448 Y-50.982 E38.88633
G1 X7.709 Y-50.608 E38.90908
G1 X7.9 Y-50.194 E38.93183
G1 X8.016 Y-49.754 E38.95453
G1 X8.053 Y-49.299 E38.9773
G1 X8.01 Y-48.846 E39.00001
G1 X7.889 Y-48.407 E39.02272
G1 X7.697 Y-48.002 E39.04509
G1 X7.326 Y-47.368 E39.08173
G1 X7.062 Y-46.996 E39.10449
G1 X6.957 Y-46.892 E39.11186
G1 X10.168 Y-45.036 E39.2969
G1 X10.218 Y-45.216 E39.30622
G1 X10.41 Y-45.622 E39.32862
G1 X10.781 Y-46.256 E39.36527
G1 X11.045 Y-46.628 E39.38803
G1 X11.369 Y-46.948 E39.41075
G1 X11.745 Y-47.206 E39.4335
G1 X12.159 Y-47.395 E39.4562
G1 X12.6 Y-47.508 E39.47892
G1 X13.055 Y-47.543 E39.50168
G1 X13.508 Y-47.498 E39.5244
G1 X13.947 Y-47.374 E39.54715
G1 X14.324 Y-47.195 E39.56798
G1 X19.416 Y-44.258 E39.86124
G1 X19.789 Y-43.997 E39.88396
G1 X20.111 Y-43.674 E39.90671
G1 X20.372 Y-43.301 E39.92942
G1 X20.563 Y-42.887 E39.95217
G1 X20.679 Y-42.447 E39.97487
G1 X20.717 Y-41.993 E39.9976
G1 X20.675 Y-41.539 E40.02035
G1 X20.554 Y-41.1 E40.04307
G1 X20.368 Y-40.704 E40.06489
G1 X19.999 Y-40.066 E40.10166
G1 X19.737 Y-39.693 E40.12441
G1 X19.618 Y-39.574 E40.1328
G1 X21.94 Y-38.232 E40.2666
G0 F7800 X22.238 Y-37.598
G1 F1800 X22.238 Y-37.726 E40.27299
G1 X22.319 Y-38.137 E40.29389
G1 X22.526 Y-38.618 E40.32001
G1 X22.897 Y-39.256 E40.35683
G1 X23.141 Y-39.596 E40.37771
G1 X23.446 Y-39.885 E40.39867
G1 X23.799 Y-40.11 E40.41956
G1 X24.189 Y-40.264 E40.44048
G1 X24.601 Y-40.341 E40.46139
G1 X25.02 Y-40.339 E40.48229
G1 X25.431 Y-40.257 E40.5032
G1 X25.899 Y-40.055 E40.52863
G1 X27.141 Y-39.338 E40.60018
G1 X27.482 Y-39.095 E40.62107
G1 X27.771 Y-38.792 E40.64196
G1 X27.86 Y-38.645 E40.65053
G1 X36.938 Y-33.402 E41.17355
G1 X36.971 Y-33.403 E41.17519
G1 X37.385 Y-33.335 E41.19613
G1 X37.93 Y-33.108 E41.22558
G1 X38.823 Y-32.587 E41.27716
G1 X39.163 Y-32.343 E41.29804
G1 X39.45 Y-32.038 E41.31893
G1 X39.675 Y-31.684 E41.33986
G1 X39.829 Y-31.294 E41.36078
G1 X39.905 Y-30.882 E41.38168
G1 X39.903 Y-30.463 E41.40258
G1 X39.82 Y-30.052 E41.4235
G1 X39.593 Y-29.543 E41.45131
G1 X39.212 Y-28.917 E41.48787
G1 X38.961 Y-28.582 E41.50875
G1 X38.651 Y-28.3 E41.52966
G1 X38.492 Y-28.203 E41.53895
G1 X38.986 Y-27.917 E41.56743
G1 X38.986 Y-28.056 E41.57437
