;FLAVOR:RepRap
;TIME:10770
;Generated with Cura_SteamEngine 2.3.0
M104 S200
M109 S200
G21 ;metric values
G90 ;absolute positioning
M82 ;set extruder to absolute mode
M107 ;start with the fan off
G28 ;Home all axes (max endstops)
G1 Z15.0 F9000 ;move the platform down 15mm
G92 E0 ;zero the extruded length
G1 F200 E3 ;extrude 3mm of feed stock
G92 E0 ;zero the extruded length again
G1 F9000
;Put printing message on LCD screen
M117 Printing...
;LAYER_COUNT:110
;LAYER:0
M107
G1 F1500 E-6.5
G0 F7800 X-27.348 Y-40.038 Z.3
;TYPE:SKIRT
G1 F1500 E0
G1 F1800 X48.427 Y3.723 E4.36557
G1 X48.637 Y3.856 E4.37797
G1 X49.407 Y4.39 E4.42472
G1 X49.928 Y4.849 E4.45936
G1 X50.768 Y5.783 E4.52203
G1 X51.064 Y6.172 E4.54642
G1 X51.194 Y6.396 E4.55934
G1 X51.775 Y7.504 E4.62176
G1 X51.966 Y7.954 E4.64615
G1 X52.039 Y8.213 E4.65957
G1 X52.324 Y9.431 E4.72198
G1 X52.396 Y9.916 E4.74644
G1 X52.402 Y10.175 E4.75937
G1 X52.377 Y11.425 E4.82174
G1 X52.328 Y11.912 E4.84616
G1 X52.268 Y12.169 E4.85933
G1 X51.93 Y13.384 E4.92225
G1 X51.761 Y13.843 E4.94665
G1 X51.64 Y14.076 E4.95975
G1 X38.365 Y37.149 E6.28779
G1 X38.155 Y37.466 E6.30676
G1 X37.397 Y38.465 E6.36933
G1 X37.07 Y38.83 E6.39377
G1 X36.874 Y39 E6.40672
G1 X35.892 Y39.781 E6.46932
G1 X35.486 Y40.053 E6.4937
G1 X35.242 Y40.175 E6.50731
G1 X34.091 Y40.686 E6.57014
G1 X33.629 Y40.847 E6.59454
G1 X33.375 Y40.902 E6.60751
G1 X32.14 Y41.111 E6.67
G1 X31.652 Y41.153 E6.69444
G1 X31.389 Y41.143 E6.70757
G1 X30.143 Y41.039 E6.76995
G1 X29.661 Y40.958 E6.79433
G1 X29.406 Y40.882 E6.80761
G1 X28.22 Y40.469 E6.87026
G1 X27.707 Y40.234 E6.89841
G1 X-48.611 Y-3.828 E11.29495
G1 X-49.071 Y-4.155 E11.32311
G1 X-50.022 Y-4.976 E11.38579
G1 X-50.366 Y-5.325 E11.41024
G1 X-50.526 Y-5.535 E11.42341
G1 X-51.241 Y-6.564 E11.48592
G1 X-51.486 Y-6.988 E11.51035
G1 X-51.588 Y-7.228 E11.52336
G1 X-52.024 Y-8.398 E11.58566
G1 X-52.157 Y-8.87 E11.61012
G1 X-52.197 Y-9.134 E11.62344
G1 X-52.328 Y-10.386 E11.68625
G1 X-52.339 Y-10.875 E11.71065
G1 X-52.312 Y-11.137 E11.72379
G1 X-52.129 Y-12.373 E11.78613
G1 X-52.018 Y-12.85 E11.81056
G1 X-51.926 Y-13.098 E11.82376
G1 X-51.437 Y-14.26 E11.88665
G1 X-51.27 Y-14.596 E11.90537
G1 X-45.616 Y-24.39 E12.46957
G1 X-44.952 Y-25.727 E12.54405
G1 X-44.765 Y-26.051 E12.56271
G1 X-43.928 Y-27.313 E12.63826
G1 X-37.916 Y-37.645 E13.23464
G1 X-37.636 Y-38.046 E13.25904
G1 X-37.465 Y-38.237 E13.27183
G1 X-36.588 Y-39.131 E13.33431
G1 X-36.217 Y-39.451 E13.35876
G1 X-35.999 Y-39.597 E13.37185
G1 X-34.935 Y-40.241 E13.4339
G1 X-34.497 Y-40.459 E13.45831
G1 X-34.25 Y-40.546 E13.47137
G1 X-33.046 Y-40.91 E13.53412
G1 X-32.568 Y-41.013 E13.55852
G1 X-32.303 Y-41.035 E13.57178
G1 X-31.052 Y-41.087 E13.63425
G1 X-30.562 Y-41.068 E13.65872
G1 X-30.305 Y-41.025 E13.67172
G1 X-29.074 Y-40.764 E13.7345
G1 X-28.445 Y-40.556 E13.76755
G1 X-27.597 Y-40.167 E13.81409
G1 X-27.348 Y-40.038 E13.82808
G0 F7800 X-27.548 Y-39.692
G1 F1800 X48.227 Y4.069 E18.19366
G1 X48.409 Y4.184 E18.2044
G1 X49.179 Y4.718 E18.25115
G1 X49.63 Y5.116 E18.28115
G1 X50.47 Y6.05 E18.34383
G1 X50.84 Y6.582 E18.37615
G1 X51.421 Y7.69 E18.43857
G1 X51.65 Y8.305 E18.47131
G1 X51.935 Y9.523 E18.53372
G1 X52.002 Y10.167 E18.56602
G1 X51.977 Y11.417 E18.6284
G1 X51.883 Y12.062 E18.66092
G1 X51.545 Y13.277 E18.72384
G1 X51.294 Y13.877 E18.75628
G1 X38.019 Y36.95 E20.08433
G1 X37.836 Y37.225 E20.10081
G1 X37.078 Y38.224 E20.16337
G1 X36.625 Y38.687 E20.19569
G1 X35.643 Y39.468 E20.25828
G1 X35.08 Y39.809 E20.29112
G1 X33.929 Y40.32 E20.35395
G1 X33.308 Y40.508 E20.38632
G1 X32.073 Y40.717 E20.44881
G1 X31.423 Y40.744 E20.48127
G1 X30.177 Y40.64 E20.54365
G1 X29.538 Y40.504 E20.57624
G1 X28.352 Y40.091 E20.6389
G1 X27.907 Y39.888 E20.6633
G1 X-48.411 Y-4.174 E25.05984
G1 X-48.81 Y-4.458 E25.08427
G1 X-49.761 Y-5.279 E25.14695
G1 X-50.197 Y-5.763 E25.17945
G1 X-50.912 Y-6.792 E25.24197
G1 X-51.213 Y-7.368 E25.27439
G1 X-51.649 Y-8.538 E25.33668
G1 X-51.799 Y-9.175 E25.36933
G1 X-51.93 Y-10.427 E25.43214
G1 X-51.916 Y-11.079 E25.46467
G1 X-51.733 Y-12.315 E25.52701
G1 X-51.557 Y-12.942 E25.5595
G1 X-51.068 Y-14.104 E25.6224
G1 X-50.924 Y-14.396 E25.63864
G1 X-45.262 Y-24.203 E26.2036
G1 X-44.594 Y-25.549 E26.27857
G1 X-44.432 Y-25.83 E26.29475
G1 X-43.584 Y-27.108 E26.37127
G1 X-37.57 Y-37.444 E26.96787
G1 X-37.179 Y-37.957 E27.00005
G1 X-36.302 Y-38.851 E27.06253
G1 X-35.792 Y-39.254 E27.09496
G1 X-34.728 Y-39.898 E27.15701
G1 X-34.134 Y-40.163 E27.18946
G1 X-32.93 Y-40.527 E27.25221
G1 X-32.286 Y-40.636 E27.2848
G1 X-31.035 Y-40.688 E27.34727
G1 X-30.388 Y-40.633 E27.37966
G1 X-29.157 Y-40.372 E27.44244
G1 X-28.612 Y-40.192 E27.47108
G1 X-27.764 Y-39.803 E27.51762
G1 X-27.548 Y-39.692 E27.52974
G0 F7800 X-27.748 Y-39.345
G1 F1800 X48.027 Y4.416 E31.89531
G1 X48.181 Y4.513 E31.90439
G1 X48.951 Y5.047 E31.95114
G1 X49.333 Y5.384 E31.97655
G1 X50.173 Y6.318 E32.03922
G1 X50.485 Y6.767 E32.0665
G1 X51.066 Y7.875 E32.12892
G1 X51.26 Y8.396 E32.15665
G1 X51.545 Y9.614 E32.21906
G1 X51.603 Y10.159 E32.24641
G1 X51.578 Y11.409 E32.30878
G1 X51.498 Y11.955 E32.33631
G1 X51.16 Y13.17 E32.39923
G1 X50.947 Y13.677 E32.42667
G1 X37.672 Y36.75 E33.75471
G1 X37.518 Y36.983 E33.76864
G1 X36.76 Y37.982 E33.83121
G1 X36.376 Y38.374 E33.85858
G1 X35.394 Y39.155 E33.92118
G1 X34.918 Y39.444 E33.94896
G1 X33.767 Y39.955 E34.01179
G1 X33.241 Y40.113 E34.03919
G1 X32.006 Y40.322 E34.10168
G1 X31.456 Y40.345 E34.12915
G1 X30.21 Y40.241 E34.19153
G1 X29.67 Y40.127 E34.21906
G1 X28.484 Y39.714 E34.28172
G1 X28.107 Y39.541 E34.30241
G1 X-48.211 Y-4.521 E38.69895
G1 X-48.549 Y-4.761 E38.71963
G1 X-49.5 Y-5.582 E38.78231
G1 X-49.869 Y-5.992 E38.80983
G1 X-50.584 Y-7.021 E38.87234
G1 X-50.839 Y-7.508 E38.89977
G1 X-51.275 Y-8.678 E38.96206
G1 X-51.401 Y-9.217 E38.98968
G1 X-51.532 Y-10.469 E39.05248
G1 X-51.52 Y-11.02 E39.07998
G1 X-51.337 Y-12.256 E39.14231
G1 X-51.189 Y-12.787 E39.16982
G1 X-50.7 Y-13.949 E39.23271
G1 X-50.577 Y-14.196 E39.24648
G1 X-44.915 Y-24.004 E39.81148
G1 X-44.236 Y-25.371 E39.88763
G1 X-44.098 Y-25.609 E39.90136
G1 X-43.251 Y-26.887 E39.97785
G1 X-37.225 Y-37.242 E40.57557
G1 X-36.893 Y-37.677 E40.60287
G1 X-36.016 Y-38.571 E40.66535
G1 X-35.585 Y-38.912 E40.69277
G1 X-34.521 Y-39.556 E40.75482
G1 X-34.019 Y-39.78 E40.78225
G1 X-32.815 Y-40.144 E40.845
G1 X-32.269 Y-40.236 E40.87262
G1 X-31.018 Y-40.288 E40.93509
G1 X-30.471 Y-40.242 E40.96248
G1 X-29.24 Y-39.981 E41.02526
G1 X-28.779 Y-39.829 E41.04948
G1 X-27.931 Y-39.44 E41.09602
G1 X-27.748 Y-39.345 E41.10631
G0 F7800 X-27.948 Y-38.999
G1 F1800 X47.827 Y4.762 E45.47188
G1 X47.953 Y4.842 E45.47933
G1 X48.723 Y5.376 E45.52607
G1 X49.035 Y5.651 E45.54682
G1 X49.875 Y6.585 E45.60949
G1 X50.131 Y6.953 E45.63186
G1 X50.712 Y8.061 E45.69428
G1 X50.871 Y8.487 E45.71696
G1 X51.156 Y9.705 E45.77937
G1 X51.203 Y10.151 E45.80174
G1 X51.178 Y11.401 E45.86412
G1 X51.112 Y11.847 E45.88661
G1 X50.774 Y13.062 E45.94953
G1 X50.6 Y13.478 E45.97203
G1 X37.325 Y36.551 E47.30007
G1 X37.199 Y36.741 E47.31145
G1 X36.441 Y37.74 E47.37401
G1 X36.127 Y38.061 E47.39641
G1 X35.145 Y38.842 E47.45901
G1 X34.755 Y39.078 E47.48175
G1 X33.604 Y39.589 E47.54458
G1 X33.174 Y39.719 E47.56699
G1 X31.939 Y39.928 E47.62948
G1 X31.489 Y39.947 E47.65195
G1 X30.243 Y39.843 E47.71433
G1 X29.801 Y39.749 E47.73688
G1 X28.615 Y39.336 E47.79953
G1 X28.307 Y39.195 E47.81643
G1 X-48.011 Y-4.867 E52.21297
G1 X-48.287 Y-5.063 E52.22986
G1 X-49.238 Y-5.884 E52.29254
G1 X-49.54 Y-6.22 E52.31508
G1 X-50.255 Y-7.249 E52.37759
G1 X-50.464 Y-7.647 E52.40002
G1 X-50.9 Y-8.817 E52.46231
G1 X-51.003 Y-9.259 E52.48496
G1 X-51.134 Y-10.511 E52.54776
G1 X-51.125 Y-10.962 E52.57026
G1 X-50.942 Y-12.198 E52.6326
G1 X-50.82 Y-12.632 E52.65509
G1 X-50.331 Y-13.794 E52.71799
G1 X-50.231 Y-13.996 E52.72923
G1 X-44.554 Y-23.83 E53.29574
G1 X-43.877 Y-25.193 E53.37166
G1 X-43.765 Y-25.388 E53.38288
G1 X-42.907 Y-26.682 E53.46034
G1 X-36.879 Y-37.041 E54.05829
G1 X-36.608 Y-37.397 E54.08061
G1 X-35.731 Y-38.291 E54.14309
G1 X-35.378 Y-38.57 E54.16554
G1 X-34.314 Y-39.214 E54.22759
G1 X-33.903 Y-39.397 E54.25003
G1 X-32.699 Y-39.761 E54.31278
G1 X-32.253 Y-39.836 E54.33535
G1 X-31.002 Y-39.888 E54.39781
G1 X-30.554 Y-39.851 E54.42024
G1 X-29.323 Y-39.59 E54.48302
G1 X-28.945 Y-39.465 E54.50288
G1 X-28.097 Y-39.076 E54.54943
G1 X-27.948 Y-38.999 E54.5578
G0 F7800 X-28.148 Y-38.652
G1 F1800 X47.627 Y5.109 E58.92337
G1 X47.725 Y5.171 E58.92915
G1 X48.495 Y5.705 E58.9759
G1 X48.738 Y5.919 E58.99206
G1 X49.578 Y6.853 E59.05473
G1 X49.777 Y7.139 E59.07211
G1 X50.358 Y8.247 E59.13453
G1 X50.481 Y8.578 E59.15215
G1 X50.766 Y9.796 E59.21455
G1 X50.803 Y10.143 E59.23196
G1 X50.778 Y11.393 E59.29434
G1 X50.727 Y11.74 E59.31184
G1 X50.389 Y12.955 E59.37475
G1 X50.253 Y13.278 E59.39224
G1 X36.978 Y36.351 E60.72028
G1 X36.88 Y36.499 E60.72914
G1 X36.122 Y37.498 E60.7917
G1 X35.878 Y37.748 E60.80913
G1 X34.896 Y38.529 E60.87173
G1 X34.593 Y38.713 E60.88941
G1 X33.442 Y39.224 E60.95224
G1 X33.108 Y39.324 E60.96964
G1 X31.873 Y39.533 E61.03213
G1 X31.523 Y39.548 E61.0496
G1 X30.277 Y39.444 E61.11198
G1 X29.933 Y39.371 E61.12953
G1 X28.747 Y38.958 E61.19218
G1 X28.507 Y38.848 E61.20535
G1 X-47.811 Y-5.214 E65.60189
G1 X-48.026 Y-5.366 E65.61503
G1 X-48.977 Y-6.187 E65.67771
G1 X-49.212 Y-6.448 E65.69523
G1 X-49.927 Y-7.477 E65.75775
G1 X-50.089 Y-7.787 E65.7752
G1 X-50.525 Y-8.957 E65.83749
G1 X-50.605 Y-9.3 E65.85506
G1 X-50.736 Y-10.552 E65.91786
G1 X-50.729 Y-10.903 E65.93538
G1 X-50.546 Y-12.139 E65.99772
G1 X-50.451 Y-12.477 E66.01523
G1 X-49.962 Y-13.639 E66.07813
G1 X-49.884 Y-13.796 E66.08688
G1 X-44.21 Y-23.624 E66.65304
G1 X-43.519 Y-25.016 E66.73058
G1 X-43.432 Y-25.167 E66.73927
G1 X-42.562 Y-26.478 E66.81777
G1 X-36.533 Y-36.84 E67.41587
G1 X-36.322 Y-37.116 E67.4332
G1 X-35.445 Y-38.01 E67.49568
G1 X-35.171 Y-38.228 E67.51315
G1 X-34.107 Y-38.872 E67.5752
G1 X-33.787 Y-39.014 E67.59267
G1 X-32.583 Y-39.378 E67.65542
G1 X-32.236 Y-39.437 E67.67298
G1 X-30.985 Y-39.489 E67.73545
G1 X-30.637 Y-39.46 E67.75287
G1 X-29.406 Y-39.199 E67.81565
G1 X-29.112 Y-39.102 E67.83109
G1 X-28.264 Y-38.713 E67.87764
G1 X-28.148 Y-38.652 E67.88418
G0 F7800 X-28.348 Y-38.306
G1 F1800 X47.427 Y5.455 E72.24975
G1 X47.497 Y5.499 E72.25387
G1 X48.267 Y6.033 E72.30062
G1 X48.441 Y6.186 E72.31218
G1 X49.281 Y7.12 E72.37485
G1 X49.423 Y7.325 E72.38729
G1 X50.004 Y8.433 E72.44971
G1 X50.092 Y8.669 E72.46228
G1 X50.377 Y9.887 E72.52469
G1 X50.403 Y10.135 E72.53713
G1 X50.378 Y11.385 E72.5995
G1 X50.341 Y11.633 E72.61201
G1 X50.003 Y12.848 E72.67493
G1 X49.907 Y13.079 E72.68741
G1 X36.632 Y36.152 E74.01545
G1 X36.562 Y36.257 E74.02175
G1 X35.804 Y37.256 E74.08431
G1 X35.629 Y37.435 E74.0968
G1 X34.647 Y38.216 E74.1594
G1 X34.431 Y38.347 E74.172
G1 X33.28 Y38.858 E74.23483
G1 X33.041 Y38.93 E74.24728
G1 X31.806 Y39.139 E74.30977
G1 X31.556 Y39.15 E74.32226
G1 X30.31 Y39.046 E74.38464
G1 X30.064 Y38.993 E74.39719
G1 X28.878 Y38.58 E74.45985
G1 X28.707 Y38.502 E74.46922
G1 X-47.611 Y-5.56 E78.86576
G1 X-47.764 Y-5.669 E78.87514
G1 X-48.715 Y-6.49 E78.93782
G1 X-48.883 Y-6.676 E78.95032
G1 X-49.598 Y-7.705 E79.01284
G1 X-49.714 Y-7.927 E79.02533
G1 X-50.15 Y-9.097 E79.08762
G1 X-50.208 Y-9.342 E79.10019
G1 X-50.339 Y-10.594 E79.16299
G1 X-50.333 Y-10.844 E79.17547
G1 X-50.15 Y-12.08 E79.2378
G1 X-50.083 Y-12.322 E79.25033
G1 X-49.594 Y-13.484 E79.31323
G1 X-49.538 Y-13.596 E79.31947
G1 X-43.856 Y-23.438 E79.88645
G1 X-43.161 Y-24.838 E79.96443
G1 X-43.098 Y-24.946 E79.97066
G1 X-42.226 Y-26.262 E80.04942
G1 X-36.187 Y-36.639 E80.64842
G1 X-36.037 Y-36.836 E80.66078
G1 X-35.16 Y-37.73 E80.72325
G1 X-34.964 Y-37.886 E80.73575
G1 X-33.9 Y-38.53 E80.7978
G1 X-33.671 Y-38.631 E80.81029
G1 X-32.467 Y-38.995 E80.87304
G1 X-32.22 Y-39.037 E80.88554
G1 X-30.969 Y-39.089 E80.94801
G1 X-30.72 Y-39.068 E80.96047
G1 X-29.489 Y-38.807 E81.02325
G1 X-29.279 Y-38.738 E81.03428
G1 X-28.431 Y-38.349 E81.08083
G1 X-28.348 Y-38.306 E81.08549
G0 F7800 X-28.598 Y-37.985
G1 F1800 X-28.548 Y-37.96 E81.08828
G1 X47.227 Y5.801 E85.45385
G1 X47.269 Y5.828 E85.45634
G1 X48.039 Y6.362 E85.50309
G1 X48.143 Y6.454 E85.51002
G1 X48.983 Y7.388 E85.57269
G1 X49.068 Y7.51 E85.58011
G1 X49.649 Y8.618 E85.64253
G1 X49.702 Y8.76 E85.65009
G1 X49.987 Y9.978 E85.71249
G1 X50.003 Y10.127 E85.71997
G1 X49.978 Y11.377 E85.78235
G1 X49.956 Y11.526 E85.78986
G1 X49.618 Y12.741 E85.85278
G1 X49.56 Y12.879 E85.86025
G1 X36.285 Y35.952 E87.18829
G1 X36.243 Y36.016 E87.19211
G1 X35.485 Y37.015 E87.25467
G1 X35.38 Y37.122 E87.26215
G1 X34.398 Y37.903 E87.32475
G1 X34.268 Y37.981 E87.33231
G1 X33.117 Y38.492 E87.39514
G1 X32.974 Y38.536 E87.40261
G1 X31.739 Y38.745 E87.4651
G1 X31.589 Y38.751 E87.47259
G1 X30.343 Y38.647 E87.53497
G1 X30.196 Y38.616 E87.54246
G1 X29.01 Y38.203 E87.60512
G1 X28.907 Y38.156 E87.61076
G1 X-47.411 Y-5.906 E92.00731
G1 X-47.503 Y-5.972 E92.01295
G1 X-48.454 Y-6.793 E92.07563
G1 X-48.555 Y-6.905 E92.08316
G1 X-49.27 Y-7.934 E92.14567
G1 X-49.339 Y-8.066 E92.1531
G1 X-49.775 Y-9.236 E92.2154
G1 X-49.81 Y-9.384 E92.22298
G1 X-49.941 Y-10.636 E92.28579
G1 X-49.938 Y-10.786 E92.29327
G1 X-49.755 Y-12.022 E92.35561
G1 X-49.714 Y-12.167 E92.36313
G1 X-49.225 Y-13.329 E92.42602
G1 X-49.192 Y-13.396 E92.42975
G1 X-43.495 Y-23.263 E92.99818
G1 X-42.802 Y-24.66 E93.07598
G1 X-42.765 Y-24.725 E93.07971
G1 X-41.89 Y-26.045 E93.15872
G1 X-35.842 Y-36.438 E93.75863
G1 X-35.751 Y-36.556 E93.76607
G1 X-34.874 Y-37.45 E93.82855
G1 X-34.757 Y-37.543 E93.836
G1 X-33.693 Y-38.187 E93.89805
G1 X-33.556 Y-38.248 E93.90553
G1 X-32.352 Y-38.612 E93.96829
G1 X-32.203 Y-38.637 E93.97582
G1 X-30.952 Y-38.689 E94.03829
G1 X-30.803 Y-38.677 E94.04575
G1 X-29.572 Y-38.416 E94.10853
G1 X-29.446 Y-38.374 E94.11515
G1 X-28.598 Y-37.985 E94.1617
G0 F7800 X-28.748 Y-37.613
G1 F1800 X47.027 Y6.148 E98.52727
G1 X47.041 Y6.157 E98.5281
G1 X47.811 Y6.691 E98.57485
G1 X47.846 Y6.721 E98.57715
G1 X48.686 Y7.655 E98.63982
G1 X48.714 Y7.696 E98.6423
G1 X49.295 Y8.804 E98.70472
G1 X49.313 Y8.851 E98.70723
G1 X49.598 Y10.069 E98.76963
G1 X49.603 Y10.119 E98.77214
G1 X49.578 Y11.369 E98.83452
G1 X49.571 Y11.419 E98.83703
G1 X49.233 Y12.634 E98.89995
G1 X49.213 Y12.68 E98.90246
G1 X35.938 Y35.753 E100.2305
G1 X35.924 Y35.774 E100.23176
G1 X35.166 Y36.773 E100.29432
G1 X35.131 Y36.809 E100.29683
G1 X34.149 Y37.59 E100.35942
G1 X34.106 Y37.616 E100.36193
G1 X32.955 Y38.127 E100.42476
G1 X32.907 Y38.141 E100.42725
G1 X31.672 Y38.35 E100.48974
G1 X31.622 Y38.352 E100.49224
G1 X30.376 Y38.248 E100.55462
G1 X30.327 Y38.238 E100.55712
G1 X29.141 Y37.825 E100.61977
G1 X29.107 Y37.809 E100.62165
G1 X-47.211 Y-6.253 E105.01819
G1 X-47.242 Y-6.275 E105.02008
G1 X-48.193 Y-7.096 E105.08276
G1 X-48.226 Y-7.133 E105.08524
G1 X-48.941 Y-8.162 E105.14775
G1 X-48.964 Y-8.206 E105.15023
G1 X-49.4 Y-9.376 E105.21252
G1 X-49.412 Y-9.425 E105.21504
G1 X-49.543 Y-10.677 E105.27784
G1 X-49.542 Y-10.727 E105.28033
G1 X-49.359 Y-11.963 E105.34267
G1 X-49.345 Y-12.012 E105.34521
G1 X-48.856 Y-13.174 E105.40811
G1 X-48.845 Y-13.196 E105.40934
G1 X-43.148 Y-23.064 E105.97781
G1 X-42.444 Y-24.482 E106.05679
G1 X-42.432 Y-24.504 E106.05804
G1 X-41.544 Y-25.843 E106.1382
G1 X-35.496 Y-36.237 E106.73816
G1 X-35.466 Y-36.276 E106.74061
G1 X-34.589 Y-37.17 E106.80309
G1 X-34.55 Y-37.201 E106.80558
G1 X-33.486 Y-37.845 E106.86763
G1 X-33.44 Y-37.865 E106.87013
G1 X-32.236 Y-38.229 E106.93288
G1 X-32.186 Y-38.238 E106.93542
G1 X-30.935 Y-38.29 E106.99788
G1 X-30.886 Y-38.286 E107.00033
G1 X-29.655 Y-38.025 E107.06311
G1 X-29.613 Y-38.011 E107.06532
G1 X-28.765 Y-37.622 E107.11187
G1 X-28.748 Y-37.613 E107.11283
G1 F1500 E100.61283
G0 F7800 X-29.153 Y-36.878
G0 X-29.182 Y-36.825
G0 X-29.134 Y-36.912
;TYPE:WALL-INNER
G1 F1500 E107.11283
G1 F1800 X46.12 Y6.535 E111.44806
G1 X46.115 Y6.545 E111.44861
G1 X46.865 Y6.977 E111.4918
G1 X47.301 Y7.307 E111.51908
G1 X47.701 Y7.699 E111.54702
G1 X48.045 Y8.133 E111.57465
G1 X48.328 Y8.601 E111.60193
G1 X48.554 Y9.106 E111.62953
G1 X48.715 Y9.644 E111.65755
G1 X48.805 Y10.173 E111.68432
G1 X48.829 Y10.736 E111.71244
