;FLAVOR:RepRap
;TIME:1988
;Generated with Cura_SteamEngine 2.3.0
M104 S200
M109 S200
G21 ;metric values
G90 ;absolute positioning
M82 ;set extruder to absolute mode
M107 ;start with the fan off
G28 ;Home all axes (max endstops)
G1 Z15.0 F9000 ;move the platform down 15mm
G92 E0 ;zero the extruded length
G1 F200 E3 ;extrude 3mm of feed stock
G92 E0 ;zero the extruded length again
G1 F9000
;Put printing message on LCD screen
M117 Printing...
;LAYER_COUNT:29
;LAYER:0
M107
G1 F1500 E-6.5
G0 F7800 X29.728 Y-6.507 Z.3
;TYPE:SKIRT
G1 F1500 E0
G1 F1800 X30.044 Y-6.298 E0.0189
G1 X31.048 Y-5.536 E0.08178
G1 X31.412 Y-5.209 E0.1062
G1 X31.584 Y-5.011 E0.11928
G1 X32.36 Y-4.033 E0.18157
G1 X32.632 Y-3.626 E0.20599
G1 X32.749 Y-3.392 E0.21904
G1 X33.26 Y-2.248 E0.28155
G1 X33.423 Y-1.786 E0.30599
G1 X33.479 Y-1.525 E0.31931
G1 X33.689 Y-.286 E0.38201
G1 X33.731 Y.201 E0.40639
G1 X33.72 Y.467 E0.41967
G1 X33.615 Y1.715 E0.48216
G1 X33.535 Y2.197 E0.50653
G1 X33.461 Y2.445 E0.51945
G1 X33.052 Y3.626 E0.5818
G1 X32.816 Y4.143 E0.61015
G1 X20.164 Y26.074 E1.87331
G1 X19.896 Y26.463 E1.89688
G1 X18.912 Y27.678 E1.97488
G1 X18.574 Y28.032 E1.9993
G1 X18.296 Y28.252 E2.01699
G1 X17.268 Y28.968 E2.07949
G1 X16.844 Y29.214 E2.10395
G1 X16.6 Y29.317 E2.11716
G1 X15.427 Y29.754 E2.17961
G1 X14.956 Y29.887 E2.20403
G1 X14.692 Y29.927 E2.21735
G1 X13.439 Y30.058 E2.2802
G1 X12.95 Y30.069 E2.3046
G1 X12.686 Y30.041 E2.31785
G1 X11.449 Y29.857 E2.38024
G1 X10.972 Y29.746 E2.40468
G1 X10.727 Y29.656 E2.4177
G1 X9.571 Y29.17 E2.48026
G1 X9.232 Y29.001 E2.49916
G1 X-30.265 Y6.15 E4.77569
G1 X-30.668 Y5.871 E4.80015
G1 X-30.86 Y5.698 E4.81304
G1 X-31.752 Y4.826 E4.87528
G1 X-32.073 Y4.457 E4.89968
G1 X-32.223 Y4.233 E4.91313
G1 X-32.872 Y3.159 E4.97573
G1 X-33.09 Y2.72 E5.00018
G1 X-33.176 Y2.474 E5.01319
G1 X-33.538 Y1.275 E5.07567
G1 X-33.641 Y.797 E5.10007
G1 X-33.664 Y.53 E5.11344
G1 X-33.715 Y-.72 E5.17585
G1 X-33.694 Y-1.209 E5.20027
G1 X-33.651 Y-1.466 E5.21327
G1 X-33.389 Y-2.698 E5.27611
G1 X-33.223 Y-3.23 E5.30391
G1 X-32.985 Y-3.8 E5.33473
G1 X-32.816 Y-4.143 E5.35381
G1 X-20.164 Y-26.074 E6.61697
G1 X-19.896 Y-26.463 E6.64053
G1 X-18.912 Y-27.678 E6.71854
G1 X-18.574 Y-28.032 E6.74295
G1 X-18.296 Y-28.252 E6.76064
G1 X-17.268 Y-28.968 E6.82314
G1 X-16.844 Y-29.214 E6.8476
G1 X-16.6 Y-29.317 E6.86081
G1 X-15.427 Y-29.754 E6.92326
G1 X-14.956 Y-29.887 E6.94768
G1 X-14.692 Y-29.927 E6.961
G1 X-13.439 Y-30.058 E7.02385
G1 X-12.87 Y-30.063 E7.05224
G1 X-12.253 Y-30.01 E7.08314
G1 X-11.704 Y-29.911 E7.11097
G1 X-10.489 Y-29.572 E7.1739
G1 X-10.03 Y-29.402 E7.19832
G1 X-9.797 Y-29.281 E7.21142
G1 X29.728 Y-6.507 E9.48724
G0 F7800 X29.528 Y-6.161
G1 F1800 X29.802 Y-5.979 E9.50366
G1 X30.806 Y-5.217 E9.56654
G1 X31.271 Y-4.762 E9.599
G1 X32.047 Y-3.784 E9.66128
G1 X32.384 Y-3.228 E9.69372
G1 X32.895 Y-2.084 E9.75623
G1 X33.084 Y-1.458 E9.78885
G1 X33.294 Y-.219 E9.85155
G1 X33.322 Y.433 E9.8841
G1 X33.217 Y1.681 E9.94659
G1 X33.083 Y2.314 E9.97887
G1 X32.674 Y3.495 E10.04122
G1 X32.469 Y3.943 E10.0658
G1 X19.817 Y25.874 E11.32896
G1 X19.585 Y26.211 E11.34937
G1 X18.601 Y27.426 E11.42738
G1 X18.285 Y27.754 E11.4501
G1 X18.067 Y27.924 E11.46389
G1 X17.039 Y28.64 E11.52639
G1 X16.461 Y28.942 E11.55893
G1 X15.288 Y29.379 E11.62138
G1 X14.65 Y29.529 E11.65408
G1 X13.397 Y29.66 E11.71693
G1 X12.744 Y29.646 E11.74951
G1 X11.507 Y29.462 E11.81191
G1 X10.882 Y29.287 E11.84429
G1 X9.726 Y28.801 E11.90685
G1 X9.432 Y28.654 E11.92325
G1 X-30.065 Y5.803 E14.19979
G1 X-30.581 Y5.412 E14.23209
G1 X-31.473 Y4.54 E14.29432
G1 X-31.88 Y4.026 E14.32703
G1 X-32.529 Y2.952 E14.38963
G1 X-32.793 Y2.358 E14.42206
G1 X-33.155 Y1.159 E14.48455
G1 X-33.264 Y.514 E14.51718
G1 X-33.315 Y-.736 E14.5796
G1 X-33.26 Y-1.383 E14.61199
G1 X-32.998 Y-2.615 E14.67483
G1 X-32.854 Y-3.076 E14.69893
G1 X-32.616 Y-3.646 E14.72975
G1 X-32.469 Y-3.943 E14.74628
G1 X-19.817 Y-25.874 E16.00944
G1 X-19.585 Y-26.211 E16.02985
G1 X-18.601 Y-27.426 E16.10785
G1 X-18.285 Y-27.754 E16.13058
G1 X-18.067 Y-27.924 E16.14437
G1 X-17.039 Y-28.64 E16.20687
G1 X-16.461 Y-28.942 E16.23941
G1 X-15.288 Y-29.379 E16.30186
G1 X-14.65 Y-29.529 E16.33455
G1 X-13.397 Y-29.66 E16.39741
G1 X-12.904 Y-29.664 E16.422
G1 X-12.287 Y-29.611 E16.4529
G1 X-11.811 Y-29.525 E16.47703
G1 X-10.596 Y-29.186 E16.53996
G1 X-9.997 Y-28.935 E16.57236
G1 X29.528 Y-6.161 E18.84819
G0 F7800 X29.328 Y-5.814
G1 F1800 X29.56 Y-5.66 E18.86208
G1 X30.564 Y-4.898 E18.92496
G1 X30.957 Y-4.513 E18.95241
G1 X31.733 Y-3.535 E19.0147
G1 X32.019 Y-3.065 E19.04215
G1 X32.53 Y-1.921 E19.10466
G1 X32.69 Y-1.392 E19.13223
G1 X32.9 Y-.153 E19.19492
G1 X32.923 Y.399 E19.22249
G1 X32.818 Y1.647 E19.28497
G1 X32.705 Y2.183 E19.3123
G1 X32.296 Y3.364 E19.37465
G1 X32.123 Y3.743 E19.39544
G1 X19.471 Y25.674 E20.6586
G1 X19.275 Y25.96 E20.6759
G1 X18.291 Y27.175 E20.7539
G1 X17.838 Y27.595 E20.78472
G1 X16.81 Y28.311 E20.84722
G1 X16.321 Y28.568 E20.87478
G1 X15.148 Y29.005 E20.93723
G1 X14.609 Y29.131 E20.96485
G1 X13.356 Y29.262 E21.0277
G1 X12.803 Y29.25 E21.0553
G1 X11.566 Y29.066 E21.11769
G1 X11.037 Y28.918 E21.14509
G1 X9.881 Y28.432 E21.20766
G1 X9.632 Y28.308 E21.22153
G1 X-29.865 Y5.457 E23.49807
G1 X-30.301 Y5.126 E23.52538
G1 X-31.193 Y4.254 E23.58761
G1 X-31.538 Y3.819 E23.61531
G1 X-32.187 Y2.745 E23.67792
G1 X-32.41 Y2.243 E23.70532
G1 X-32.772 Y1.044 E23.76781
G1 X-32.864 Y.498 E23.79543
G1 X-32.915 Y-.752 E23.85785
G1 X-32.869 Y-1.3 E23.88528
G1 X-32.607 Y-2.532 E23.94812
G1 X-32.485 Y-2.922 E23.96851
G1 X-32.247 Y-3.492 E23.99933
G1 X-32.123 Y-3.743 E24.01329
G1 X-19.471 Y-25.674 E25.27645
G1 X-19.275 Y-25.96 E25.29375
G1 X-18.291 Y-27.175 E25.37175
G1 X-17.838 Y-27.595 E25.40257
G1 X-16.81 Y-28.311 E25.46507
G1 X-16.321 Y-28.568 E25.49264
G1 X-15.148 Y-29.005 E25.55509
G1 X-14.609 Y-29.131 E25.5827
G1 X-13.356 Y-29.262 E25.64555
G1 X-12.939 Y-29.266 E25.66636
G1 X-12.322 Y-29.213 E25.69726
G1 X-11.919 Y-29.14 E25.71769
G1 X-10.704 Y-28.801 E25.78062
G1 X-10.197 Y-28.588 E25.80806
G1 X29.328 Y-5.814 E28.08388
G0 F7800 X29.129 Y-5.468
G1 F1800 X29.318 Y-5.342 E28.09521
G1 X30.322 Y-4.58 E28.1581
G1 X30.644 Y-4.265 E28.18057
G1 X31.42 Y-3.287 E28.24286
G1 X31.653 Y-2.902 E28.26531
G1 X32.164 Y-1.758 E28.32782
G1 X32.296 Y-1.325 E28.3504
G1 X32.506 Y-.086 E28.4131
G1 X32.525 Y.366 E28.43567
G1 X32.42 Y1.614 E28.49815
G1 X32.327 Y2.052 E28.52049
G1 X31.918 Y3.233 E28.58284
G1 X31.776 Y3.543 E28.59985
G1 X19.124 Y25.474 E29.86301
G1 X18.964 Y25.708 E29.87716
G1 X17.98 Y26.923 E29.95516
G1 X17.61 Y27.267 E29.98036
G1 X16.582 Y27.983 E30.04286
G1 X16.181 Y28.193 E30.06545
G1 X15.008 Y28.63 E30.1279
G1 X14.567 Y28.733 E30.15049
G1 X13.314 Y28.864 E30.21334
G1 X12.862 Y28.854 E30.2359
G1 X11.625 Y28.67 E30.29829
G1 X11.192 Y28.549 E30.32072
G1 X10.036 Y28.063 E30.38329
G1 X9.833 Y27.962 E30.3946
G1 X-29.664 Y5.111 E32.67113
G1 X-30.021 Y4.84 E32.6935
G1 X-30.913 Y3.968 E32.75573
G1 X-31.196 Y3.612 E32.77842
G1 X-31.845 Y2.538 E32.84102
G1 X-32.027 Y2.127 E32.86345
G1 X-32.389 Y.928 E32.92593
G1 X-32.465 Y.481 E32.94856
G1 X-32.516 Y-.769 E33.01097
G1 X-32.478 Y-1.216 E33.03335
G1 X-32.216 Y-2.448 E33.09619
G1 X-32.116 Y-2.768 E33.11292
G1 X-31.878 Y-3.338 E33.14373
G1 X-31.776 Y-3.543 E33.15516
G1 X-19.124 Y-25.474 E34.41832
G1 X-18.964 Y-25.708 E34.43246
G1 X-17.98 Y-26.923 E34.51046
G1 X-17.61 Y-27.267 E34.53567
G1 X-16.582 Y-27.983 E34.59817
G1 X-16.181 Y-28.193 E34.62075
G1 X-15.008 Y-28.63 E34.6832
G1 X-14.567 Y-28.733 E34.7058
G1 X-13.314 Y-28.864 E34.76865
G1 X-12.973 Y-28.867 E34.78566
G1 X-12.356 Y-28.814 E34.81656
G1 X-12.026 Y-28.755 E34.83328
G1 X-10.811 Y-28.416 E34.89621
G1 X-10.396 Y-28.242 E34.91867
G1 X29.129 Y-5.468 E37.19449
G0 F7800 X28.929 Y-5.121
G1 F1800 X29.076 Y-5.023 E37.2033
G1 X30.08 Y-4.261 E37.26619
G1 X30.331 Y-4.016 E37.28369
G1 X31.107 Y-3.038 E37.34597
G1 X31.288 Y-2.739 E37.36341
G1 X31.799 Y-1.595 E37.42592
G1 X31.901 Y-1.258 E37.44349
G1 X32.111 Y-.019 E37.50618
G1 X32.126 Y.332 E37.52371
G1 X32.021 Y1.58 E37.58619
G1 X31.949 Y1.921 E37.60358
G1 X31.54 Y3.102 E37.66593
G1 X31.43 Y3.344 E37.67919
G1 X18.778 Y25.275 E38.94236
G1 X18.653 Y25.456 E38.95333
G1 X17.669 Y26.671 E39.03133
G1 X17.381 Y26.939 E39.05096
G1 X16.353 Y27.655 E39.11346
G1 X16.042 Y27.818 E39.13098
G1 X14.869 Y28.255 E39.19343
G1 X14.526 Y28.335 E39.211
G1 X13.273 Y28.466 E39.27385
G1 X12.921 Y28.459 E39.29142
G1 X11.684 Y28.275 E39.35381
G1 X11.347 Y28.181 E39.37127
G1 X10.191 Y27.695 E39.43383
G1 X10.033 Y27.616 E39.44264
G1 X-29.464 Y4.765 E41.71918
G1 X-29.742 Y4.554 E41.73659
G1 X-30.634 Y3.682 E41.79882
G1 X-30.853 Y3.405 E41.81644
G1 X-31.502 Y2.331 E41.87905
G1 X-31.644 Y2.012 E41.89647
G1 X-32.006 Y.813 E41.95895
G1 X-32.065 Y.465 E41.97656
G1 X-32.116 Y-.785 E42.03898
G1 X-32.086 Y-1.133 E42.0564
G1 X-31.824 Y-2.365 E42.11924
G1 X-31.747 Y-2.613 E42.1322
G1 X-31.509 Y-3.183 E42.16301
G1 X-31.43 Y-3.344 E42.17196
G1 X-18.778 Y-25.275 E43.43512
G1 X-18.653 Y-25.456 E43.4461
G1 X-17.669 Y-26.671 E43.5241
G1 X-17.381 Y-26.939 E43.54372
G1 X-16.353 Y-27.655 E43.60623
G1 X-16.042 Y-27.818 E43.62374
G1 X-14.869 Y-28.255 E43.68619
G1 X-14.526 Y-28.335 E43.70377
G1 X-13.273 Y-28.466 E43.76662
G1 X-13.007 Y-28.469 E43.77989
G1 X-12.39 Y-28.416 E43.81079
G1 X-12.134 Y-28.369 E43.82377
G1 X-10.919 Y-28.03 E43.8867
G1 X-10.596 Y-27.895 E43.90417
G1 X28.929 Y-5.121 E46.17999
G0 F7800 X28.729 Y-4.774
G1 F1800 X28.835 Y-4.705 E46.1863
G1 X29.839 Y-3.943 E46.24919
G1 X30.017 Y-3.768 E46.26164
G1 X30.793 Y-2.79 E46.32393
G1 X30.923 Y-2.576 E46.33642
G1 X31.434 Y-1.432 E46.39893
G1 X31.507 Y-1.191 E46.41149
G1 X31.717 Y.048 E46.47419
G1 X31.727 Y.299 E46.48672
G1 X31.622 Y1.547 E46.5492
G1 X31.571 Y1.79 E46.56159
G1 X31.162 Y2.971 E46.62394
G1 X31.083 Y3.144 E46.63343
G1 X18.431 Y25.075 E47.89659
G1 X18.342 Y25.204 E47.90441
G1 X17.358 Y26.419 E47.98241
G1 X17.153 Y26.611 E47.99643
G1 X16.125 Y27.327 E48.05893
G1 X15.902 Y27.443 E48.07147
G1 X14.729 Y27.88 E48.13392
G1 X14.484 Y27.938 E48.14648
G1 X13.231 Y28.069 E48.20933
G1 X12.98 Y28.063 E48.22186
G1 X11.743 Y27.879 E48.28425
G1 X11.502 Y27.812 E48.29673
G1 X10.346 Y27.326 E48.35929
G1 X10.233 Y27.27 E48.36558
G1 X-29.264 Y4.419 E50.64212
G1 X-29.462 Y4.268 E50.65454
G1 X-30.354 Y3.396 E50.71678
G1 X-30.511 Y3.198 E50.72938
G1 X-31.16 Y2.124 E50.79199
G1 X-31.261 Y1.896 E50.80443
G1 X-31.623 Y.697 E50.86692
G1 X-31.665 Y.449 E50.87947
G1 X-31.716 Y-.801 E50.94188
G1 X-31.695 Y-1.05 E50.95435
G1 X-31.433 Y-2.282 E51.01719
G1 X-31.378 Y-2.459 E51.02643
G1 X-31.14 Y-3.029 E51.05725
G1 X-31.083 Y-3.144 E51.06365
G1 X-18.431 Y-25.075 E52.32681
G1 X-18.342 Y-25.204 E52.33463
G1 X-17.358 Y-26.419 E52.41263
G1 X-17.153 Y-26.611 E52.42665
G1 X-16.125 Y-27.327 E52.48915
G1 X-15.902 Y-27.443 E52.50169
G1 X-14.729 Y-27.88 E52.56414
G1 X-14.484 Y-27.938 E52.5767
G1 X-13.231 Y-28.069 E52.63955
G1 X-13.041 Y-28.07 E52.64903
G1 X-12.424 Y-28.017 E52.67993
G1 X-12.241 Y-27.984 E52.68921
G1 X-11.026 Y-27.645 E52.75214
G1 X-10.796 Y-27.548 E52.76459
G1 X28.729 Y-4.774 E55.04042
G0 F7800 X28.593 Y-4.386
G1 F1800 X29.597 Y-3.624 E55.1033
G1 X29.704 Y-3.519 E55.11078
G1 X30.48 Y-2.541 E55.17306
G1 X30.558 Y-2.413 E55.18054
G1 X31.069 Y-1.269 E55.24305
G1 X31.113 Y-1.124 E55.25061
G1 X31.323 Y.115 E55.31331
G1 X31.329 Y.265 E55.3208
G1 X31.224 Y1.513 E55.38328
G1 X31.193 Y1.659 E55.39073
G1 X30.784 Y2.84 E55.45308
G1 X30.737 Y2.944 E55.45877
G1 X18.085 Y24.875 E56.72193
G1 X18.031 Y24.953 E56.72667
G1 X17.047 Y26.168 E56.80467
G1 X16.924 Y26.282 E56.81304
G1 X15.896 Y26.998 E56.87554
G1 X15.762 Y27.068 E56.88308
G1 X14.589 Y27.505 E56.94553
G1 X14.442 Y27.54 E56.95307
G1 X13.189 Y27.671 E57.01592
G1 X13.039 Y27.667 E57.02341
G1 X11.802 Y27.483 E57.0858
G1 X11.657 Y27.443 E57.09331
G1 X10.501 Y26.957 E57.15587
G1 X10.434 Y26.923 E57.15962
G1 X-29.063 Y4.072 E59.43615
G1 X-29.182 Y3.982 E59.4436
G1 X-30.074 Y3.11 E59.50583
G1 X-30.169 Y2.991 E59.51343
G1 X-30.818 Y1.917 E59.57603
G1 X-30.878 Y1.78 E59.58349
G1 X-31.24 Y.581 E59.64598
G1 X-31.266 Y.432 E59.65353
G1 X-31.317 Y-.818 E59.71594
G1 X-31.304 Y-.967 E59.7234
G1 X-31.042 Y-2.199 E59.78624
G1 X-31.009 Y-2.305 E59.79178
G1 X-30.771 Y-2.875 E59.8226
G1 X-30.737 Y-2.944 E59.82643
G1 X-18.085 Y-24.875 E61.08959
G1 X-18.031 Y-24.953 E61.09433
G1 X-17.047 Y-26.168 E61.17233
G1 X-16.924 Y-26.282 E61.1807
G1 X-15.896 Y-26.998 E61.2432
G1 X-15.762 Y-27.068 E61.25074
G1 X-14.589 Y-27.505 E61.31319
G1 X-14.442 Y-27.54 E61.32073
G1 X-13.189 Y-27.671 E61.38358
G1 X-13.076 Y-27.672 E61.38922
G1 X-12.459 Y-27.619 E61.42012
G1 X-12.349 Y-27.599 E61.42569
G1 X-11.134 Y-27.26 E61.48863
G1 X-10.995 Y-27.202 E61.49614
G1 X28.53 Y-4.428 E63.77197
G1 X28.593 Y-4.386 E63.77574
G0 F7800 X28.351 Y-4.067
G1 F1800 X29.355 Y-3.305 E63.83863
G1 X29.391 Y-3.27 E63.84113
G1 X30.167 Y-2.292 E63.90342
G1 X30.193 Y-2.25 E63.90588
G1 X30.704 Y-1.106 E63.96839
G1 X30.718 Y-1.057 E63.97093
G1 X30.928 Y.182 E64.03363
G1 X30.93 Y.232 E64.03612
G1 X30.825 Y1.48 E64.09861
G1 X30.815 Y1.528 E64.10105
G1 X30.406 Y2.709 E64.16341
G1 X30.39 Y2.744 E64.16533
G1 X17.738 Y24.675 E65.42849
G1 X17.72 Y24.701 E65.43007
G1 X16.736 Y25.916 E65.50807
G1 X16.695 Y25.954 E65.51086
G1 X15.667 Y26.67 E65.57336
G1 X15.623 Y26.693 E65.57584
G1 X14.45 Y27.13 E65.63829
G1 X14.401 Y27.142 E65.6408
G1 X13.148 Y27.273 E65.70366
G1 X13.098 Y27.272 E65.70615
G1 X11.861 Y27.088 E65.76854
G1 X11.812 Y27.074 E65.77109
G1 X10.656 Y26.588 E65.83365
G1 X10.634 Y26.577 E65.83488
G1 X-28.863 Y3.726 E68.11141
G1 X-28.903 Y3.696 E68.11391
G1 X-29.795 Y2.824 E68.17614
G1 X-29.826 Y2.784 E68.17867
G1 X-30.475 Y1.71 E68.24127
G1 X-30.495 Y1.665 E68.24373
G1 X-30.857 Y.466 E68.30621
G1 X-30.866 Y.416 E68.30875
G1 X-30.917 Y-.834 E68.37116
G1 X-30.913 Y-.884 E68.37366
G1 X-30.651 Y-2.116 E68.4365
G1 X-30.64 Y-2.151 E68.43833
G1 X-30.402 Y-2.721 E68.46915
G1 X-30.39 Y-2.744 E68.47044
G1 X-17.738 Y-24.675 E69.73361
G1 X-17.72 Y-24.701 E69.73518
G1 X-16.736 Y-25.916 E69.81319
G1 X-16.695 Y-25.954 E69.81597
G1 X-15.667 Y-26.67 E69.87848
G1 X-15.623 Y-26.693 E69.88095
G1 X-14.45 Y-27.13 E69.9434
G1 X-14.401 Y-27.142 E69.94592
G1 X-13.148 Y-27.273 E70.00877
G1 X-13.11 Y-27.273 E70.01067
G1 X-12.493 Y-27.22 E70.04156
G1 X-12.456 Y-27.214 E70.04343
G1 X-11.241 Y-26.875 E70.10637
G1 X-11.195 Y-26.855 E70.10887
G1 X28.33 Y-4.081 E72.38469
G1 X28.351 Y-4.067 E72.38595
G0 F7800 X27.905 Y-3.403
;TYPE:WALL-INNER
G1 F1800 X28.4 Y-3.073 E72.41563
G1 X28.814 Y-2.716 E72.44291
G1 X29.182 Y-2.309 E72.47028
G1 X29.501 Y-1.85 E72.49817
G1 X29.754 Y-1.367 E72.52537
G1 X29.947 Y-.848 E72.553
G1 X30.072 Y-.313 E72.58041
G1 X30.13 Y.241 E72.6082
G1 X30.118 Y.791 E72.63564
G1 X30.037 Y1.34 E72.66333
G1 X29.887 Y1.877 E72.69115
G1 X29.676 Y2.38 E72.71836
G1 X17.356 Y23.737 E73.94844
G1 X17.348 Y23.732 E73.94891
G1 X16.902 Y24.504 E73.99339
G1 X16.566 Y24.948 E74.02117
G1 X16.176 Y25.346 E74.04897
G1 X15.745 Y25.688 E74.07642
G1 X15.273 Y25.973 E74.10393
G1 X14.768 Y26.198 E74.13151
G1 X14.243 Y26.357 E74.15887
G1 X13.698 Y26.448 E74.18644
G1 X13.139 Y26.473 E74.21436
G1 X12.591 Y26.426 E74.2418
G1 X12.058 Y26.313 E74.26898
G1 X11.529 Y26.128 E74.29694
G1 X11.005 Y25.869 E74.3261
G1 X-27.905 Y3.403 E76.56767
G1 X-28.4 Y3.073 E76.59735
G1 X-28.814 Y2.716 E76.62462
G1 X-29.182 Y2.309 E76.652
G1 X-29.501 Y1.85 E76.67989
G1 X-29.754 Y1.367 E76.70709
G1 X-29.947 Y.848 E76.73471
G1 X-30.072 Y.313 E76.76212
G1 X-30.13 Y-.241 E76.78991
G1 X-30.118 Y-.791 E76.81736
G1 X-30.037 Y-1.341 E76.8451
G1 X-29.886 Y-1.878 E76.87293
G1 X-29.676 Y-2.38 E76.90007
G1 X-17.356 Y-23.737 E78.13015
G1 X-17.348 Y-23.732 E78.13062
G1 X-16.902 Y-24.504 E78.1751
G1 X-16.566 Y-24.948 E78.20288
G1 X-16.176 Y-25.346 E78.23068
G1 X-15.745 Y-25.688 E78.25813
G1 X-15.273 Y-25.973 E78.28564
G1 X-14.768 Y-26.198 E78.31322
G1 X-14.243 Y-26.357 E78.34059
G1 X-13.698 Y-26.448 E78.36816
G1 X-13.139 Y-26.473 E78.39607
G1 X-12.591 Y-26.426 E78.42351
G1 X-12.058 Y-26.313 E78.4507
G1 X-11.529 Y-26.128 E78.47866
G1 X-11.005 Y-25.869 E78.50782
G1 X27.905 Y-3.403 E80.74939
